;FLAVOR:UltiGCode
;TIME:425
;MATERIAL:51476
;MATERIAL2:0
;NOZZLE_DIAMETER:0.4
;MINX:51.064
;MINY:58.564
;MINZ:0.3
;MAXX:113.936
;MAXY:121.436
;MAXZ:99.7
;Generated with Cura_SteamEngine main
M82 ;absolute extrusion mode
G28 ;Home
G1 Z15.0 F6000 ;Move the platform down 15mm
;Prime the extruder
G92 E0
G1 F200 E3
G92 E0
G92 E0
G92 E0
G10
;LAYER_COUNT:72
;LAYER:0
M107
G0 F3600 X69.286 Y68.659 Z0.3
;TYPE:WALL-OUTER
G11
G1 F1800 X84.817 Y65.007 E20.05492
G1 X103.841 Y76.786 E48.18077
G1 X107.493 Y92.317 E68.2357
G1 X95.714 Y111.341 E96.36154
G1 X80.183 Y114.993 E116.41647
G1 X61.159 Y103.214 E144.54231
G1 X57.507 Y87.683 E164.59724
G1 X69.286 Y68.659 E192.72308
G0 F3600 X69.48 Y68.614
G0 F600 X69.48 Y68.614 Z1.7
G0 F3600 X68.988 Y68.179
;TIME_ELAPSED:8.648921
;LAYER:1
M106 S255
;TYPE:WALL-OUTER
G1 F1800 X84.869 Y64.444 E288.42277
G1 X104.321 Y76.488 E422.62965
G1 X108.056 Y92.369 E518.32933
G1 X96.012 Y111.821 E652.53621
G1 X80.131 Y115.556 E748.2359
G1 X60.679 Y103.512 E882.44278
G1 X56.944 Y87.631 E978.14246
G1 X68.988 Y68.179 E1112.34934
G0 F5400 X69.182 Y68.134
G0 F600 X69.182 Y68.134 Z3.1
G0 F5400 X72.919 Y65.267
;TIME_ELAPSED:14.171036
;LAYER:2
;TYPE:WALL-OUTER
G1 F1800 X96.463 Y67.449 E1251.0503
G1 X107.233 Y80.419 E1349.94309
G1 X105.051 Y103.963 E1488.64404
G1 X92.081 Y114.733 E1587.53684
G1 X68.537 Y112.551 E1726.23779
G1 X57.767 Y99.581 E1825.13058
G1 X57.767 Y80.419 E1937.53487
G1 X72.919 Y65.267 E2063.23248
G0 F7200 X73.118 Y65.285
G10
G0 F600 X73.118 Y65.285 Z4.5
G0 F7200 X73.178 Y64.624
G0 X96.796 Y66.816
G0 X107.917 Y80.208
G0 X107.002 Y102.201
;TIME_ELAPSED:20.663491
;LAYER:3
;TYPE:WALL-OUTER
G11
G1 F1800 X89.99 Y116.327 E2192.943
G1 X70.299 Y114.502 E2308.94544
G1 X60.657 Y106.495 E2382.46499
G1 X56.173 Y82.51 E2525.59857
G1 X66.005 Y68.157 E2627.65295
G1 X75.01 Y63.673 E2686.66278
G1 X94.701 Y65.498 E2802.66522
G1 X108.827 Y82.51 E2932.37574
G1 X107.002 Y102.201 E3048.37818
G0 F7200 X106.849 Y102.328
G10
G0 F600 X106.849 Y102.328 Z5.9
G0 F7200 X107.273 Y102.838
G0 X109.511 Y82.299
G0 X95.034 Y64.865
G0 X74.884 Y62.995
G0 X65.556 Y67.562
;TIME_ELAPSED:27.456974
;LAYER:4
;TYPE:WALL-OUTER
G11
G1 F1800 X90.194 Y62.956 E3195.40854
G1 X104.938 Y73.056 E3300.24359
G1 X109.544 Y97.694 E3447.27395
G1 X99.444 Y112.438 E3552.10899
G1 X74.806 Y117.044 E3699.13935
G1 X60.062 Y106.944 E3803.97439
G1 X55.456 Y82.306 E3951.00475
G1 X65.556 Y67.562 E4055.8398
G0 F7200 X65.752 Y67.526
G10
G0 F600 X65.752 Y67.526 Z7.3
G0 F7200 X65.63 Y66.872
G0 X85.159 Y61.3
;TIME_ELAPSED:33.877809
;LAYER:5
;TYPE:WALL-OUTER
G11
G1 F1800 X103.8 Y70.582 E4177.99387
G1 X111.2 Y92.659 E4314.57898
G1 X101.918 Y111.3 E4436.73304
G1 X79.841 Y118.7 E4573.31816
G1 X61.2 Y109.418 E4695.47222
G1 X53.8 Y92.659 E4802.93761
G1 X63.082 Y68.7 E4953.65948
G1 X85.159 Y61.3 E5090.24459
G0 F7200 X85.338 Y61.389
G10
G0 F600 X85.338 Y61.389 Z8.7
G0 F7200 X85.633 Y60.794
G0 X104.34 Y70.112
G0 X111.914 Y92.708
G0 X102.388 Y111.84
G0 X98.003 Y115.04
;TIME_ELAPSED:40.928317
;LAYER:6
;TYPE:WALL-OUTER
G11
G1 F1800 X77.089 Y118.95 E5215.05172
G1 X57.46 Y105.503 E5354.62301
G1 X53.55 Y95.411 E5418.11052
G1 X57.46 Y74.497 E5542.91765
G1 X66.997 Y64.96 E5622.03447
G1 X87.911 Y61.05 E5746.8416
G1 X107.54 Y74.497 E5886.41289
G1 X111.45 Y95.411 E6011.22002
G1 X98.003 Y115.04 E6150.79131
G0 F7200 X97.807 Y115.076
G10
G0 F600 X97.807 Y115.076 Z10.1
G0 F7200 X97.929 Y115.73
G0 X76.941 Y119.651
G0 X56.916 Y105.933
G0 X53.649 Y98.208
;TIME_ELAPSED:47.964787
;LAYER:7
;TYPE:WALL-OUTER
G11
G1 F1800 X53.649 Y81.792 E6247.08757
G1 X62.292 Y67.833 E6343.39634
G1 X85.267 Y60.132 E6485.53716
G1 X104.667 Y69.792 E6612.66512
G1 X112.368 Y92.767 E6754.80594
G1 X102.708 Y112.167 E6881.93389
G1 X79.733 Y119.868 E7024.07471
G1 X60.333 Y110.208 E7151.20267
G1 X53.649 Y98.208 E7231.77765
G0 F7200 X53.649 Y98.008
G0 F600 X53.649 Y98.008 Z11.5
G0 F7200 X52.531 Y95.602
;TIME_ELAPSED:54.371998
;LAYER:8
;TYPE:WALL-OUTER
G1 F1800 X56.579 Y73.951 E7360.98316
G1 X66.451 Y64.079 E7442.87907
G1 X88.102 Y60.031 E7572.08457
G1 X108.421 Y73.951 E7716.56311
G1 X112.469 Y95.602 E7845.76861
G1 X98.549 Y115.921 E7990.24715
G1 X76.898 Y119.969 E8119.45266
G1 X56.579 Y106.049 E8263.9312
G1 X52.531 Y95.602 E8329.65295
G0 F7200 X52.567 Y95.406
G0 F600 X52.567 Y95.406 Z12.9
G0 F7200 X51.76 Y92.848
;TIME_ELAPSED:60.875438
;LAYER:9
;TYPE:WALL-OUTER
G1 F1800 X53.713 Y78.848 E8412.57217
G1 X71.348 Y61.213 E8558.8682
G1 X93.652 Y61.213 E8689.70346
G1 X111.287 Y78.848 E8835.99948
G1 X111.287 Y101.152 E8966.83475
G1 X93.652 Y118.787 E9113.13077
G1 X71.348 Y118.787 E9243.96603
G1 X59.686 Y110.798 E9326.88778
G1 X51.76 Y92.848 E9441.9906
G0 F7200 X51.787 Y92.65
G0 F600 X51.787 Y92.65 Z14.3
G0 F7200 X53.43 Y101.262
;TIME_ELAPSED:67.512342
;LAYER:10
;TYPE:WALL-OUTER
G1 F1800 X51.856 Y84.272 E9542.08071
G1 X57.622 Y71.213 E9625.81963
G1 X76.772 Y59.356 E9757.94286
G1 X101.287 Y65.122 E9905.67199
G1 X113.144 Y84.272 E10037.79521
G92 E0
G1 X107.378 Y108.787 E147.72913
G1 X88.228 Y120.644 E279.85235
G1 X63.713 Y114.878 E427.58148
G1 X53.43 Y101.262 E527.67125
G0 F7200 X53.412 Y101.063
G0 F600 X53.412 Y101.063 Z15.7
G0 F7200 X53.211 Y101.347
;TIME_ELAPSED:74.138381
;LAYER:11
;TYPE:WALL-OUTER
G1 F1800 X51.625 Y84.229 E628.5155
G1 X61.339 Y66.788 E745.62271
G1 X71.154 Y60.711 E813.33987
G1 X88.271 Y59.125 E914.17828
G1 X105.712 Y68.839 E1031.28548
G1 X111.789 Y78.654 E1099.00264
G1 X113.375 Y95.771 E1199.84106
G1 X103.661 Y113.212 E1316.94826
G1 X93.846 Y119.289 E1384.66542
G1 X76.729 Y120.875 E1485.50384
G1 X59.288 Y111.161 E1602.61104
G1 X53.211 Y101.347 E1670.32321
G0 F7200 X53.193 Y101.148
G0 F600 X53.193 Y101.148 Z17.1
G0 F7200 X52.168 Y98.63
;TIME_ELAPSED:80.896005
;LAYER:12
;TYPE:WALL-OUTER
G1 F1800 X51.501 Y84.205 E1755.03067
G1 X57.334 Y70.995 E1839.73864
G1 X73.87 Y59.668 E1957.31356
G1 X88.295 Y59.001 E2042.02102
G1 X101.505 Y64.834 E2126.72899
G1 X112.832 Y81.37 E2244.30391
G1 X113.499 Y95.795 E2329.01137
G1 X107.666 Y109.005 E2413.71934
G1 X91.13 Y120.332 E2531.29426
G1 X76.705 Y120.999 E2616.00172
G1 X63.495 Y115.166 E2700.70969
G1 X52.168 Y98.63 E2818.28461
G0 F7200 X52.159 Y98.431
G10
G0 F600 X52.159 Y98.431 Z18.5
G0 F7200 X51.525 Y98.866
G0 X62.953 Y115.551
G0 X63.474 Y115.194
;TIME_ELAPSED:88.134586
;LAYER:13
;TYPE:WALL-OUTER
G11
G1 F1800 X52.134 Y98.64 E2935.98975
G1 X51.064 Y87.087 E3004.04968
G1 X57.306 Y70.974 E3105.41296
G1 X73.86 Y59.634 E3223.1181
G1 X85.413 Y58.564 E3291.17803
G1 X101.526 Y64.806 E3392.54131
G1 X112.866 Y81.36 E3510.24645
G1 X113.936 Y92.913 E3578.30638
G1 X107.694 Y109.026 E3679.66966
G1 X91.14 Y120.366 E3797.3748
G1 X79.587 Y121.436 E3865.43473
G1 X63.474 Y115.194 E3966.79801
G0 F7200 X63.361 Y115.029
G0 F600 X63.361 Y115.029 Z19.9
G0 F7200 X57.332 Y109.006
;TIME_ELAPSED:94.974395
;LAYER:14
;TYPE:WALL-OUTER
G1 F1800 X51.097 Y92.911 E4068.048
G1 X54.268 Y75.942 E4169.31124
G1 X68.442 Y61.768 E4286.89558
G1 X85.411 Y58.597 E4388.15881
G1 X96.558 Y61.768 E4456.14139
G1 X110.732 Y75.942 E4573.72573
G1 X113.903 Y92.911 E4674.98896
G1 X110.732 Y104.058 E4742.97154
G1 X96.558 Y118.232 E4860.55588
G1 X79.589 Y121.403 E4961.81911
G1 X57.332 Y109.006 E5111.26513
G0 F7200 X57.26 Y108.82
G0 F600 X57.26 Y108.82 Z21.3
G0 F7200 X54.389 Y103.998
;TIME_ELAPSED:101.766947
;LAYER:15
;TYPE:WALL-OUTER
G1 F1800 X51.231 Y92.898 E5178.96166
G1 X54.389 Y76.002 E5279.78996
G1 X68.502 Y61.889 E5396.86826
G1 X85.398 Y58.731 E5497.69655
G1 X96.498 Y61.889 E5565.39308
G1 X110.611 Y76.002 E5682.47138
G1 X113.769 Y92.898 E5783.29967
G1 X110.611 Y103.998 E5850.9962
G1 X96.498 Y118.111 E5968.0745
G1 X79.602 Y121.269 E6068.90279
G1 X68.502 Y118.111 E6136.59932
G1 X54.389 Y103.998 E6253.67762
G0 F7200 X54.335 Y103.806
G0 F600 X54.335 Y103.806 Z22.7
G0 F7200 X55.991 Y106.414
;TIME_ELAPSED:108.526638
;LAYER:16
;TYPE:WALL-OUTER
G1 F1800 X51.454 Y92.877 E6337.42691
G1 X55.991 Y73.586 E6453.67544
G1 X66.086 Y63.491 E6537.42131
G1 X85.377 Y58.954 E6653.66984
G1 X98.914 Y63.491 E6737.41913
G1 X109.009 Y73.586 E6821.165
G1 X113.546 Y92.877 E6937.41353
G1 X109.009 Y106.414 E7021.16282
G1 X98.914 Y116.509 E7104.90869
G1 X79.623 Y121.046 E7221.15722
G1 X66.086 Y116.509 E7304.90651
G1 X55.991 Y106.414 E7388.65238
G0 F7200 X55.928 Y106.225
G0 F600 X55.928 Y106.225 Z24.1
G0 F7200 X56.237 Y106.261
;TIME_ELAPSED:115.206169
;LAYER:17
;TYPE:WALL-OUTER
G1 F1800 X52.137 Y95.676 E7455.23916
G1 X56.237 Y73.739 E7586.14982
G1 X66.239 Y63.737 E7669.12418
G1 X88.176 Y59.637 E7800.03485
G1 X108.763 Y73.739 E7946.4137
G1 X112.863 Y95.676 E8077.32437
G1 X98.761 Y116.263 E8223.70322
G1 X76.824 Y120.363 E8354.61389
G1 X56.237 Y106.261 E8500.99274
G0 F7200 X56.165 Y106.075
G10
G0 F600 X56.165 Y106.075 Z25.5
G0 F7200 X55.546 Y106.315
G0 X51.451 Y95.739
G0 X55.623 Y73.416
G0 X65.916 Y63.123
G0 X88.324 Y58.936
G0 X109.015 Y73.106
G0 X108.451 Y73.931
;TIME_ELAPSED:122.946721
;LAYER:18
;TYPE:WALL-OUTER
G11
G1 F1800 X112.892 Y92.817 E8614.79971
G1 X108.451 Y106.069 E8696.78491
G1 X98.569 Y115.951 E8778.76377
G1 X79.683 Y120.392 E8892.57074
G1 X66.431 Y115.951 E8974.55593
G1 X56.549 Y106.069 E9056.5348
G1 X52.108 Y92.817 E9138.51999
G1 X56.549 Y73.931 E9252.32696
G1 X66.431 Y64.049 E9334.30583
G1 X85.317 Y59.608 E9448.1128
G1 X98.569 Y64.049 E9530.09799
G1 X108.451 Y73.931 E9612.07686
G0 F7200 X108.496 Y74.125
G10
G0 F600 X108.496 Y74.125 Z26.9
G0 F7200 X109.143 Y73.972
G0 X113.58 Y92.848
G0 X109.031 Y106.428
G0 X98.904 Y116.553
G0 X79.652 Y121.08
G0 X68.908 Y117.482
G0 X69.094 Y116.922
;TIME_ELAPSED:130.519649
;LAYER:19
;TYPE:WALL-OUTER
G11
G1 F1800 X55.578 Y103.406 E9724.20258
G1 X53.573 Y81.769 E9851.66899
G1 X62.239 Y67.774 E9948.22833
G1 X74.269 Y61.073 E10029.00558
G92 E0
G1 X95.906 Y63.078 E127.46641
G1 X111.427 Y81.769 E269.98183
G1 X109.422 Y103.406 E397.44825
G1 X90.731 Y118.927 E539.96367
G1 X69.094 Y116.922 E667.43008
G0 F7200 X68.953 Y116.781
G10
G0 F600 X68.953 Y116.781 Z28.3
G0 F7200 X68.881 Y117.57
G0 X90.942 Y119.611
G0 X110.055 Y103.739
G0 X111.59 Y95.438
;TIME_ELAPSED:137.718241
;LAYER:20
;TYPE:WALL-OUTER
G11
G1 F1800 X100.335 Y113.617 E792.85156
G1 X77.062 Y119.09 E933.09513
G1 X58.883 Y107.835 E1058.51661
G1 X53.41 Y84.562 E1198.76018
G1 X64.665 Y66.383 E1324.18166
G1 X87.938 Y60.91 E1464.42522
G1 X106.117 Y72.165 E1589.84671
G1 X111.59 Y95.438 E1730.09027
G0 F7200 X111.485 Y95.608
G0 F600 X111.485 Y95.608 Z29.7
G0 F7200 X110.423 Y97.945
;TIME_ELAPSED:144.020713
;LAYER:21
;TYPE:WALL-OUTER
G1 F1800 X99.996 Y113.167 E1838.3226
G1 X74.555 Y117.923 E1990.14484
G1 X59.333 Y107.496 E2098.37717
G1 X54.577 Y82.055 E2250.1994
G1 X65.004 Y66.833 E2358.43173
G1 X90.445 Y62.077 E2510.25397
G1 X105.667 Y72.504 E2618.48629
G1 X110.423 Y97.945 E2770.30853
G0 F7200 X110.31 Y98.11
G0 F600 X110.31 Y98.11 Z31.1
G0 F7200 X109.867 Y97.787
;TIME_ELAPSED:150.168447
;LAYER:22
;TYPE:WALL-OUTER
G1 F1800 X99.647 Y112.705 E2876.38345
G1 X74.713 Y117.367 E3025.18094
G1 X59.795 Y107.147 E3131.25585
G1 X55.133 Y82.213 E3280.05335
G1 X65.353 Y67.295 E3386.12826
G1 X90.287 Y62.633 E3534.92576
G1 X105.205 Y72.853 E3641.00067
G1 X109.867 Y97.787 E3789.79817
G0 F7200 X109.754 Y97.951
G0 F600 X109.754 Y97.951 Z32.5
G0 F7200 X107.399 Y102.398
;TIME_ELAPSED:156.246848
;LAYER:23
;TYPE:WALL-OUTER
G1 F1800 X94.898 Y114.899 E3893.50367
G1 X70.102 Y114.899 E4038.95701
G1 X57.601 Y102.398 E4142.66251
G1 X57.601 Y77.602 E4288.11585
G1 X70.102 Y65.101 E4391.82135
G1 X94.898 Y65.101 E4537.27469
G1 X107.399 Y77.602 E4640.98019
G1 X107.399 Y102.398 E4786.43353
G0 F7200 X107.258 Y102.539
G10
G0 F600 X107.258 Y102.539 Z33.9
G0 F7200 X108.064 Y102.539
G0 X108.06 Y77.328
G0 X95.172 Y64.44
G0 X77.506 Y63.286
;TIME_ELAPSED:162.985116
;LAYER:24
;TYPE:WALL-OUTER
G11
G1 F1800 X94.614 Y65.672 E4887.76037
G1 X109.214 Y85.006 E5029.87789
G1 X106.828 Y102.114 E5131.20473
G1 X87.494 Y116.714 E5273.32225
G1 X70.386 Y114.328 E5374.64908
G1 X55.786 Y94.994 E5516.76661
G1 X58.172 Y77.886 E5618.09344
G1 X77.506 Y63.286 E5760.21096
G0 F7200 X77.704 Y63.313
G10
G0 F600 X77.704 Y63.313 Z35.3
G0 F7200 X77.795 Y62.655
G0 X94.977 Y65.055
G0 X109.907 Y84.826
G0 X107.516 Y101.99
G0 X106.217 Y101.81
;TIME_ELAPSED:169.607440
;LAYER:25
;TYPE:WALL-OUTER
G11
G1 F1800 X89.751 Y115.483 E5885.75982
G1 X70.69 Y113.717 E5998.05052
G1 X58.783 Y101.81 E6096.82833
G1 X58.783 Y78.19 E6235.38325
G1 X75.249 Y64.517 E6360.93211
G1 X94.31 Y66.283 E6473.22281
G1 X107.983 Y82.749 E6598.77166
G1 X106.217 Y101.81 E6711.06236
G0 F7200 X106.064 Y101.937
G10
G0 F600 X106.064 Y101.937 Z36.7
G0 F7200 X106.488 Y102.447
G0 X108.667 Y82.538
G0 X94.643 Y65.65
G0 X75.038 Y63.833
G0 X65.115 Y70.929
;TIME_ELAPSED:176.208912
;LAYER:26
;TYPE:WALL-OUTER
G11
G1 F1800 X82.5 Y64.194 E6820.42802
G1 X101.571 Y72.615 E6942.71918
G1 X108.306 Y90 E7052.08484
G1 X99.885 Y109.071 E7174.37599
G1 X82.5 Y115.806 E7283.74165
G1 X63.429 Y107.385 E7406.03281
G1 X56.694 Y90 E7515.39847
G1 X65.115 Y70.929 E7637.68963
G0 F7200 X65.301 Y70.857
G10
G0 F600 X65.301 Y70.857 Z38.1
G0 F7200 X64.564 Y70.532
G0 X55.979 Y89.984
G0 X57.49 Y92.318
;TIME_ELAPSED:182.224377
;LAYER:27
;TYPE:WALL-OUTER
G11
G1 F1800 X60.016 Y78.804 E7718.33569
G1 X71.304 Y67.516 E7811.97841
G1 X93.696 Y67.516 E7943.32989
G1 X104.984 Y78.804 E8036.97261
G1 X104.984 Y101.196 E8168.32409
G1 X93.696 Y112.484 E8261.96681
G1 X80.182 Y115.01 E8342.61287
G1 X63.938 Y106.922 E8449.05827
G1 X57.49 Y92.318 E8542.70387
G0 F7200 X57.526 Y92.122
G0 F600 X57.526 Y92.122 Z39.5
G0 F7200 X58.176 Y92.254
;TIME_ELAPSED:187.605760
;LAYER:28
;TYPE:WALL-OUTER
G1 F1800 X59.721 Y81.175 E8608.32218
G1 X73.675 Y67.221 E8724.08144
G1 X91.325 Y67.221 E8827.61634
G1 X105.279 Y81.175 E8943.37561
G1 X105.279 Y98.825 E9046.91051
G1 X91.325 Y112.779 E9162.66978
G1 X73.675 Y112.779 E9266.20468
G1 X64.447 Y106.458 E9331.81768
G1 X58.176 Y92.254 E9422.89742
G0 F7200 X58.203 Y92.056
G10
G0 F600 X58.203 Y92.056 Z40.9
G0 F7200 X57.545 Y91.965
G0 X59.096 Y80.864
G0 X73.401 Y66.56
G0 X80.309 Y66.361
;TIME_ELAPSED:193.488093
;LAYER:29
;TYPE:WALL-OUTER
G11
G1 F1800 X101.445 Y75.693 E9558.42826
G1 X106.139 Y87.809 E9634.64815
G1 X96.807 Y108.945 E9770.17899
G1 X84.691 Y113.639 E9846.39887
G1 X63.555 Y104.307 E9981.92972
G1 X58.861 Y92.191 E10058.1496
G92 E0
G1 X68.193 Y71.055 E135.53084
G1 X80.309 Y66.361 E211.75073
G0 F7200 X80.491 Y66.441
G10
G0 F600 X80.491 Y66.441 Z42.3
G0 F7200 X80.759 Y65.833
G0 X101.962 Y75.199
G0 X106.854 Y87.825
G0 X102.112 Y102.143
;TIME_ELAPSED:199.305421
;LAYER:30
;TYPE:WALL-OUTER
G11
G1 F1800 X90.833 Y111.509 E297.75073
G1 X70.357 Y109.612 E418.37731
G1 X60.991 Y98.333 E504.37731
G1 X62.888 Y77.857 E625.00389
G1 X74.167 Y68.491 E711.00389
G1 X94.643 Y70.388 E831.63048
G1 X104.009 Y81.667 E917.63048
G1 X102.112 Y102.143 E1038.25706
G0 F7200 X101.959 Y102.27
G0 F600 X101.959 Y102.27 Z43.7
G0 F7200 X104.804 Y92.067
;TIME_ELAPSED:204.333526
;LAYER:31
;TYPE:WALL-OUTER
G1 F1672.9 X97.591 Y106.554 E1133.18854
G1 X80.433 Y112.304 E1239.33874
G1 X65.946 Y105.091 E1334.27022
G1 X60.955 Y83.87 E1462.14915
G1 X67.409 Y73.446 E1534.06781
G1 X84.567 Y67.696 E1640.21802
G1 X99.054 Y74.909 E1735.1495
G1 X104.804 Y92.067 E1841.2997
G0 F7200 X104.715 Y92.246
G10
G0 F600 X104.715 Y92.246 Z45.1
G0 F7200 X105.31 Y92.541
G0 X98.061 Y107.094
G0 X80.384 Y113.018
G0 X65.374 Y105.544
G0 X62.235 Y97.851
;TIME_ELAPSED:210.323501
;LAYER:32
;TYPE:WALL-OUTER
G11
G1 F1724.6 X61.137 Y86.006 E1911.08036
G1 X71.059 Y71.522 E2014.06706
G1 X84.506 Y68.36 E2095.0986
G1 X100.978 Y78.559 E2208.74565
G1 X104.14 Y92.006 E2289.77719
G1 X93.941 Y108.478 E2403.42424
G1 X80.494 Y111.64 E2484.45577
G1 X71.059 Y108.478 E2542.82689
G1 X62.235 Y97.851 E2623.85334
G0 F7200 X62.217 Y97.652
G10
G0 F600 X62.217 Y97.652 Z46.5
G0 F7200 X61.556 Y97.713
G0 X70.67 Y109.047
G0 X80.463 Y112.328
G0 X94.359 Y109.059
G0 X103.614 Y94.12
G0 X103.212 Y93.872
;TIME_ELAPSED:216.027783
;LAYER:33
;TYPE:WALL-OUTER
G11
G1 F1657.1 X93.592 Y107.915 E2723.70469
G1 X78.628 Y110.712 E2813.00373
G1 X64.585 Y101.092 E2912.85509
G1 X64.585 Y78.908 E3042.98643
G1 X71.408 Y72.085 E3099.58851
G1 X86.372 Y69.288 E3188.88755
G1 X100.415 Y78.908 E3288.73891
G1 X103.212 Y93.872 E3378.03795
G0 F7200 X103.099 Y94.036
G0 F600 X103.099 Y94.036 Z47.9
G0 F7200 X102.606 Y93.759
;TIME_ELAPSED:220.919063
;LAYER:34
;TYPE:WALL-OUTER
G1 F1501.2 X96.28 Y105.116 E3454.29589
G1 X78.741 Y110.106 E3561.26262
G1 X67.384 Y103.78 E3637.52056
G1 X62.394 Y86.241 E3744.48729
G1 X68.72 Y74.884 E3820.74523
G1 X86.259 Y69.894 E3927.71196
G1 X97.616 Y76.22 E4003.9699
G1 X102.606 Y93.759 E4110.93664
G0 F7200 X102.509 Y93.933
G0 F600 X102.509 Y93.933 Z49.3
G0 F7200 X102.338 Y90
;TIME_ELAPSED:226.186891
;LAYER:35
;TYPE:WALL-OUTER
G1 F1467.3 X95.864 Y104.66 E4204.94435
G1 X82.5 Y109.838 E4289.01626
G1 X67.84 Y103.364 E4383.02397
G1 X62.662 Y90 E4467.09588
G1 X69.136 Y75.34 E4561.10359
G1 X82.5 Y70.162 E4645.17551
G1 X97.16 Y76.636 E4739.18322
G1 X102.338 Y90 E4823.25513
G0 F7200 X102.258 Y90.182
G10
G0 F600 X102.258 Y90.182 Z50.7
G0 F7200 X102.866 Y90.45
G0 X96.358 Y105.177
G0 X82.484 Y110.553
G0 X78.93 Y108.988
G0 X78.965 Y108.908
;TIME_ELAPSED:232.008442
;LAYER:36
;TYPE:WALL-OUTER
G11
G1 F1484.4 X68.285 Y102.959 E4894.96755
G1 X63.592 Y86.465 E4995.56155
G1 X69.541 Y75.785 E5067.27397
G1 X86.035 Y71.092 E5167.86796
G1 X96.715 Y77.041 E5239.58038
G1 X101.408 Y93.535 E5340.17438
G1 X95.459 Y104.215 E5411.8868
G1 X78.965 Y108.908 E5512.48079
G0 F7200 X78.791 Y108.811
G0 F600 X78.791 Y108.811 Z52.1
G0 F7200 X74.176 Y106.716
;TIME_ELAPSED:237.041319
;LAYER:37
;TYPE:WALL-OUTER
G1 F1383.9 X64.539 Y95.111 E5600.96757
G1 X65.784 Y81.676 E5680.11494
G1 X77.389 Y72.039 E5768.60172
G1 X90.824 Y73.284 E5847.74909
G1 X100.461 Y84.889 E5936.23587
G1 X99.216 Y98.324 E6015.38324
G1 X87.611 Y107.961 E6103.87002
G1 X74.176 Y106.716 E6183.01739
G0 F7200 X74.049 Y106.563
G10
G0 F600 X74.049 Y106.563 Z53.5
G0 F7200 X73.976 Y107.364
G0 X87.822 Y108.645
G0 X99.849 Y98.657
G0 X100.193 Y94.981
G0 X99.921 Y94.957
;TIME_ELAPSED:242.848885
;LAYER:38
;TYPE:WALL-OUTER
G11
G1 F1394 X93.415 Y104.454 E6250.54548
G1 X77.543 Y107.421 E6345.2634
G1 X68.046 Y100.915 E6412.79149
G1 X65.079 Y85.043 E6507.5094
G1 X71.585 Y75.546 E6575.0375
G1 X87.457 Y72.579 E6669.75541
G1 X96.954 Y79.085 E6737.2835
G1 X99.921 Y94.957 E6832.00142
G0 F7200 X99.808 Y95.122
G10
G0 F600 X99.808 Y95.122 Z54.9
G0 F7200 X100.357 Y95.497
G0 X93.805 Y105.054
G0 X80.878 Y107.502
;TIME_ELAPSED:248.360398
;LAYER:39
;TYPE:WALL-OUTER
G11
G1 F1338.6 X68.473 Y100.592 E6915.29699
G1 X65.594 Y85.19 E7007.20998
G1 X71.908 Y75.973 E7072.74653
G1 X84.122 Y72.498 E7147.23721
G1 X93.092 Y75.973 E7203.66572
G1 X99.406 Y85.19 E7269.20228
G1 X96.527 Y100.592 E7361.11526
G1 X80.878 Y107.502 E7461.46319
G0 F7200 X80.704 Y107.405
G0 F600 X80.704 Y107.405 Z56.3
G0 F7200 X82.5 Y107.073
;TIME_ELAPSED:253.424112
;LAYER:40
;TYPE:WALL-OUTER
G1 F1255.7 X68.875 Y100.289 E7550.74657
G1 X65.427 Y90 E7614.40071
G1 X72.211 Y76.375 E7703.6841
G1 X82.5 Y72.927 E7767.33823
G1 X96.125 Y79.711 E7856.62162
G1 X99.573 Y90 E7920.27575
G1 X92.789 Y103.625 E8009.55914
G1 X82.5 Y107.073 E8073.21328
G0 F7200 X82.321 Y106.984
G0 F600 X82.321 Y106.984 Z57.7
G0 F7200 X80.971 Y106.499
;TIME_ELAPSED:258.656180
;LAYER:41
;TYPE:WALL-OUTER
G1 F1205.3 X69.277 Y99.985 E8151.73486
G1 X67.667 Y82.614 E8254.06987
G1 X75.114 Y75.167 E8315.84852
G1 X89.886 Y75.167 E8402.50107
G1 X97.333 Y82.614 E8464.27972
G1 X97.333 Y97.386 E8550.93227
G1 X80.971 Y106.499 E8660.79445
G0 F7200 X80.797 Y106.402
G0 F600 X80.797 Y106.402 Z59.1
G0 F7200 X79.541 Y105.829
;TIME_ELAPSED:263.890754
;LAYER:42
;TYPE:WALL-OUTER
G1 F1186 X69.649 Y99.704 E8729.04387
G1 X66.671 Y87.041 E8805.3515
G1 X72.796 Y77.149 E8873.60091
G1 X85.459 Y74.171 E8949.90854
G1 X95.351 Y80.296 E9018.15796
G1 X98.329 Y92.959 E9094.46559
G1 X92.204 Y102.851 E9162.715
G1 X79.541 Y105.829 E9239.02263
G0 F7200 X79.371 Y105.724
G0 F600 X79.371 Y105.724 Z60.5
G0 F7200 X75.52 Y104.017
;TIME_ELAPSED:269.153712
;LAYER:43
;TYPE:WALL-OUTER
G1 F1156.3 X68.483 Y96.98 E9297.40001
G1 X68.483 Y83.02 E9379.28937
G1 X75.52 Y75.983 E9437.66675
G1 X89.48 Y75.983 E9519.55611
G1 X96.517 Y83.02 E9577.9335
G1 X96.517 Y96.98 E9659.82286
G1 X89.48 Y104.017 E9718.20024
G1 X75.52 Y104.017 E9800.0896
G0 F7200 X75.379 Y103.876
G0 F600 X75.379 Y103.876 Z61.9
G0 F7200 X75.718 Y103.619
;TIME_ELAPSED:274.348616
;LAYER:44
;TYPE:WALL-OUTER
G1 F1117.5 X68.881 Y96.782 E9856.80782
G1 X67.866 Y85.837 E9921.28668
G1 X78.337 Y75.366 E10008.15176
G92 E0
G1 X89.282 Y76.381 E64.47885
G1 X97.134 Y85.837 E136.57814
G1 X96.119 Y96.782 E201.05699
G1 X86.663 Y104.634 E273.15627
G1 X75.718 Y103.619 E337.63513
G0 F7200 X75.577 Y103.478
G10
G0 F600 X75.577 Y103.478 Z63.3
G0 F7200 X75.108 Y103.948
G0 X68.244 Y97.08
G0 X67.18 Y85.59
G0 X76.863 Y75.901
G0 X77.149 Y76.187
;TIME_ELAPSED:280.216181
;LAYER:45
;TYPE:WALL-OUTER
G11
G1 F1125.5 X87.851 Y76.187 E400.41306
G1 X96.313 Y84.649 E470.61192
G1 X96.313 Y95.351 E533.38986
G1 X87.851 Y103.813 E603.58872
G1 X77.149 Y103.813 E666.36665
G1 X67.75 Y91.367 E757.85446
G1 X77.149 Y76.187 E862.58739
G0 F7200 X77.349 Y76.187
G10
G0 F600 X77.349 Y76.187 Z64.7
G0 F7200 X76.639 Y75.748
G0 X66.954 Y91.403
G0 X76.497 Y104.052
G0 X77.288 Y103.453
;TIME_ELAPSED:285.846821
;LAYER:46
;TYPE:WALL-OUTER
G11
G1 F1110.6 X69.047 Y95.212 E930.95288
G1 X69.047 Y84.788 E992.10007
G1 X77.288 Y76.547 E1060.46556
G1 X87.712 Y76.547 E1121.61275
G1 X95.953 Y84.788 E1189.97824
G1 X95.953 Y95.212 E1251.12543
G1 X87.712 Y103.453 E1319.49092
G1 X77.288 Y103.453 E1380.63811
G0 F7200 X77.147 Y103.312
G0 F600 X77.147 Y103.312 Z66.1
G0 F7200 X77.427 Y103.093
;TIME_ELAPSED:290.847828
;LAYER:47
;TYPE:WALL-OUTER
G1 F1032.4 X69.407 Y95.073 E1447.17024
G1 X69.407 Y84.927 E1506.68667
G1 X77.427 Y76.907 E1573.2188
G1 X87.573 Y76.907 E1632.73524
G1 X95.593 Y84.927 E1699.26737
G1 X95.593 Y95.073 E1758.7838
G1 X87.573 Y103.093 E1825.31593
G1 X77.427 Y103.093 E1884.83237
G0 F7200 X77.286 Y102.952
G10
G0 F600 X77.286 Y102.952 Z67.5
G0 F7200 X76.816 Y103.422
G0 X68.746 Y95.347
G0 X68.746 Y84.653
G0 X77.153 Y76.246
G0 X87.847 Y76.246
G0 X87.449 Y77.225
;TIME_ELAPSED:296.822340
;LAYER:48
;TYPE:WALL-OUTER
G11
G1 F1055.4 X95.275 Y85.051 E1949.75512
G1 X95.275 Y94.949 E2007.81679
G1 X87.449 Y102.775 E2072.73954
G1 X77.551 Y102.775 E2130.8012
G1 X69.725 Y94.949 E2195.72395
G1 X69.725 Y85.051 E2253.78562
G1 X77.551 Y77.225 E2318.70837
G1 X87.449 Y77.225 E2376.77004
G0 F7200 X87.59 Y77.366
G10
G0 F600 X87.59 Y77.366 Z68.9
G0 F7200 X88.06 Y76.896
G0 X95.936 Y84.777
G0 X95.936 Y95.223
G0 X88.013 Y103.151
G0 X87.33 Y102.469
;TIME_ELAPSED:302.449494
;LAYER:49
;TYPE:WALL-OUTER
G11
G1 F1013.8 X72.618 Y99.008 E2465.42652
G1 X70.031 Y85.17 E2548.00656
G1 X77.67 Y77.531 E2611.378
G1 X87.33 Y77.531 E2668.04356
G1 X94.969 Y85.17 E2731.41499
G1 X94.969 Y94.83 E2788.08055
G1 X87.33 Y102.469 E2851.45199
G0 F7200 X87.136 Y102.424
G10
G0 F600 X87.136 Y102.424 Z70.3
G0 F7200 X86.985 Y103.07
G0 X72.05 Y99.55
G0 X69.318 Y84.95
G0 X70.449 Y83.812
G0 X70.824 Y84.186
;TIME_ELAPSED:308.083785
;LAYER:50
;TYPE:WALL-OUTER
G11
G1 F986.8 X76.686 Y78.324 E2900.08184
G1 X88.314 Y78.324 E2968.29168
G1 X94.176 Y84.186 E3016.92153
G1 X94.176 Y95.814 E3085.13138
G1 X81.297 Y102.988 E3171.60961
G1 X72.091 Y97.86 E3233.42479
G1 X70.824 Y84.186 E3313.98006
G0 F7200 X70.965 Y84.045
G10
G0 F600 X70.965 Y84.045 Z71.7
G0 F7200 X70.152 Y84.12
G0 X71.466 Y98.267
G0 X80.872 Y103.511
G0 X81.323 Y102.7
;TIME_ELAPSED:313.658049
;LAYER:51
;TYPE:WALL-OUTER
G11
G1 F960.7 X73.075 Y98.592 E3368.03173
G1 X70.607 Y85.393 E3446.79895
G1 X77.893 Y78.107 E3507.24198
G1 X91.925 Y81.408 E3591.80065
G1 X95.2 Y91.177 E3652.24009
G1 X91.092 Y99.425 E3706.29176
G1 X81.323 Y102.7 E3766.7312
G0 F7200 X81.144 Y102.611
G10
G0 F600 X81.144 Y102.611 Z73.1
G0 F7200 X80.849 Y103.206
G0 X91.562 Y99.965
G0 X95.914 Y91.226
G0 X92.433 Y80.85
G0 X85.916 Y77.995
;TIME_ELAPSED:319.385741
;LAYER:52
;TYPE:WALL-OUTER
G11
G1 F955.1 X92.46 Y82.478 E3813.26202
G1 X94.505 Y93.416 E3878.53609
G1 X90.022 Y99.96 E3925.06691
G1 X79.084 Y102.005 E3990.34098
G1 X72.54 Y97.522 E4036.8718
G1 X70.495 Y86.584 E4102.14587
G1 X74.978 Y80.04 E4148.67669
G1 X85.916 Y77.995 E4213.95076
G0 F7200 X86.081 Y78.108
G10
G0 F600 X86.081 Y78.108 Z74.5
G0 F7200 X86.456 Y77.56
G0 X74.588 Y79.44
G0 X69.794 Y86.436
G0 X71.94 Y97.912
G0 X76.829 Y101.265
G0 X77.058 Y100.929
;TIME_ELAPSED:325.087996
;LAYER:53
;TYPE:WALL-OUTER
G11
G1 F918.4 X70.343 Y91.127 E4283.64774
G1 X80.256 Y77.999 E4380.14512
G1 X87.942 Y79.071 E4425.66762
G1 X94.501 Y87.756 E4489.51
G1 X93.429 Y95.442 E4535.03249
G1 X84.744 Y102.001 E4598.87487
G1 X77.058 Y100.929 E4644.39737
G0 F7200 X76.945 Y100.764
G0 F600 X76.945 Y100.764 Z75.9
G0 F7200 X72.328 Y83.702
;TIME_ELAPSED:330.270093
;LAYER:54
;TYPE:WALL-OUTER
G1 F903.9 X78.178 Y78.844 E4689.00314
G1 X88.798 Y79.828 E4751.5669
G1 X93.656 Y85.678 E4796.17268
G1 X92.672 Y96.298 E4858.73644
G1 X86.822 Y101.156 E4903.34221
G1 X76.202 Y100.172 E4965.90597
G1 X71.344 Y94.322 E5010.51175
G1 X72.328 Y83.702 E5073.07551
G0 F7200 X72.481 Y83.575
G0 F600 X72.481 Y83.575 Z77.3
G0 F7200 X70.954 Y87.842
;TIME_ELAPSED:335.399835
;LAYER:55
;TYPE:WALL-OUTER
G1 F867.8 X74.587 Y81.32 E5116.86871
G1 X84.658 Y78.454 E5178.2908
G1 X91.18 Y82.087 E5222.08401
G1 X94.046 Y92.158 E5283.5061
G1 X90.413 Y98.68 E5327.2993
G1 X80.342 Y101.546 E5388.72139
G1 X73.82 Y97.913 E5432.5146
G1 X70.954 Y87.842 E5493.93669
G0 F7200 X71.051 Y87.668
G0 F600 X71.051 Y87.668 Z78.7
G0 F7200 X85.655 Y78.913
;TIME_ELAPSED:340.743247
;LAYER:56
;TYPE:WALL-OUTER
G1 F866.2 X91.019 Y82.234 E5530.94438
G1 X93.587 Y93.155 E5596.75422
G1 X90.266 Y98.519 E5633.76191
G1 X79.345 Y101.087 E5699.57176
G1 X73.981 Y97.766 E5736.57945
G1 X71.413 Y86.845 E5802.38929
G1 X74.734 Y81.481 E5839.39698
G1 X85.655 Y78.913 E5905.20683
G0 F7200 X85.825 Y79.018
G0 F600 X85.825 Y79.018 Z80.1
G0 F7200 X71.374 Y87.92
;TIME_ELAPSED:345.982094
;LAYER:57
;TYPE:WALL-OUTER
G1 F855.9 X75.679 Y80.968 E5953.17311
G1 X84.58 Y78.874 E6006.81178
G1 X91.532 Y83.179 E6054.77806
G1 X93.626 Y92.08 E6108.41673
G1 X89.321 Y99.032 E6156.38302
G1 X80.42 Y101.126 E6210.02169
G1 X73.468 Y96.821 E6257.98797
G1 X71.374 Y87.92 E6311.62664
G0 F7200 X71.479 Y87.75
G10
G0 F600 X71.479 Y87.75 Z81.5
G0 F7200 X70.913 Y87.4
G0 X75.261 Y80.387
G0 X84.695 Y78.167
G0 X92.113 Y82.761
G0 X92.64 Y84.991
G0 X92.483 Y85.029
;TIME_ELAPSED:351.665888
;LAYER:58
;TYPE:WALL-OUTER
G11
G1 F825.6 X93.462 Y92.049 E6353.20448
G1 X87.471 Y99.983 E6411.52339
G1 X73.018 Y95.871 E6499.66923
G1 X73.018 Y84.129 E6568.54781
G1 X84.549 Y79.038 E6642.48786
G1 X92.483 Y85.029 E6700.80677
G0 F7200 X92.51 Y85.227
G10
G0 F600 X92.51 Y85.227 Z82.9
G0 F7200 X93.168 Y85.135
G0 X94.155 Y92.229
G0 X87.724 Y100.738
G0 X74.382 Y97.401
;TIME_ELAPSED:357.315608
;LAYER:59
;TYPE:WALL-OUTER
G11
G1 F822.5 X71.701 Y87.982 E6758.25324
G1 X75.099 Y81.882 E6799.21305
G1 X84.518 Y79.201 E6856.65953
G1 X90.618 Y82.599 E6897.61933
G1 X90.618 Y97.401 E6984.44787
G1 X80.482 Y100.799 E7047.15782
G1 X74.382 Y97.401 E7088.11763
G0 F7200 X74.328 Y97.209
G0 F600 X74.328 Y97.209 Z84.3
G0 F7200 X78.592 Y79.911
;TIME_ELAPSED:362.521402
;LAYER:60
;TYPE:WALL-OUTER
G1 F807.8 X88.196 Y80.801 E7144.69608
G1 X92.589 Y86.092 E7185.03656
G1 X91.699 Y95.696 E7241.61501
G1 X86.408 Y100.089 E7281.95549
G1 X75.211 Y97.996 E7348.77473
G1 X71.727 Y90.999 E7394.62579
G1 X78.592 Y79.911 E7471.12526
G0 F7200 X78.791 Y79.929
G0 F600 X78.791 Y79.929 Z85.7
G0 F7200 X73.412 Y95.627
;TIME_ELAPSED:367.750533
;LAYER:61
;TYPE:WALL-OUTER
G1 F788.8 X73.412 Y84.373 E7537.14123
G1 X83.486 Y79.357 E7603.15542
G1 X91.588 Y84.373 E7659.05279
G1 X91.588 Y95.627 E7725.06875
G1 X79.575 Y100.281 E7800.64047
G1 X73.412 Y95.627 E7845.94266
G0 F7200 X73.412 Y95.427
G0 F600 X73.412 Y95.427 Z87.1
G0 F7200 X72.331 Y92.893
;TIME_ELAPSED:372.874064
;LAYER:62
;TYPE:WALL-OUTER
G1 F760.8 X76.935 Y81.011 E7920.69188
G1 X88.065 Y81.011 E7985.98046
G1 X92.669 Y92.893 E8060.72968
G1 X85.393 Y100.169 E8121.08975
G1 X77.788 Y99.464 E8165.89195
G1 X72.331 Y92.893 E8215.99628
G0 F7200 X72.403 Y92.707
G0 F600 X72.403 Y92.707 Z88.5
G0 F7200 X72.75 Y86.223
;TIME_ELAPSED:378.144535
;LAYER:63
;TYPE:WALL-OUTER
G1 F776.7 X78.723 Y80.25 E8265.54695
G1 X86.277 Y80.25 E8309.85872
G1 X92.25 Y86.223 E8359.40939
G1 X92.25 Y93.777 E8403.72116
G1 X86.277 Y99.75 E8453.27183
G1 X78.723 Y99.75 E8497.58359
G1 X72.75 Y93.777 E8547.13427
G1 X72.75 Y86.223 E8591.44603
G0 F7200 X72.891 Y86.082
G0 F600 X72.891 Y86.082 Z89.9
G0 F7200 X72.332 Y88.099
;TIME_ELAPSED:383.345494
;LAYER:64
;TYPE:WALL-OUTER
G1 F727.2 X83.455 Y79.7 E8673.2056
G1 X92.8 Y90.955 E8759.0186
G1 X87.945 Y98.795 E8813.11209
G1 X77.055 Y98.795 E8876.99283
G1 X72.332 Y88.099 E8945.58018
G0 F7200 X72.491 Y87.979
G10
G0 F600 X72.491 Y87.979 Z91.3
G0 F7200 X72.09 Y87.45
G0 X83.559 Y78.803
G0 X92.383 Y87.188
;TIME_ELAPSED:389.095024
;LAYER:65
;TYPE:WALL-OUTER
G11
G1 F721.7 X85.312 Y99.883 E9030.82147
G1 X72.617 Y92.812 E9116.06276
G1 X79.688 Y80.117 E9201.30405
G1 X92.383 Y87.188 E9286.54534
G0 F7200 X92.286 Y87.362
G0 F600 X92.286 Y87.362 Z92.7
G0 F7200 X84.376 Y79.967
;TIME_ELAPSED:394.258692
;LAYER:66
;TYPE:WALL-OUTER
G1 F705.8 X92.533 Y91.876 E9371.21936
G1 X80.624 Y100.033 E9455.89339
G1 X72.467 Y88.124 E9540.56741
G1 X84.376 Y79.967 E9625.24144
G0 F7200 X84.489 Y80.132
G0 F600 X84.489 Y80.132 Z94.1
G0 F7200 X73.88 Y84.663
;TIME_ELAPSED:399.503947
;LAYER:67
;TYPE:WALL-OUTER
G1 F722.9 X83.436 Y79.905 E9687.86101
G1 X91.12 Y84.663 E9740.87694
G1 X87.837 Y98.62 E9824.98317
G1 X73.88 Y95.337 E9909.08941
G1 X73.88 Y84.663 E9971.70309
G0 F7200 X74.059 Y84.574
G0 F600 X74.059 Y84.574 Z95.5
G0 F7200 X73.928 Y84.692
;TIME_ELAPSED:404.630522
;LAYER:68
;TYPE:WALL-OUTER
G1 F704.5 X84.352 Y80.089 E10038.54651
G92 E0
G1 X92.411 Y91.852 E83.64259
G1 X80.648 Y99.911 E167.28518
G1 X73.928 Y95.308 E215.06554
G1 X73.928 Y84.692 E277.339
G0 F7200 X74.11 Y84.612
G0 F600 X74.11 Y84.612 Z96.9
G0 F7200 X73.947 Y84.704
;TIME_ELAPSED:409.856220
;LAYER:69
;TYPE:WALL-OUTER
G1 F703 X84.348 Y80.111 E344.0353
G1 X92.389 Y91.848 E427.49239
G1 X80.652 Y99.889 E510.94948
G1 X73.947 Y95.296 E558.62411
G1 X73.947 Y84.704 E620.75678
G0 F7200 X74.129 Y84.624
G0 F600 X74.129 Y84.624 Z98.3
G0 F7200 X73.966 Y84.716
;TIME_ELAPSED:415.077750
;LAYER:70
;TYPE:WALL-OUTER
G1 F701.4 X84.344 Y80.133 E687.30597
G1 X92.367 Y91.844 E770.57756
G1 X80.656 Y99.867 E853.84915
G1 X73.966 Y95.284 E901.41803
G1 X73.966 Y84.716 E963.40992
G0 F7200 X74.148 Y84.636
G0 F600 X74.148 Y84.636 Z99.7
G0 F7200 X73.985 Y84.728
;TIME_ELAPSED:420.299282
;LAYER:71
;TYPE:WALL-OUTER
G1 F699.8 X84.339 Y80.155 E1029.80663
G1 X92.345 Y91.839 E1112.8912
G1 X80.661 Y99.845 E1195.97578
G1 X73.985 Y95.272 E1243.44375
G1 X73.985 Y84.728 E1305.29486
G0 F7200 X74.167 Y84.648
;TIME_ELAPSED:425.308727
G10
M107
M104 S0
M140 S0
;Retract the filament
G92 E1
G1 E-1 F300
G28 X0 Y0
M84
M82 ;absolute extrusion mode
;End of Gcode
;SETTING_3 {"global_quality": "[general]\\nversion = 4\\nname = Fine #2\\ndefini
;SETTING_3 tion = custom\\n\\n[metadata]\\ntype = quality_changes\\nquality_type
;SETTING_3  = normal\\nsetting_version = 20\\n\\n[values]\\nadhesion_type = none
;SETTING_3 \\nlayer_height = 1.4\\nlayer_height_0 = 0.3\\n\\n", "extruder_qualit
;SETTING_3 y": ["[general]\\nversion = 4\\nname = Fine #2\\ndefinition = custom\
;SETTING_3 \n\\n[metadata]\\ntype = quality_changes\\nquality_type = normal\\nse
;SETTING_3 tting_version = 20\\nposition = 0\\n\\n[values]\\ninfill_sparse_densi
;SETTING_3 ty = 0\\nline_width = 4.19\\nmagic_mesh_surface_mode = surface\\nmesh
;SETTING_3 fix_maximum_deviation = 3\\nmeshfix_maximum_resolution = 20\\nmeshfix
;SETTING_3 _maximum_travel_resolution = 1.5\\ntop_bottom_thickness = 0\\nwall_th
;SETTING_3 ickness = 4.19\\nwall_transition_length = 1\\nz_seam_type = random\\n
;SETTING_3 \\n"]}
