;FLAVOR:UltiGCode
;TIME:1025
;MATERIAL:142819
;MATERIAL2:0
;NOZZLE_DIAMETER:0.4
;MINX:44.398
;MINY:51.898
;MINZ:0.3
;MAXX:120.602
;MAXY:128.175
;MAXZ:144.3
;Generated with Cura_SteamEngine 4.13.1
M82 ;absolute extrusion mode
G28 ;Home
G1 Z15.0 F6000 ;Move the platform down 15mm
;Prime the extruder
G92 E0
G1 F200 E3
G92 E0
G92 E0
G92 E0
G10
;LAYER_COUNT:97
;LAYER:0
M107
;MESH:Vaza_zakljucna.STL
G0 F3600 X83.486 Y116.909 Z0.3
;TYPE:WALL-OUTER
G11
G1 F1800 X82.5 Y116.927 E1.47925
G1 X81.514 Y116.909 E2.95849
G1 X80.593 Y116.86 E4.34195
G1 X79.626 Y116.773 E5.79831
G1 X78.662 Y116.653 E7.25547
G1 X78.426 Y116.613 E7.61451
G1 X77.714 Y116.499 E8.69612
G1 X76.79 Y116.316 E10.10904
G1 X75.841 Y116.091 E11.572
G1 X74.913 Y115.836 E13.0156
G1 X73.984 Y115.546 E14.47541
G1 X73.097 Y115.233 E15.88632
G1 X72.862 Y115.139 E16.26598
G1 X72.181 Y114.873 E17.36264
G1 X71.335 Y114.505 E18.7465
G1 X70.447 Y114.08 E20.22319
G1 X69.591 Y113.632 E21.67241
G1 X69.38 Y113.51 E22.03801
G1 X68.777 Y113.169 E23.07712
G1 X67.938 Y112.652 E24.55537
G1 X67.141 Y112.119 E25.99357
G1 X66.942 Y111.973 E26.36379
G1 X66.357 Y111.553 E27.44402
G1 X65.611 Y110.973 E28.86144
G1 X64.853 Y110.34 E30.34276
G1 X64.157 Y109.715 E31.74592
G1 X63.459 Y109.041 E33.20136
G1 X62.785 Y108.343 E34.65681
G1 X62.16 Y107.647 E36.05997
G1 X61.527 Y106.889 E37.54129
G1 X60.944 Y106.139 E38.9662
G1 X60.381 Y105.357 E40.41158
G1 X59.84 Y104.549 E41.87017
G1 X59.347 Y103.751 E43.27717
G1 X59.221 Y103.526 E43.66399
G1 X58.871 Y102.915 E44.72021
G1 X58.42 Y102.053 E46.17949
G1 X57.995 Y101.165 E47.65618
G1 X57.631 Y100.326 E49.02802
G1 X57.267 Y99.403 E50.5163
G1 X56.958 Y98.527 E51.90965
G1 X56.665 Y97.594 E53.37653
G1 X56.599 Y97.347 E53.76003
G1 X56.408 Y96.655 E54.83685
G1 X56.184 Y95.71 E56.29362
G1 X55.999 Y94.777 E57.72037
G1 X55.847 Y93.841 E59.14276
G1 X55.727 Y92.882 E60.59248
G1 X55.64 Y91.907 E62.06079
G1 X55.591 Y90.986 E63.44425
G1 X55.573 Y90 E64.92349
G1 X55.591 Y89.014 E66.40274
G1 X55.64 Y88.093 E67.78619
G1 X55.727 Y87.126 E69.24255
G1 X55.847 Y86.162 E70.69971
G1 X55.887 Y85.926 E71.05876
G1 X56.001 Y85.214 E72.14036
G1 X56.184 Y84.29 E73.55328
G1 X56.409 Y83.341 E75.01625
G1 X56.664 Y82.413 E76.45984
G1 X56.954 Y81.484 E77.91966
G1 X57.267 Y80.597 E79.33057
G1 X57.361 Y80.362 E79.71022
G1 X57.627 Y79.681 E80.80688
G1 X57.995 Y78.835 E82.19074
G1 X58.42 Y77.947 E83.66744
G1 X58.868 Y77.091 E85.11666
G1 X58.99 Y76.88 E85.48225
G1 X59.331 Y76.277 E86.52137
G1 X59.848 Y75.438 E87.99962
G1 X60.381 Y74.641 E89.43782
G1 X60.527 Y74.442 E89.80804
G1 X60.947 Y73.857 E90.88827
G1 X61.527 Y73.111 E92.30568
G1 X62.16 Y72.353 E93.78701
G1 X62.785 Y71.657 E95.19016
G1 X63.459 Y70.959 E96.64561
G1 X64.157 Y70.285 E98.10106
G1 X64.853 Y69.66 E99.50421
G1 X65.611 Y69.027 E100.98554
G1 X66.361 Y68.444 E102.41045
G1 X67.143 Y67.881 E103.85582
G1 X67.951 Y67.34 E105.31441
G1 X68.749 Y66.847 E106.72142
G1 X68.974 Y66.721 E107.10824
G1 X69.585 Y66.371 E108.16445
G1 X70.447 Y65.92 E109.62374
G1 X71.335 Y65.495 E111.10043
G1 X72.174 Y65.131 E112.47227
G1 X73.097 Y64.767 E113.96054
G1 X73.973 Y64.458 E115.35389
G1 X74.906 Y64.165 E116.82078
G1 X75.153 Y64.099 E117.20428
G1 X75.845 Y63.908 E118.28109
G1 X76.79 Y63.684 E119.73787
G1 X77.723 Y63.499 E121.16462
G1 X78.659 Y63.347 E122.58701
G1 X79.618 Y63.227 E124.03673
G1 X80.593 Y63.14 E125.50504
G1 X81.514 Y63.091 E126.88849
G1 X82.5 Y63.073 E128.36774
G1 X83.486 Y63.091 E129.84699
G1 X84.407 Y63.14 E131.23044
G1 X85.374 Y63.227 E132.6868
G1 X86.338 Y63.347 E134.14396
G1 X86.574 Y63.387 E134.50301
G1 X87.286 Y63.501 E135.58461
G1 X88.21 Y63.684 E136.99753
G1 X89.159 Y63.909 E138.46049
G1 X90.087 Y64.164 E139.90409
G1 X91.016 Y64.454 E141.36391
G1 X91.903 Y64.767 E142.77481
G1 X92.138 Y64.861 E143.15447
G1 X92.819 Y65.127 E144.25113
G1 X93.665 Y65.495 E145.63499
G1 X94.553 Y65.92 E147.11168
G1 X95.409 Y66.368 E148.5609
G1 X95.62 Y66.49 E148.9265
G1 X96.223 Y66.831 E149.96561
G1 X97.062 Y67.348 E151.44386
G1 X97.859 Y67.881 E152.88206
G1 X98.058 Y68.027 E153.25228
G1 X98.643 Y68.447 E154.33252
G1 X99.389 Y69.027 E155.74993
G1 X100.147 Y69.66 E157.23125
G1 X100.843 Y70.285 E158.63441
G1 X101.541 Y70.959 E160.08986
G1 X102.215 Y71.657 E161.54531
G1 X102.84 Y72.353 E162.94846
G1 X103.473 Y73.111 E164.42978
G1 X104.056 Y73.861 E165.8547
G1 X104.619 Y74.643 E167.30007
G1 X105.16 Y75.451 E168.75866
G1 X105.653 Y76.249 E170.16567
G1 X105.779 Y76.474 E170.55248
G1 X106.129 Y77.085 E171.6087
G1 X106.58 Y77.947 E173.06798
G1 X107.005 Y78.835 E174.54468
G1 X107.369 Y79.674 E175.91651
G1 X107.733 Y80.597 E177.40479
G1 X108.042 Y81.473 E178.79814
G1 X108.335 Y82.406 E180.26503
G1 X108.401 Y82.653 E180.64853
G1 X108.592 Y83.345 E181.72534
G1 X108.816 Y84.29 E183.18212
G1 X109.001 Y85.223 E184.60886
G1 X109.153 Y86.159 E186.03126
G1 X109.273 Y87.118 E187.48097
G1 X109.36 Y88.093 E188.94928
G1 X109.409 Y89.014 E190.33274
G1 X109.427 Y90 E191.81198
G1 X109.409 Y90.986 E193.29123
G1 X109.36 Y91.907 E194.67469
G1 X109.273 Y92.874 E196.13104
G1 X109.153 Y93.838 E197.5882
G1 X109.113 Y94.074 E197.94725
G1 X108.999 Y94.786 E199.02886
G1 X108.816 Y95.71 E200.44178
G1 X108.591 Y96.659 E201.90474
G1 X108.336 Y97.587 E203.34834
G1 X108.046 Y98.516 E204.80815
G1 X107.733 Y99.403 E206.21906
G1 X107.639 Y99.638 E206.59871
G1 X107.373 Y100.319 E207.69537
G1 X107.005 Y101.165 E209.07923
G1 X106.58 Y102.053 E210.55593
G1 X106.132 Y102.909 E212.00515
G1 X106.01 Y103.12 E212.37075
G1 X105.669 Y103.723 E213.40986
G1 X105.152 Y104.562 E214.88811
G1 X104.619 Y105.359 E216.32631
G1 X104.473 Y105.558 E216.69653
G1 X104.053 Y106.143 E217.77676
G1 X103.473 Y106.889 E219.19418
G1 X102.84 Y107.647 E220.6755
G1 X102.215 Y108.343 E222.07865
G1 X101.541 Y109.041 E223.5341
G1 X100.843 Y109.715 E224.98955
G1 X100.147 Y110.34 E226.39271
G1 X99.389 Y110.973 E227.87403
G1 X98.639 Y111.556 E229.29894
G1 X97.857 Y112.119 E230.74432
G1 X97.049 Y112.66 E232.2029
G1 X96.251 Y113.153 E233.60991
G1 X96.026 Y113.279 E233.99673
G1 X95.415 Y113.629 E235.05295
G1 X94.553 Y114.08 E236.51223
G1 X93.665 Y114.505 E237.98892
G1 X92.826 Y114.869 E239.36076
G1 X91.903 Y115.233 E240.84903
G1 X91.027 Y115.542 E242.24239
G1 X90.094 Y115.835 E243.70927
G1 X89.847 Y115.901 E244.09277
G1 X89.155 Y116.092 E245.16958
G1 X88.21 Y116.316 E246.62636
G1 X87.277 Y116.501 E248.05311
G1 X86.341 Y116.653 E249.4755
G1 X85.382 Y116.773 E250.92522
G1 X84.407 Y116.86 E252.39353
G1 X83.486 Y116.909 E253.77698
G0 F3600 X83.286 Y116.912
G0 X83.196 Y111.912
;MESH:NONMESH
G0 F600 X83.196 Y111.912 Z1.8
G0 F3600 X83.483 Y116.81
G0 X83.503 Y118.08
;TIME_ELAPSED:10.123527
;LAYER:1
M106 S255
;TYPE:WALL-OUTER
;MESH:Vaza_zakljucna.STL
G1 F1800 X82.5 Y118.097 E261.30057
G1 X81.478 Y118.079 E268.96675
G1 X80.502 Y118.027 E276.29714
G1 X79.511 Y117.938 E283.75955
G1 X78.496 Y117.811 E291.43141
G1 X77.508 Y117.651 E298.93794
G1 X76.433 Y117.435 E307.16159
G1 X75.559 Y117.227 E313.89966
G1 X74.581 Y116.959 E321.50507
G1 X73.627 Y116.66 E329.00326
G1 X72.696 Y116.332 E336.40643
G1 X71.732 Y115.953 E344.17513
G1 X70.816 Y115.554 E351.66859
G1 X69.947 Y115.138 E358.89439
G1 X69.024 Y114.654 E366.71091
G1 X68.168 Y114.168 E374.09349
G1 X67.3 Y113.632 E381.74466
G1 X66.481 Y113.085 E389.13119
G1 X65.66 Y112.492 E396.72692
G1 X64.878 Y111.885 E404.15144
G1 X64.088 Y111.224 E411.87688
G1 X63.358 Y110.569 E419.23271
G1 X62.632 Y109.868 E426.80168
G1 X61.931 Y109.142 E434.37065
G1 X61.276 Y108.412 E441.72649
G1 X60.615 Y107.622 E449.45193
G1 X60.008 Y106.84 E456.87645
G1 X59.41 Y106.012 E464.53669
G1 X58.834 Y105.147 E472.33092
G1 X58.307 Y104.29 E479.87645
G1 X57.808 Y103.408 E487.47675
G1 X57.363 Y102.556 E494.68584
G1 X56.946 Y101.684 E501.93518
G1 X56.538 Y100.747 E509.59999
G1 X56.174 Y99.82 E517.06927
G1 X55.826 Y98.832 E524.92549
G1 X55.541 Y97.919 E532.09885
G1 X55.271 Y96.935 E539.75163
G1 X55.043 Y95.967 E547.2103
G1 X54.849 Y94.992 E554.66615
G1 X54.689 Y94.004 E562.17269
G1 X54.562 Y92.989 E569.84454
G1 X54.47 Y91.95 E577.66753
G1 X54.42 Y91.003 E584.77993
G1 X54.403 Y90 E592.30351
G1 X54.421 Y88.978 E599.96969
G1 X54.473 Y88.002 E607.30008
G1 X54.562 Y87.011 E614.76249
G1 X54.689 Y85.996 E622.43435
G1 X54.849 Y85.008 E629.94089
G1 X55.043 Y84.033 E637.39673
G1 X55.065 Y83.933 E638.16467
G1 X55.276 Y83.045 E645.0101
G1 X55.541 Y82.081 E652.5083
G1 X55.84 Y81.127 E660.00649
G1 X56.168 Y80.196 E667.40966
G1 X56.547 Y79.232 E675.17836
G1 X56.946 Y78.316 E682.67182
G1 X57.362 Y77.447 E689.89762
G1 X57.846 Y76.524 E697.71414
G1 X58.338 Y75.659 E705.17763
G1 X58.868 Y74.8 E712.74773
G1 X59.415 Y73.981 E720.13426
G1 X60.008 Y73.16 E727.72999
G1 X60.615 Y72.378 E735.15451
G1 X61.276 Y71.588 E742.87995
G1 X61.931 Y70.858 E750.23578
G1 X62.632 Y70.132 E757.80475
G1 X63.358 Y69.431 E765.37373
G1 X64.088 Y68.776 E772.72956
G1 X64.878 Y68.115 E780.455
G1 X65.66 Y67.508 E787.87952
G1 X66.481 Y66.915 E795.47525
G1 X67.355 Y66.333 E803.3506
G1 X68.208 Y65.808 E810.86272
G1 X69.082 Y65.313 E818.39602
G1 X69.944 Y64.863 E825.68896
G1 X70.816 Y64.446 E832.93829
G1 X71.753 Y64.038 E840.6031
G1 X72.68 Y63.674 E848.07238
G1 X73.693 Y63.318 E856.12539
G1 X74.581 Y63.041 E863.10189
G1 X75.623 Y62.756 E871.20394
G1 X76.525 Y62.545 E878.15157
G1 X77.508 Y62.349 E885.66919
G1 X78.496 Y62.189 E893.17573
G1 X79.511 Y62.062 E900.84759
G1 X80.55 Y61.97 E908.67057
G1 X81.497 Y61.92 E915.78297
G1 X82.5 Y61.903 E923.30655
G1 X83.522 Y61.921 E930.97274
G1 X84.498 Y61.973 E938.30312
G1 X85.489 Y62.062 E945.76553
G1 X86.504 Y62.189 E953.43739
G1 X87.492 Y62.349 E960.94393
G1 X88.567 Y62.565 E969.16757
G1 X89.441 Y62.773 E975.90564
G1 X90.419 Y63.041 E983.51106
G1 X91.373 Y63.34 E991.00925
G1 X92.304 Y63.668 E998.41242
G1 X93.268 Y64.047 E1006.18112
G1 X94.184 Y64.446 E1013.67458
G1 X95.053 Y64.862 E1020.90038
G1 X95.968 Y65.341 E1028.64634
G1 X96.832 Y65.832 E1036.09961
G1 X97.694 Y66.365 E1043.70068
G1 X98.519 Y66.915 E1051.13713
G1 X99.34 Y67.508 E1058.73285
G1 X100.122 Y68.115 E1066.15737
G1 X100.912 Y68.776 E1073.88281
G1 X101.642 Y69.431 E1081.23865
G1 X102.368 Y70.132 E1088.80762
G1 X103.069 Y70.858 E1096.37659
G1 X103.724 Y71.588 E1103.73242
G1 X104.385 Y72.378 E1111.45786
G1 X104.992 Y73.16 E1118.88238
G1 X105.585 Y73.981 E1126.47811
G1 X106.167 Y74.855 E1134.35347
G1 X106.692 Y75.708 E1141.86558
G1 X107.187 Y76.582 E1149.39889
G1 X107.637 Y77.444 E1156.69182
G1 X108.054 Y78.316 E1163.94116
G1 X108.456 Y79.239 E1171.49173
G1 X108.495 Y79.334 E1172.26194
G1 X108.826 Y80.18 E1179.07529
G1 X109.178 Y81.181 E1187.03344
G1 X109.459 Y82.081 E1194.1048
G1 X109.739 Y83.103 E1202.05226
G1 X109.955 Y84.025 E1209.15449
G1 X110.151 Y85.008 E1216.67211
G1 X110.311 Y85.996 E1224.17865
G1 X110.438 Y87.011 E1231.85051
G1 X110.53 Y88.05 E1239.6735
G1 X110.58 Y88.997 E1246.78589
G1 X110.597 Y90 E1254.30947
G1 X110.579 Y91.022 E1261.97566
G1 X110.527 Y91.998 E1269.30604
G1 X110.438 Y92.989 E1276.76846
G1 X110.311 Y94.004 E1284.44031
G1 X110.151 Y94.992 E1291.94685
G1 X109.957 Y95.967 E1299.4027
G1 X109.935 Y96.067 E1300.17064
G1 X109.727 Y96.941 E1306.90871
G1 X109.459 Y97.919 E1314.51412
G1 X109.16 Y98.873 E1322.01231
G1 X108.84 Y99.782 E1329.23992
G1 X108.453 Y100.768 E1337.18413
G1 X108.054 Y101.684 E1344.67759
G1 X107.638 Y102.553 E1351.9034
G1 X107.154 Y103.476 E1359.71991
G1 X106.66 Y104.345 E1367.2169
G1 X106.136 Y105.195 E1374.70593
G1 X105.59 Y106.012 E1382.07582
G1 X104.992 Y106.84 E1389.73606
G1 X104.385 Y107.622 E1397.16058
G1 X103.724 Y108.412 E1404.88602
G1 X103.069 Y109.142 E1412.24185
G1 X102.368 Y109.868 E1419.81082
G1 X101.642 Y110.569 E1427.37979
G1 X100.912 Y111.224 E1434.73563
G1 X100.122 Y111.885 E1442.46107
G1 X99.34 Y112.492 E1449.88559
G1 X98.519 Y113.085 E1457.48131
G1 X97.645 Y113.667 E1465.35667
G1 X96.792 Y114.192 E1472.86879
G1 X95.918 Y114.687 E1480.40209
G1 X95.056 Y115.137 E1487.69502
G1 X94.184 Y115.554 E1494.94436
G1 X93.247 Y115.962 E1502.60917
G1 X92.32 Y116.326 E1510.07845
G1 X91.307 Y116.682 E1518.13146
G1 X90.419 Y116.959 E1525.10796
G1 X89.377 Y117.244 E1533.21001
G1 X88.475 Y117.455 E1540.15764
G1 X87.492 Y117.651 E1547.67526
G1 X86.504 Y117.811 E1555.1818
G1 X85.489 Y117.938 E1562.85365
G1 X84.45 Y118.03 E1570.67664
G1 X83.503 Y118.08 E1577.78904
G0 F5400 X83.303 Y118.083
G0 X83.22 Y113.083
;MESH:NONMESH
G0 F600 X83.22 Y113.083 Z3.3
G0 F5400 X83.5 Y117.981
G0 X83.582 Y119.729
;TIME_ELAPSED:16.408176
;LAYER:2
;TYPE:WALL-OUTER
;MESH:Vaza_zakljucna.STL
G1 F1800 X82.496 Y119.748 E1585.93528
G1 X81.416 Y119.729 E1594.03654
G1 X80.382 Y119.674 E1601.8025
G1 X79.314 Y119.579 E1609.84413
G1 X78.285 Y119.449 E1617.62297
G1 X77.213 Y119.275 E1625.76819
G1 X76.572 Y119.149 E1630.66769
G1 X76.177 Y119.069 E1633.69034
G1 X75.133 Y118.822 E1641.7365
G1 X74.131 Y118.548 E1649.5274
G1 X73.104 Y118.226 E1657.59962
G1 X72.111 Y117.876 E1665.4962
G1 X71.101 Y117.479 E1673.63537
G1 X70.142 Y117.061 E1681.48141
G1 X69.175 Y116.598 E1689.52237
G1 X68.242 Y116.109 E1697.42272
G1 X67.341 Y115.597 E1705.19507
G1 X66.409 Y115.021 E1713.41227
G1 X65.546 Y114.445 E1721.19403
G1 X64.637 Y113.789 E1729.60144
G1 X63.84 Y113.17 E1737.17002
G1 X63.034 Y112.495 E1745.05487
G1 X62.222 Y111.766 E1753.23911
G1 X61.465 Y111.035 E1761.13162
G1 X60.734 Y110.278 E1769.02414
G1 X60.005 Y109.466 E1777.20837
G1 X59.33 Y108.66 E1785.09322
G1 X58.706 Y107.856 E1792.72626
G1 X58.055 Y106.954 E1801.06917
G1 X57.479 Y106.091 E1808.85092
G1 X56.903 Y105.159 E1817.06813
G1 X56.391 Y104.258 E1824.84048
G1 X55.906 Y103.333 E1832.67376
G1 X55.612 Y102.722 E1837.75916
G1 X55.439 Y102.357 E1840.78859
G1 X55.021 Y101.399 E1848.62775
G1 X54.624 Y100.389 E1856.76692
G1 X54.274 Y99.396 E1864.66349
G1 X53.957 Y98.383 E1872.62431
G1 X53.679 Y97.37 E1880.50271
G1 X53.432 Y96.324 E1888.56346
G1 X53.223 Y95.279 E1896.55618
G1 X53.051 Y94.215 E1904.63977
G1 X52.921 Y93.186 E1912.41862
G1 X52.826 Y92.118 E1920.46024
G1 X52.771 Y91.082 E1928.24118
G1 X52.752 Y90 E1936.35744
G1 X52.771 Y88.918 E1944.47369
G1 X52.826 Y87.882 E1952.25463
G1 X52.921 Y86.814 E1960.29626
G1 X53.051 Y85.785 E1968.0751
G1 X53.225 Y84.713 E1976.22032
G1 X53.348 Y84.086 E1981.01245
G1 X53.431 Y83.677 E1984.14248
G1 X53.678 Y82.633 E1992.18864
G1 X53.952 Y81.631 E1999.97954
G1 X54.274 Y80.604 E2008.05176
G1 X54.624 Y79.611 E2015.94834
G1 X55.021 Y78.601 E2024.08751
G1 X55.439 Y77.642 E2031.93355
G1 X55.902 Y76.675 E2039.9745
G1 X56.391 Y75.742 E2047.87486
G1 X56.903 Y74.841 E2055.64721
G1 X57.479 Y73.909 E2063.86441
G1 X58.055 Y73.046 E2071.64616
G1 X58.711 Y72.137 E2080.05358
G1 X59.33 Y71.34 E2087.62216
G1 X60.005 Y70.534 E2095.50701
G1 X60.734 Y69.722 E2103.69124
G1 X61.465 Y68.965 E2111.58376
G1 X62.222 Y68.234 E2119.47628
G1 X63.034 Y67.505 E2127.66051
G1 X63.84 Y66.83 E2135.54536
G1 X64.637 Y66.211 E2143.11394
G1 X65.546 Y65.555 E2151.52136
G1 X66.409 Y64.979 E2159.30311
G1 X67.341 Y64.403 E2167.52032
G1 X68.242 Y63.891 E2175.29267
G1 X69.167 Y63.406 E2183.12595
G1 X69.778 Y63.112 E2188.21135
G1 X70.143 Y62.939 E2191.24078
G1 X71.101 Y62.521 E2199.07994
G1 X72.111 Y62.124 E2207.21911
G1 X73.104 Y61.774 E2215.11568
G1 X74.117 Y61.457 E2223.0765
G1 X75.13 Y61.179 E2230.9549
G1 X76.176 Y60.932 E2239.01565
G1 X77.221 Y60.723 E2247.00837
G1 X78.285 Y60.551 E2255.09196
G1 X79.314 Y60.421 E2262.87081
G1 X80.382 Y60.326 E2270.91243
G1 X81.418 Y60.271 E2278.69337
G1 X82.5 Y60.252 E2286.80963
G1 X83.582 Y60.271 E2294.92588
G1 X84.618 Y60.326 E2302.70682
G1 X85.686 Y60.421 E2310.74845
G1 X86.715 Y60.551 E2318.52729
G1 X87.787 Y60.725 E2326.67251
G1 X88.428 Y60.851 E2331.57201
G1 X88.823 Y60.931 E2334.59466
G1 X89.867 Y61.178 E2342.64082
G1 X90.869 Y61.452 E2350.43172
G1 X91.896 Y61.774 E2358.50394
G1 X92.889 Y62.124 E2366.40052
G1 X93.899 Y62.521 E2374.53969
G1 X94.858 Y62.939 E2382.38573
G1 X95.825 Y63.402 E2390.42669
G1 X96.758 Y63.891 E2398.32704
G1 X97.659 Y64.403 E2406.09939
G1 X98.591 Y64.979 E2414.31659
G1 X99.454 Y65.555 E2422.09834
G1 X100.363 Y66.211 E2430.50576
G1 X101.16 Y66.83 E2438.07434
G1 X101.966 Y67.505 E2445.95919
G1 X102.778 Y68.234 E2454.14343
G1 X103.535 Y68.965 E2462.03594
G1 X104.266 Y69.722 E2469.92846
G1 X104.995 Y70.534 E2478.11269
G1 X105.67 Y71.34 E2485.99754
G1 X106.289 Y72.137 E2493.56612
G1 X106.945 Y73.046 E2501.97354
G1 X107.521 Y73.909 E2509.75529
G1 X108.097 Y74.841 E2517.9725
G1 X108.609 Y75.742 E2525.74485
G1 X109.094 Y76.667 E2533.57813
G1 X109.382 Y77.265 E2538.55616
G1 X109.561 Y77.643 E2541.69297
G1 X109.979 Y78.601 E2549.53213
G1 X110.376 Y79.611 E2557.6713
G1 X110.726 Y80.604 E2565.56787
G1 X111.043 Y81.617 E2573.52868
G1 X111.215 Y82.237 E2578.3543
G1 X111.321 Y82.63 E2581.40714
G1 X111.568 Y83.676 E2589.46789
G1 X111.777 Y84.721 E2597.4606
G1 X111.949 Y85.785 E2605.5442
G1 X112.079 Y86.814 E2613.32304
G1 X112.174 Y87.882 E2621.36467
G1 X112.229 Y88.918 E2629.14561
G1 X112.248 Y90 E2637.26186
G1 X112.229 Y91.082 E2645.37811
G1 X112.174 Y92.118 E2653.15906
G1 X112.079 Y93.186 E2661.20068
G1 X111.949 Y94.215 E2668.97953
G1 X111.775 Y95.287 E2677.12475
G1 X111.652 Y95.914 E2681.91688
G1 X111.569 Y96.323 E2685.0469
G1 X111.322 Y97.367 E2693.09306
G1 X111.048 Y98.369 E2700.88397
G1 X110.726 Y99.396 E2708.95619
G1 X110.376 Y100.389 E2716.85276
G1 X109.979 Y101.399 E2724.99194
G1 X109.561 Y102.358 E2732.83797
G1 X109.098 Y103.325 E2740.87893
G1 X108.609 Y104.258 E2748.77928
G1 X108.097 Y105.159 E2756.55163
G1 X107.521 Y106.091 E2764.76884
G1 X106.945 Y106.954 E2772.55059
G1 X106.294 Y107.856 E2780.89349
G1 X105.67 Y108.66 E2788.52653
G1 X104.995 Y109.466 E2796.41139
G1 X104.266 Y110.278 E2804.59562
G1 X103.535 Y111.035 E2812.48814
G1 X102.778 Y111.766 E2820.38065
G1 X101.966 Y112.495 E2828.56489
G1 X101.16 Y113.17 E2836.44974
G1 X100.363 Y113.789 E2844.01831
G1 X99.454 Y114.445 E2852.42573
G1 X98.591 Y115.021 E2860.20749
G1 X97.659 Y115.597 E2868.42469
G1 X96.758 Y116.109 E2876.19704
G1 X95.833 Y116.594 E2884.03032
G1 X95.222 Y116.888 E2889.11573
G1 X94.857 Y117.061 E2892.14515
G1 X93.899 Y117.479 E2899.98431
G1 X92.889 Y117.876 E2908.12349
G1 X91.896 Y118.226 E2916.02006
G1 X90.883 Y118.543 E2923.98087
G1 X89.87 Y118.821 E2931.85927
G1 X88.824 Y119.068 E2939.92003
G1 X87.779 Y119.277 E2947.91274
G1 X86.715 Y119.449 E2955.99634
G1 X85.686 Y119.579 E2963.77518
G1 X84.618 Y119.674 E2971.81681
G1 X83.582 Y119.729 E2979.59775
G0 F7200 X83.382 Y119.732
G0 X83.296 Y114.732
;MESH:NONMESH
G0 F600 X83.296 Y114.732 Z4.8
G0 F7200 X83.579 Y119.63
G0 X83.608 Y121.107
;TIME_ELAPSED:23.010511
;LAYER:3
;TYPE:WALL-OUTER
;MESH:Vaza_zakljucna.STL
G1 F1800 X82.505 Y121.126 E2987.87148
G1 X81.364 Y121.105 E2996.43043
G1 X80.291 Y121.048 E3004.48927
G1 X79.162 Y120.947 E3012.99059
G1 X78.089 Y120.812 E3021.10153
G1 X76.964 Y120.63 E3029.64873
G1 X75.887 Y120.416 E3037.88415
G1 X74.783 Y120.155 E3046.39239
G1 X73.731 Y119.866 E3054.5747
G1 X72.668 Y119.532 E3062.93148
G1 X71.632 Y119.168 E3071.16712
G1 X70.6 Y118.761 E3079.4873
G1 X69.56 Y118.308 E3087.99512
G1 X68.557 Y117.829 E3096.33143
G1 X67.595 Y117.325 E3104.47665
G1 X66.622 Y116.772 E3112.87041
G1 X65.67 Y116.183 E3121.26648
G1 X64.728 Y115.553 E3129.76588
G1 X63.862 Y114.929 E3137.77134
G1 X62.961 Y114.229 E3146.32858
G1 X62.127 Y113.533 E3154.47557
G1 X61.285 Y112.776 E3162.96752
G1 X60.491 Y112.009 E3171.24721
G1 X59.724 Y111.215 E3179.5269
G1 X58.967 Y110.373 E3188.01885
G1 X58.271 Y109.539 E3196.16584
G1 X57.571 Y108.638 E3204.72308
G1 X56.947 Y107.772 E3212.72854
G1 X56.313 Y106.824 E3221.28203
G1 X55.728 Y105.878 E3229.62404
G1 X55.175 Y104.905 E3238.0178
G1 X54.671 Y103.943 E3246.16302
G1 X54.188 Y102.932 E3254.5664
G1 X54.034 Y102.583 E3257.42741
G1 X53.741 Y101.907 E3262.95316
G1 X53.332 Y100.868 E3271.32768
G1 X52.968 Y99.832 E3279.56332
G1 X52.64 Y98.787 E3287.77782
G1 X52.341 Y97.697 E3296.25481
G1 X52.253 Y97.332 E3299.07075
G1 X52.086 Y96.621 E3304.54837
G1 X51.866 Y95.512 E3313.02795
G1 X51.688 Y94.406 E3321.42969
G1 X51.552 Y93.329 E3329.57134
G1 X51.453 Y92.224 E3337.89203
G1 X51.393 Y91.108 E3346.27412
G1 X51.386 Y90.752 E3348.94464
G1 X51.375 Y90 E3354.58524
G1 X51.395 Y88.855 E3363.17405
G1 X51.452 Y87.791 E3371.16549
G1 X51.553 Y86.662 E3379.66681
G1 X51.688 Y85.589 E3387.77775
G1 X51.87 Y84.464 E3396.32495
G1 X52.084 Y83.387 E3404.56037
G1 X52.349 Y82.269 E3413.1777
G1 X52.634 Y81.231 E3421.25081
G1 X52.968 Y80.168 E3429.60759
G1 X53.332 Y79.132 E3437.84323
G1 X53.739 Y78.1 E3446.16341
G1 X54.192 Y77.06 E3454.67123
G1 X54.671 Y76.057 E3463.00754
G1 X55.175 Y75.095 E3471.15276
G1 X55.728 Y74.122 E3479.54652
G1 X56.313 Y73.176 E3487.88854
G1 X56.947 Y72.228 E3496.44202
G1 X57.571 Y71.362 E3504.44749
G1 X58.271 Y70.461 E3513.00472
G1 X58.967 Y69.627 E3521.15171
G1 X59.724 Y68.785 E3529.64366
G1 X60.503 Y67.979 E3538.05061
G1 X61.285 Y67.224 E3546.20304
G1 X62.127 Y66.467 E3554.695
G1 X62.961 Y65.771 E3562.84198
G1 X63.862 Y65.071 E3571.39922
G1 X64.728 Y64.447 E3579.40468
G1 X65.676 Y63.813 E3587.95817
G1 X66.622 Y63.228 E3596.30018
G1 X67.595 Y62.675 E3604.69395
G1 X68.557 Y62.171 E3612.83917
G1 X69.568 Y61.688 E3621.24255
G1 X69.901 Y61.541 E3623.97257
G1 X70.593 Y61.241 E3629.6293
G1 X71.632 Y60.832 E3638.00382
G1 X72.668 Y60.468 E3646.23946
G1 X73.713 Y60.14 E3654.45396
G1 X74.803 Y59.841 E3662.93096
G1 X75.168 Y59.753 E3665.74689
G1 X75.879 Y59.586 E3671.22451
G1 X76.988 Y59.366 E3679.7041
G1 X78.094 Y59.188 E3688.10584
G1 X79.171 Y59.052 E3696.24748
G1 X80.276 Y58.953 E3704.56818
G1 X81.392 Y58.893 E3712.95027
G1 X81.748 Y58.886 E3715.62078
G1 X82.494 Y58.875 E3721.21639
G1 X83.635 Y58.895 E3729.7752
G1 X84.709 Y58.952 E3737.84154
G1 X85.838 Y59.053 E3746.34286
G1 X86.911 Y59.188 E3754.4538
G1 X88.036 Y59.37 E3763.001
G1 X89.113 Y59.584 E3771.23641
G1 X90.217 Y59.845 E3779.74466
G1 X91.269 Y60.134 E3787.92696
G1 X92.332 Y60.468 E3796.28375
G1 X93.368 Y60.832 E3804.51939
G1 X94.4 Y61.239 E3812.83957
G1 X95.44 Y61.692 E3821.34739
G1 X96.443 Y62.171 E3829.6837
G1 X97.405 Y62.675 E3837.82892
G1 X98.378 Y63.228 E3846.22268
G1 X99.324 Y63.813 E3854.56469
G1 X100.272 Y64.447 E3863.11818
G1 X101.138 Y65.071 E3871.12364
G1 X102.039 Y65.771 E3879.68088
G1 X102.873 Y66.467 E3887.82787
G1 X103.715 Y67.224 E3896.31982
G1 X104.497 Y67.979 E3904.47225
G1 X105.276 Y68.785 E3912.8792
G1 X106.033 Y69.627 E3921.37115
G1 X106.729 Y70.461 E3929.51814
G1 X107.429 Y71.362 E3938.07538
G1 X108.053 Y72.228 E3946.08084
G1 X108.687 Y73.176 E3954.63433
G1 X109.272 Y74.122 E3962.97634
G1 X109.825 Y75.095 E3971.3701
G1 X110.329 Y76.057 E3979.51532
G1 X110.812 Y77.068 E3987.9187
G1 X110.959 Y77.401 E3990.64872
G1 X111.259 Y78.093 E3996.30545
G1 X111.668 Y79.132 E4004.67998
G1 X112.032 Y80.168 E4012.91562
G1 X112.354 Y81.193 E4020.97353
G1 X112.659 Y82.303 E4029.60708
G1 X112.747 Y82.668 E4032.42302
G1 X112.914 Y83.379 E4037.90064
G1 X113.134 Y84.488 E4046.38022
G1 X113.312 Y85.594 E4054.78196
G1 X113.448 Y86.671 E4062.92361
G1 X113.482 Y87.032 E4065.64309
G1 X113.547 Y87.776 E4071.24434
G1 X113.607 Y88.892 E4079.62643
G1 X113.626 Y89.995 E4087.90016
G1 X113.605 Y91.136 E4096.45911
G1 X113.548 Y92.209 E4104.51796
G1 X113.447 Y93.338 E4113.01927
G1 X113.312 Y94.411 E4121.13022
G1 X113.13 Y95.536 E4129.67742
G1 X112.916 Y96.613 E4137.91283
G1 X112.655 Y97.717 E4146.42107
G1 X112.366 Y98.769 E4154.60338
G1 X112.032 Y99.832 E4162.96016
G1 X111.668 Y100.868 E4171.1958
G1 X111.261 Y101.9 E4179.51598
G1 X110.808 Y102.94 E4188.0238
G1 X110.329 Y103.943 E4196.36011
G1 X109.825 Y104.905 E4204.50533
G1 X109.272 Y105.878 E4212.89909
G1 X108.687 Y106.824 E4221.24111
G1 X108.053 Y107.772 E4229.79459
G1 X107.429 Y108.638 E4237.80006
G1 X106.729 Y109.539 E4246.35729
G1 X106.033 Y110.373 E4254.50428
G1 X105.276 Y111.215 E4262.99623
G1 X104.509 Y112.009 E4271.27592
G1 X103.715 Y112.776 E4279.55561
G1 X102.873 Y113.533 E4288.04757
G1 X102.039 Y114.229 E4296.19455
G1 X101.138 Y114.929 E4304.75179
G1 X100.272 Y115.553 E4312.75725
G1 X99.33 Y116.183 E4321.25666
G1 X98.378 Y116.772 E4329.65272
G1 X97.405 Y117.325 E4338.04648
G1 X96.443 Y117.829 E4346.19171
G1 X95.432 Y118.312 E4354.59509
G1 X95.099 Y118.459 E4357.32511
G1 X94.407 Y118.759 E4362.98184
G1 X93.368 Y119.168 E4371.35636
G1 X92.332 Y119.532 E4379.592
G1 X91.287 Y119.86 E4387.8065
G1 X90.197 Y120.159 E4396.2835
G1 X89.832 Y120.247 E4399.09943
G1 X89.121 Y120.414 E4404.57705
G1 X88.012 Y120.634 E4413.05663
G1 X86.906 Y120.812 E4421.45838
G1 X85.829 Y120.948 E4429.60002
G1 X84.724 Y121.047 E4437.92072
G1 X83.608 Y121.107 E4446.3028
G0 F7200 X83.408 Y121.11
G0 X83.323 Y116.11
;MESH:NONMESH
G0 F600 X83.323 Y116.11 Z6.3
G0 F7200 X81.325 Y120.637
;TIME_ELAPSED:29.889315
;LAYER:4
;TYPE:WALL-OUTER
;MESH:Vaza_zakljucna.STL
G1 F1800 X82.5 Y120.659 E4455.11685
G1 X83.675 Y120.637 E4463.93089
G1 X84.847 Y120.569 E4472.73568
G1 X86.016 Y120.457 E4481.54332
G1 X87.181 Y120.3 E4490.35981
G1 X88.339 Y120.098 E4499.17596
G1 X89.484 Y119.853 E4507.95784
G1 X90.625 Y119.564 E4516.78558
G1 X91.751 Y119.23 E4525.59427
G1 X92.864 Y118.854 E4534.40524
G1 X93.961 Y118.436 E4543.20978
G1 X95.041 Y117.977 E4552.01096
G1 X96.104 Y117.476 E4560.82456
G1 X97.146 Y116.935 E4569.6301
G1 X98.167 Y116.355 E4578.43691
G1 X99.166 Y115.735 E4587.25507
G1 X100.14 Y115.077 E4596.07081
G1 X101.087 Y114.384 E4604.87192
G1 X102.007 Y113.654 E4613.68019
G1 X102.899 Y112.889 E4622.49353
G1 X103.762 Y112.09 E4631.31415
G1 X104.395 Y111.455 E4638.03875
G1 X104.585 Y111.267 E4640.04342
G1 X105.39 Y110.397 E4648.93314
G1 X105.987 Y109.699 E4655.82177
G1 X106.147 Y109.516 E4657.64488
G1 X106.884 Y108.587 E4666.53866
G1 X107.577 Y107.64 E4675.33977
G1 X108.236 Y106.664 E4684.17214
G1 X108.706 Y105.904 E4690.87405
G1 X108.85 Y105.676 E4692.89655
G1 X109.435 Y104.646 E4701.78057
G1 X109.976 Y103.604 E4710.58611
G1 X110.477 Y102.541 E4719.39971
G1 X110.936 Y101.461 E4728.20089
G1 X111.354 Y100.364 E4737.00543
G1 X111.73 Y99.251 E4745.8164
G1 X112.064 Y98.125 E4754.62509
G1 X112.353 Y96.984 E4763.45283
G1 X112.598 Y95.839 E4772.23472
G1 X112.801 Y94.679 E4781.06693
G1 X112.917 Y93.795 E4787.75377
G1 X112.956 Y93.528 E4789.77752
G1 X113.069 Y92.347 E4798.67547
G1 X113.137 Y91.175 E4807.48025
G1 X113.159 Y90 E4816.2943
G1 X113.137 Y88.825 E4825.10834
G1 X113.069 Y87.653 E4833.91312
G1 X112.957 Y86.484 E4842.72077
G1 X112.8 Y85.319 E4851.53726
G1 X112.598 Y84.161 E4860.3534
G1 X112.353 Y83.016 E4869.13529
G1 X112.064 Y81.875 E4877.96303
G1 X111.73 Y80.749 E4886.77172
G1 X111.354 Y79.636 E4895.58268
G1 X110.936 Y78.539 E4904.38723
G1 X110.477 Y77.459 E4913.18841
G1 X109.976 Y76.396 E4922.00201
G1 X109.435 Y75.354 E4930.80755
G1 X108.855 Y74.333 E4939.61436
G1 X108.235 Y73.334 E4948.43252
G1 X107.577 Y72.36 E4957.24826
G1 X106.884 Y71.413 E4966.04937
G1 X106.154 Y70.493 E4974.85764
G1 X105.389 Y69.601 E4983.67098
G1 X104.59 Y68.738 E4992.4916
G1 X103.94 Y68.09 E4999.37529
G1 X103.767 Y67.915 E5001.22087
G1 X102.897 Y67.11 E5010.11059
G1 X102.199 Y66.513 E5016.99922
G1 X102.016 Y66.353 E5018.82233
G1 X101.087 Y65.616 E5027.71611
G1 X100.14 Y64.923 E5036.51722
G1 X99.164 Y64.264 E5045.34959
G1 X98.383 Y63.781 E5052.23674
G1 X98.176 Y63.65 E5054.07401
G1 X97.146 Y63.065 E5062.95803
G1 X96.104 Y62.524 E5071.76357
G1 X95.041 Y62.023 E5080.57717
G1 X93.961 Y61.564 E5089.37835
G1 X92.864 Y61.146 E5098.18289
G1 X91.751 Y60.77 E5106.99386
G1 X90.625 Y60.436 E5115.80255
G1 X89.484 Y60.147 E5124.63029
G1 X88.339 Y59.902 E5133.41217
G1 X87.179 Y59.699 E5142.24439
G1 X86.282 Y59.581 E5149.02985
G1 X86.028 Y59.544 E5150.95495
G1 X84.847 Y59.431 E5159.85291
G1 X83.675 Y59.363 E5168.65769
G1 X82.5 Y59.341 E5177.47173
G1 X81.325 Y59.363 E5186.28578
G1 X80.153 Y59.431 E5195.09056
G1 X78.984 Y59.543 E5203.89821
G1 X77.819 Y59.7 E5212.71469
G1 X76.661 Y59.902 E5221.53084
G1 X75.516 Y60.147 E5230.31273
G1 X74.375 Y60.436 E5239.14046
G1 X73.249 Y60.77 E5247.94915
G1 X72.136 Y61.146 E5256.76012
G1 X71.039 Y61.564 E5265.56467
G1 X69.959 Y62.023 E5274.36585
G1 X68.896 Y62.524 E5283.17945
G1 X67.854 Y63.065 E5291.98499
G1 X66.833 Y63.645 E5300.79179
G1 X65.834 Y64.265 E5309.60996
G1 X64.86 Y64.923 E5318.4257
G1 X63.913 Y65.616 E5327.22681
G1 X62.993 Y66.346 E5336.03508
G1 X62.101 Y67.111 E5344.84842
G1 X61.238 Y67.91 E5353.66904
G1 X60.605 Y68.545 E5360.39363
G1 X60.415 Y68.733 E5362.39831
G1 X59.61 Y69.603 E5371.28802
G1 X59.013 Y70.301 E5378.17665
G1 X58.853 Y70.484 E5379.99977
G1 X58.116 Y71.413 E5388.89355
G1 X57.423 Y72.36 E5397.69466
G1 X56.764 Y73.336 E5406.52703
G1 X56.294 Y74.096 E5413.22894
G1 X56.15 Y74.324 E5415.25144
G1 X55.565 Y75.354 E5424.13545
G1 X55.024 Y76.396 E5432.94099
G1 X54.523 Y77.459 E5441.75459
G1 X54.064 Y78.539 E5450.55578
G1 X53.646 Y79.636 E5459.36032
G1 X53.27 Y80.749 E5468.17129
G1 X52.936 Y81.875 E5476.97998
G1 X52.647 Y83.016 E5485.80771
G1 X52.402 Y84.161 E5494.5896
G1 X52.199 Y85.321 E5503.42181
G1 X52.083 Y86.205 E5510.10865
G1 X52.044 Y86.472 E5512.1324
G1 X51.931 Y87.653 E5521.03036
G1 X51.863 Y88.825 E5529.83514
G1 X51.841 Y90 E5538.64918
G1 X51.863 Y91.175 E5547.46323
G1 X51.931 Y92.347 E5556.26801
G1 X52.043 Y93.516 E5565.07566
G1 X52.2 Y94.681 E5573.89214
G1 X52.402 Y95.839 E5582.70829
G1 X52.647 Y96.984 E5591.49018
G1 X52.936 Y98.125 E5600.31791
G1 X53.27 Y99.251 E5609.1266
G1 X53.646 Y100.364 E5617.93757
G1 X54.064 Y101.461 E5626.74211
G1 X54.523 Y102.541 E5635.5433
G1 X55.024 Y103.604 E5644.3569
G1 X55.565 Y104.646 E5653.16244
G1 X56.145 Y105.667 E5661.96924
G1 X56.765 Y106.666 E5670.78741
G1 X57.423 Y107.64 E5679.60315
G1 X58.116 Y108.587 E5688.40425
G1 X58.846 Y109.507 E5697.21252
G1 X59.611 Y110.399 E5706.02587
G1 X60.41 Y111.262 E5714.84649
G1 X61.045 Y111.895 E5721.57108
G1 X61.233 Y112.085 E5723.57576
G1 X62.103 Y112.89 E5732.46547
G1 X62.801 Y113.487 E5739.3541
G1 X62.984 Y113.647 E5741.17722
G1 X63.913 Y114.384 E5750.071
G1 X64.86 Y115.077 E5758.87211
G1 X65.836 Y115.736 E5767.70447
G1 X66.596 Y116.206 E5774.40639
G1 X66.824 Y116.35 E5776.42888
G1 X67.854 Y116.935 E5785.3129
G1 X68.896 Y117.476 E5794.11844
G1 X69.959 Y117.977 E5802.93204
G1 X71.039 Y118.436 E5811.73322
G1 X72.136 Y118.854 E5820.53777
G1 X73.249 Y119.23 E5829.34874
G1 X74.375 Y119.564 E5838.15743
G1 X75.516 Y119.853 E5846.98516
G1 X76.661 Y120.098 E5855.76705
G1 X77.821 Y120.301 E5864.59926
G1 X78.718 Y120.419 E5871.38472
G1 X78.972 Y120.456 E5873.30983
G1 X80.153 Y120.569 E5882.20778
G1 X81.325 Y120.637 E5891.01256
G0 F7200 X81.525 Y120.64
G0 X81.523 Y120.74
G0 X83.648 Y122.172
G0 X83.651 Y122.271
G1 F1800 X82.492 Y122.29 E5894.03797
G1 X82.234 Y122.287
G1 X81.321 Y122.269 E5895.6248
G1 X80.208 Y122.21 E5898.79026
G1 X79.037 Y122.105 E5902.71406
G1 X77.928 Y121.965 E5907.67953
G1 X77.627 Y121.919
G1 X76.77 Y121.778 E5910.23344
G1 X75.633 Y121.552 E5915.35739
G1 X74.526 Y121.291 E5920.80611
G1 X73.402 Y120.983 E5926.62121
G1 X72.31 Y120.641 E5931.95489
G1 X71.2 Y120.249 E5937.06545
G1 X70.156 Y119.838 E5941.45282
G1 X69.085 Y119.372 E5945.60731
G1 X68.049 Y118.876 E5949.26138
G1 X67.014 Y118.334 E5952.61908
G1 X66.027 Y117.773 E5955.27274
G1 X65.04 Y117.163 E5959.85276
G1 X64.089 Y116.528 E5963.33087
G1 X63.141 Y115.845 E5967.35893
G1 X62.243 Y115.147 E5971.64856
G1 X61.359 Y114.407 E5976.81096
G1 X60.49 Y113.626 E5982.06267
G1 X59.667 Y112.833 E5987.08945
G1 X58.874 Y112.01 E5992.67955
G1 X58.093 Y111.141 E5998.0094
G1 X57.353 Y110.257 E6002.86759
G1 X56.655 Y109.359 E6007.17934
G1 X55.972 Y108.411 E6011.21374
G1 X55.337 Y107.46 E6014.71204
G1 X54.727 Y106.473 E6017.86067
G1 X54.166 Y105.486 E6020.63817
G1 X53.624 Y104.451 E6023.99266
G1 X53.128 Y103.415 E6027.63492
G1 X52.662 Y102.344 E6031.76672
G1 X52.249 Y101.294 E6036.16304
G1 X52.15 Y101.019
G1 X51.863 Y100.202 E6038.94871
G1 X51.517 Y99.098 E6044.34731
G1 X51.209 Y97.974 E6050.16023
G1 X50.945 Y96.855 E6055.73281
G1 X50.89 Y96.586
G1 X50.723 Y95.732 E6059.31384
G1 X50.676 Y95.454
G1 X50.54 Y94.611 E6062.85983
G1 X50.394 Y93.455 E6067.12807
G1 X50.29 Y92.292 E6071.0447
G1 X50.229 Y91.151 E6074.42658
G1 X50.21 Y89.992 E6077.45199
G1 X50.213 Y89.734
G1 X50.231 Y88.807 E6079.10855
G1 X50.29 Y87.708 E6082.17618
G1 X50.395 Y86.537 E6086.10435
G1 X50.533 Y85.438 E6090.98296
G1 X50.581 Y85.127
G1 X50.722 Y84.27 E6093.50904
G1 X50.948 Y83.133 E6098.64314
G1 X51.209 Y82.026 E6104.07746
G1 X51.517 Y80.902 E6109.91455
G1 X51.859 Y79.81 E6115.24823
G1 X52.251 Y78.7 E6120.35879
G1 X52.662 Y77.656 E6124.74616
G1 X53.128 Y76.585 E6128.90065
G1 X53.624 Y75.548 E6132.56191
G1 X54.166 Y74.514 E6135.91497
G1 X54.727 Y73.527 E6138.56862
G1 X55.337 Y72.54 E6143.14926
G1 X55.972 Y71.589 E6146.62813
G1 X56.655 Y70.641 E6150.6442
G1 X57.353 Y69.743 E6154.92309
G1 X58.093 Y68.859 E6160.08549
G1 X58.874 Y67.99 E6165.3372
G1 X59.667 Y67.167 E6170.36398
G1 X60.49 Y66.374 E6175.95408
G1 X61.359 Y65.593 E6181.28392
G1 X62.243 Y64.853 E6186.14212
G1 X63.141 Y64.155 E6190.45386
G1 X64.089 Y63.472 E6194.48827
G1 X65.04 Y62.837 E6197.98657
G1 X66.027 Y62.227 E6201.1352
G1 X67.014 Y61.666 E6203.9127
G1 X68.049 Y61.124 E6207.26719
G1 X69.085 Y60.628 E6210.91831
G1 X70.156 Y60.162 E6215.0728
G1 X71.206 Y59.749 E6219.45635
G1 X71.481 Y59.65
G1 X72.298 Y59.363 E6222.24037
G1 X73.402 Y59.017 E6227.63897
G1 X74.526 Y58.709 E6233.45188
G1 X75.645 Y58.445 E6239.02447
G1 X76.768 Y58.223 E6244.129
G1 X77.046 Y58.176
G1 X77.889 Y58.04 E6247.67499
G1 X79.045 Y57.894 E6251.94323
G1 X80.208 Y57.79 E6255.85986
G1 X81.349 Y57.729 E6259.24175
G1 X82.508 Y57.71 E6262.26715
G1 X82.766 Y57.713
G1 X83.679 Y57.731 E6263.85398
G1 X84.792 Y57.79 E6267.02406
G1 X85.963 Y57.895 E6270.95223
G1 X87.072 Y58.035 E6275.9177
G1 X87.373 Y58.081
G1 X88.23 Y58.222 E6278.47161
G1 X89.367 Y58.448 E6283.59556
G1 X90.474 Y58.709 E6289.04428
G1 X91.598 Y59.017 E6294.91185
G1 X92.69 Y59.359 E6300.24553
G1 X93.8 Y59.751 E6305.35609
G1 X94.844 Y60.162 E6309.74346
G1 X95.915 Y60.628 E6313.89795
G1 X96.951 Y61.124 E6317.55202
G1 X97.986 Y61.666 E6320.90972
G1 X98.973 Y62.227 E6323.56338
G1 X99.96 Y62.837 E6328.0177
G1 X100.911 Y63.472 E6331.49657
G1 X101.859 Y64.155 E6335.52463
G1 X102.757 Y64.853 E6339.81426
G1 X103.641 Y65.593 E6344.97666
G1 X104.51 Y66.374 E6350.26751
G1 X105.333 Y67.167 E6355.39127
G1 X106.126 Y67.99 E6360.98362
G1 X106.907 Y68.859 E6366.31346
G1 X107.647 Y69.743 E6371.17166
G1 X108.345 Y70.641 E6375.4834
G1 X109.028 Y71.589 E6379.51781
G1 X109.663 Y72.54 E6383.0161
G1 X110.273 Y73.527 E6386.16474
G1 X110.834 Y74.514 E6388.94223
G1 X111.376 Y75.548 E6392.2953
G1 X111.872 Y76.585 E6395.94769
G1 X112.338 Y77.656 E6400.09393
G1 X112.751 Y78.706 E6404.50302
G1 X112.845 Y78.966
G1 X113.137 Y79.798 E6407.41122
G1 X113.483 Y80.902 E6412.76836
G1 X113.791 Y82.026 E6418.59899
G1 X114.055 Y83.145 E6424.17158
G1 X114.277 Y84.268 E6429.27611
G1 X114.324 Y84.546
G1 X114.458 Y85.375 E6432.61636
G1 X114.497 Y85.668
G1 X114.606 Y86.545 E6436.20672
G1 X114.71 Y87.708 E6440.12334
G1 X114.771 Y88.849 E6443.50523
G1 X114.79 Y90.008 E6446.53063
G1 X114.787 Y90.266
G1 X114.769 Y91.175 E6448.09754
G1 X114.71 Y92.292 E6451.29299
G1 X114.605 Y93.463 E6455.2277
G1 X114.467 Y94.562 E6460.11406
G1 X114.419 Y94.873
G1 X114.278 Y95.73 E6462.64014
G1 X114.052 Y96.867 E6467.77425
G1 X113.791 Y97.974 E6473.25365
G1 X113.483 Y99.098 E6479.06874
G1 X113.141 Y100.19 E6484.40243
G1 X112.749 Y101.3 E6489.51298
G1 X112.338 Y102.344 E6493.90035
G1 X111.872 Y103.415 E6498.05484
G1 X111.376 Y104.451 E6501.70891
G1 X110.834 Y105.486 E6505.06662
G1 X110.273 Y106.473 E6507.72027
G1 X109.663 Y107.46 E6512.30091
G1 X109.028 Y108.411 E6515.77978
G1 X108.345 Y109.359 E6519.79585
G1 X107.647 Y110.257 E6524.07474
G1 X106.907 Y111.141 E6529.23714
G1 X106.126 Y112.01 E6534.48885
G1 X105.333 Y112.833 E6539.51563
G1 X104.51 Y113.626 E6545.10573
G1 X103.641 Y114.407 E6550.43557
G1 X102.757 Y115.147 E6555.29377
G1 X101.859 Y115.845 E6559.60551
G1 X100.911 Y116.528 E6563.63992
G1 X99.96 Y117.163 E6567.13822
G1 X98.973 Y117.773 E6570.28685
G1 X97.986 Y118.334 E6573.06435
G1 X96.951 Y118.876 E6576.41884
G1 X95.915 Y119.372 E6580.06996
G1 X94.844 Y119.838 E6584.22445
G1 X93.794 Y120.251 E6588.63354
G1 X93.519 Y120.35
G1 X92.702 Y120.637 E6591.41921
G1 X91.598 Y120.983 E6596.81781
G1 X90.474 Y121.291 E6602.63072
G1 X89.355 Y121.555 E6608.20331
G1 X88.232 Y121.777 E6613.30784
G1 X87.954 Y121.824
G1 X87.111 Y121.96 E6616.75502
G1 X85.955 Y122.106 E6621.02327
G1 X84.792 Y122.21 E6624.9399
G1 X83.651 Y122.271 E6628.32178
G0 F7200 X83.451 Y122.274
;MESH:NONMESH
G0 F600 X83.451 Y122.274 Z7.8
G0 F7200 X83.451 Y122.174
G0 X81.27 Y122.095
;TIME_ELAPSED:43.541370
;LAYER:5
;TYPE:WALL-OUTER
;MESH:Vaza_zakljucna.STL
G1 F1800 X82.5 Y122.118 E6637.5484
G1 X83.735 Y122.095 E6646.8125
G1 X84.152 Y122.069 E6649.94608
G1 X84.956 Y122.025 E6655.9851
G1 X86.185 Y121.907 E6665.24499
G1 X87.404 Y121.742 E6674.47086
G1 X88.616 Y121.531 E6683.69758
G1 X89.818 Y121.274 E6692.91634
G1 X91.011 Y120.971 E6702.14791
G1 X92.192 Y120.622 E6711.38407
G1 X93.357 Y120.228 E6720.60773
G1 X94.508 Y119.79 E6729.84414
G1 X95.639 Y119.309 E6739.06189
G1 X96.753 Y118.784 E6748.29823
G1 X97.844 Y118.217 E6757.51978
G1 X98.913 Y117.609 E6766.74334
G1 X99.959 Y116.96 E6775.9757
G1 X100.979 Y116.271 E6785.20747
G1 X101.971 Y115.544 E6794.43153
G1 X102.939 Y114.776 E6803.69896
G1 X103.868 Y113.98 E6812.87431
G1 X104.776 Y113.139 E6822.15658
G1 X105.071 Y112.841 E6825.30148
G1 X105.641 Y112.274 E6831.33135
G1 X106.479 Y111.37 E6840.57633
G1 X107.28 Y110.435 E6849.81025
G1 X108.044 Y109.471 E6859.03553
G1 X108.771 Y108.479 E6868.25959
G1 X109.46 Y107.459 E6877.49136
G1 X110.109 Y106.413 E6886.72373
G1 X110.717 Y105.344 E6895.94728
G1 X111.284 Y104.253 E6905.16883
G1 X111.809 Y103.139 E6914.40517
G1 X112.29 Y102.008 E6923.62292
G1 X112.728 Y100.857 E6932.85933
G1 X113.122 Y99.692 E6942.08299
G1 X113.471 Y98.511 E6951.31915
G1 X113.774 Y97.318 E6960.55073
G1 X114.031 Y96.116 E6969.76948
G1 X114.242 Y94.904 E6978.99621
G1 X114.408 Y93.679 E6988.26768
G1 X114.446 Y93.263 E6991.40067
G1 X114.525 Y92.461 E6997.44478
G1 X114.595 Y91.23 E7006.69219
G1 X114.618 Y90 E7015.91881
G1 X114.595 Y88.765 E7025.18291
G1 X114.568 Y88.333 E7028.42923
G1 X114.525 Y87.544 E7034.35552
G1 X114.407 Y86.315 E7043.6154
G1 X114.242 Y85.096 E7052.84128
G1 X114.031 Y83.884 E7062.068
G1 X113.774 Y82.682 E7071.28675
G1 X113.471 Y81.489 E7080.51833
G1 X113.122 Y80.308 E7089.75449
G1 X112.728 Y79.143 E7098.97815
G1 X112.29 Y77.992 E7108.21456
G1 X111.809 Y76.861 E7117.43231
G1 X111.284 Y75.747 E7126.66865
G1 X110.717 Y74.656 E7135.8902
G1 X110.109 Y73.587 E7145.11375
G1 X109.46 Y72.541 E7154.34612
G1 X108.771 Y71.521 E7163.57789
G1 X108.044 Y70.529 E7172.80195
G1 X107.276 Y69.561 E7182.06938
G1 X106.48 Y68.632 E7191.24472
G1 X105.639 Y67.724 E7200.527
G1 X105.331 Y67.419 E7203.77796
G1 X104.774 Y66.859 E7209.70177
G1 X103.87 Y66.021 E7218.94675
G1 X102.935 Y65.22 E7228.18066
G1 X101.971 Y64.456 E7237.40595
G1 X100.979 Y63.729 E7246.63001
G1 X99.959 Y63.04 E7255.86178
G1 X98.913 Y62.391 E7265.09414
G1 X97.844 Y61.783 E7274.3177
G1 X96.753 Y61.216 E7283.53925
G1 X95.639 Y60.691 E7292.77559
G1 X94.508 Y60.21 E7301.99333
G1 X93.357 Y59.772 E7311.22975
G1 X92.192 Y59.378 E7320.45341
G1 X91.011 Y59.029 E7329.68956
G1 X89.818 Y58.726 E7338.92114
G1 X88.616 Y58.469 E7348.1399
G1 X87.404 Y58.258 E7357.36662
G1 X86.179 Y58.092 E7366.63809
G1 X85.763 Y58.054 E7369.77108
G1 X84.961 Y57.975 E7375.81519
G1 X83.73 Y57.905 E7385.06261
G1 X82.5 Y57.882 E7394.28922
G1 X81.265 Y57.905 E7403.55333
G1 X80.848 Y57.931 E7406.6869
G1 X80.044 Y57.975 E7412.72592
G1 X78.815 Y58.093 E7421.98581
G1 X77.596 Y58.258 E7431.21168
G1 X76.384 Y58.469 E7440.43841
G1 X75.182 Y58.726 E7449.65716
G1 X73.989 Y59.029 E7458.88874
G1 X72.808 Y59.378 E7468.1249
G1 X71.643 Y59.772 E7477.34856
G1 X70.492 Y60.21 E7486.58497
G1 X69.361 Y60.691 E7495.80272
G1 X68.247 Y61.216 E7505.03905
G1 X67.156 Y61.783 E7514.26061
G1 X66.087 Y62.391 E7523.48416
G1 X65.041 Y63.04 E7532.71653
G1 X64.021 Y63.729 E7541.9483
G1 X63.029 Y64.456 E7551.17236
G1 X62.061 Y65.224 E7560.43979
G1 X61.132 Y66.02 E7569.61513
G1 X60.224 Y66.861 E7578.89741
G1 X59.929 Y67.159 E7582.04231
G1 X59.359 Y67.726 E7588.07218
G1 X58.521 Y68.63 E7597.31716
G1 X57.72 Y69.565 E7606.55107
G1 X56.956 Y70.529 E7615.77635
G1 X56.229 Y71.521 E7625.00042
G1 X55.54 Y72.541 E7634.23219
G1 X54.891 Y73.587 E7643.46455
G1 X54.283 Y74.656 E7652.68811
G1 X53.716 Y75.747 E7661.90966
G1 X53.191 Y76.861 E7671.146
G1 X52.71 Y77.992 E7680.36374
G1 X52.272 Y79.143 E7689.60015
G1 X51.878 Y80.308 E7698.82382
G1 X51.529 Y81.489 E7708.05997
G1 X51.226 Y82.682 E7717.29155
G1 X50.969 Y83.884 E7726.51031
G1 X50.758 Y85.096 E7735.73703
G1 X50.592 Y86.321 E7745.0085
G1 X50.554 Y86.737 E7748.14149
G1 X50.475 Y87.539 E7754.1856
G1 X50.405 Y88.77 E7763.43302
G1 X50.382 Y90 E7772.65963
G1 X50.405 Y91.235 E7781.92374
G1 X50.431 Y91.652 E7785.05731
G1 X50.475 Y92.456 E7791.09633
G1 X50.593 Y93.685 E7800.35622
G1 X50.758 Y94.904 E7809.58209
G1 X50.969 Y96.116 E7818.80882
G1 X51.226 Y97.318 E7828.02757
G1 X51.529 Y98.511 E7837.25915
G1 X51.878 Y99.692 E7846.49531
G1 X52.272 Y100.857 E7855.71897
G1 X52.71 Y102.008 E7864.95538
G1 X53.191 Y103.139 E7874.17313
G1 X53.716 Y104.253 E7883.40946
G1 X54.283 Y105.344 E7892.63102
G1 X54.891 Y106.413 E7901.85457
G1 X55.54 Y107.459 E7911.08694
G1 X56.229 Y108.479 E7920.31871
G1 X56.956 Y109.471 E7929.54277
G1 X57.724 Y110.439 E7938.8102
G1 X58.52 Y111.368 E7947.98554
G1 X59.361 Y112.276 E7957.26782
G1 X59.659 Y112.571 E7960.41272
G1 X60.226 Y113.141 E7966.44259
G1 X61.13 Y113.979 E7975.68757
G1 X62.065 Y114.78 E7984.92148
G1 X63.029 Y115.544 E7994.14676
G1 X64.021 Y116.271 E8003.37083
G1 X65.041 Y116.96 E8012.6026
G1 X66.087 Y117.609 E8021.83496
G1 X67.156 Y118.217 E8031.05851
G1 X68.247 Y118.784 E8040.28007
G1 X69.361 Y119.309 E8049.51641
G1 X70.492 Y119.79 E8058.73415
G1 X71.643 Y120.228 E8067.97056
G1 X72.808 Y120.622 E8077.19423
G1 X73.989 Y120.971 E8086.43038
G1 X75.182 Y121.274 E8095.66196
G1 X76.384 Y121.531 E8104.88072
G1 X77.596 Y121.742 E8114.10744
G1 X78.821 Y121.908 E8123.37891
G1 X79.237 Y121.946 E8126.5119
G1 X80.039 Y122.025 E8132.55601
G1 X81.27 Y122.095 E8141.80343
G0 F7200 X81.47 Y122.098
G0 X81.468 Y122.198
G0 X83.709 Y123.161
G0 X83.712 Y123.26
G1 F1800 X82.488 Y123.281 E8144.13076
G1 X82.148 Y123.277
G1 X81.287 Y123.26 E8144.61018
G1 X80.137 Y123.199 E8147.08388
G1 X78.955 Y123.093 E8150.26408
G1 X77.762 Y122.944 E8154.04567
G1 X76.578 Y122.751 E8158.3053
G1 X75.429 Y122.523 E8162.90493
G1 X74.26 Y122.246 E8168.10123
G1 X73.127 Y121.936 E8173.42943
G1 X72.008 Y121.585 E8178.37533
G1 X70.848 Y121.176 E8183.15427
G1 X69.76 Y120.748 E8187.20613
G1 X68.673 Y120.275 E8190.75847
G1 X67.615 Y119.769 E8193.67617
G1 X66.551 Y119.211 E8196.21557
G1 X65.508 Y118.617 E8198.3316
G1 X64.503 Y117.995 E8200.61115
G1 X63.516 Y117.337 E8203.43364
G1 X62.544 Y116.636 E8206.78454
G1 X61.615 Y115.914 E8210.56181
G1 X60.706 Y115.154 E8214.90344
G1 X59.827 Y114.365 E8219.72706
G1 X58.966 Y113.534 E8225.12597
G1 X58.135 Y112.673 E8229.5306
G1 X57.346 Y111.794 E8234.44222
G1 X56.586 Y110.885 E8238.86388
G1 X55.864 Y109.956 E8242.66038
G1 X55.163 Y108.984 E8246.04069
G1 X54.499 Y107.989 E8248.95003
G1 X53.882 Y106.99 E8251.23204
G1 X53.289 Y105.949 E8253.33266
G1 X52.731 Y104.885 E8255.86784
G1 X52.225 Y103.827 E8258.78169
G1 X51.758 Y102.751 E8262.28532
G1 X51.305 Y101.599 E8266.49065
G1 X51.192 Y101.285
G1 X50.926 Y100.524 E8268.26083
G1 X50.564 Y99.373 E8273.46777
G1 X50.254 Y98.24 E8278.88186
G1 X49.977 Y97.071 E8284.19663
G1 X49.749 Y95.922 E8288.85357
G1 X49.556 Y94.738 E8293.1132
G1 X49.407 Y93.545 E8296.94683
G1 X49.301 Y92.363 E8300.20509
G1 X49.24 Y91.212 E8304.43172
G1 X49.219 Y89.988 E8306.75905
G1 X49.223 Y89.648
G1 X49.24 Y88.787 E8307.23847
G1 X49.301 Y87.637 E8309.72182
G1 X49.407 Y86.455 E8312.91099
G1 X49.556 Y85.262 E8316.67884
G1 X49.749 Y84.078 E8320.86946
G1 X49.977 Y82.929 E8325.49003
G1 X50.254 Y81.76 E8330.8048
G1 X50.564 Y80.627 E8336.13299
G1 X50.915 Y79.508 E8341.0789
G1 X51.328 Y78.338 E8345.94122
G1 X51.752 Y77.26 E8349.97274
G1 X52.225 Y76.173 E8353.52508
G1 X52.731 Y75.115 E8356.44278
G1 X53.289 Y74.051 E8358.98218
G1 X53.883 Y73.008 E8361.09821
G1 X54.505 Y72.003 E8363.37777
G1 X55.163 Y71.016 E8366.20025
G1 X55.864 Y70.044 E8369.55115
G1 X56.586 Y69.115 E8373.29395
G1 X57.346 Y68.206 E8377.65289
G1 X58.135 Y67.327 E8382.51917
G1 X58.966 Y66.466 E8387.91807
G1 X59.827 Y65.635 E8392.32271
G1 X60.706 Y64.846 E8397.23432
G1 X61.615 Y64.086 E8401.65599
G1 X62.544 Y63.364 E8405.45249
G1 X63.516 Y62.663 E8408.8328
G1 X64.511 Y61.999 E8411.74214
G1 X65.51 Y61.382 E8414.02414
G1 X66.551 Y60.789 E8416.12476
G1 X67.615 Y60.231 E8418.66416
G1 X68.673 Y59.725 E8421.56725
G1 X69.749 Y59.258 E8425.0861
G1 X70.875 Y58.815 E8429.27823
G1 X71.215 Y58.692
G1 X71.976 Y58.426 E8430.99366
G1 X73.127 Y58.064 E8436.08651
G1 X74.26 Y57.754 E8441.42214
G1 X75.429 Y57.477 E8446.73691
G1 X76.578 Y57.249 E8451.39386
G1 X77.762 Y57.056 E8455.65348
G1 X78.955 Y56.907 E8459.48711
G1 X80.137 Y56.801 E8462.74537
G1 X81.288 Y56.74 E8466.87245
G1 X82.512 Y56.719 E8469.19978
G1 X82.852 Y56.723
G1 X83.713 Y56.74 E8469.67921
G1 X84.863 Y56.801 E8472.16255
G1 X86.045 Y56.907 E8475.35172
G1 X87.238 Y57.056 E8479.11957
G1 X88.422 Y57.249 E8483.35159
G1 X89.571 Y57.477 E8488.00854
G1 X90.74 Y57.754 E8493.2566
G1 X91.873 Y58.064 E8498.66932
G1 X92.992 Y58.415 E8503.61522
G1 X94.152 Y58.824 E8508.39417
G1 X95.24 Y59.252 E8512.44602
G1 X96.327 Y59.725 E8515.99837
G1 X97.385 Y60.231 E8518.91607
G1 X98.449 Y60.789 E8521.45547
G1 X99.492 Y61.383 E8523.5715
G1 X100.497 Y62.005 E8525.85105
G1 X101.484 Y62.663 E8528.67353
G1 X102.456 Y63.364 E8532.04428
G1 X103.385 Y64.086 E8535.83946
G1 X104.294 Y64.846 E8540.22945
G1 X105.173 Y65.635 E8545.09572
G1 X106.034 Y66.466 E8550.50116
G1 X106.865 Y67.327 E8554.87474
G1 X107.654 Y68.206 E8559.78635
G1 X108.414 Y69.115 E8564.20802
G1 X109.136 Y70.044 E8568.00452
G1 X109.837 Y71.016 E8571.38483
G1 X110.501 Y72.011 E8574.29417
G1 X111.118 Y73.01 E8576.57618
G1 X111.711 Y74.051 E8578.67679
G1 X112.269 Y75.115 E8581.21619
G1 X112.775 Y76.173 E8584.11928
G1 X113.242 Y77.249 E8587.60976
G1 X113.685 Y78.375 E8591.7367
G1 X113.808 Y78.715
G1 X114.074 Y79.476 E8593.50689
G1 X114.436 Y80.627 E8598.71382
G1 X114.746 Y81.76 E8604.04946
G1 X115.023 Y82.929 E8609.36423
G1 X115.251 Y84.078 E8614.02118
G1 X115.444 Y85.262 E8618.2808
G1 X115.593 Y86.455 E8622.11443
G1 X115.699 Y87.637 E8625.37269
G1 X115.76 Y88.788 E8629.55235
G1 X115.781 Y90.012 E8631.87968
G1 X115.777 Y90.352
G1 X115.76 Y91.213 E8632.35911
G1 X115.699 Y92.363 E8634.83281
G1 X115.593 Y93.545 E8638.01301
G1 X115.444 Y94.738 E8641.7946
G1 X115.251 Y95.922 E8646.05422
G1 X115.023 Y97.071 E8650.65386
G1 X114.746 Y98.24 E8655.91686
G1 X114.436 Y99.373 E8661.32958
G1 X114.085 Y100.492 E8666.27548
G1 X113.676 Y101.652 E8671.05443
G1 X113.248 Y102.74 E8675.10628
G1 X112.775 Y103.827 E8678.65862
G1 X112.269 Y104.885 E8681.57632
G1 X111.711 Y105.949 E8684.11572
G1 X111.117 Y106.992 E8686.23175
G1 X110.495 Y107.997 E8688.50873
G1 X109.837 Y108.984 E8691.33914
G1 X109.136 Y109.956 E8694.71945
G1 X108.414 Y110.885 E8698.51462
G1 X107.654 Y111.794 E8702.90461
G1 X106.865 Y112.673 E8707.83302
G1 X106.034 Y113.534 E8713.287
G1 X105.173 Y114.365 E8717.69163
G1 X104.294 Y115.154 E8722.60325
G1 X103.385 Y115.914 E8727.02492
G1 X102.456 Y116.636 E8730.82142
G1 X101.484 Y117.337 E8734.20173
G1 X100.489 Y118.001 E8737.11107
G1 X99.49 Y118.618 E8739.39307
G1 X98.449 Y119.211 E8741.49369
G1 X97.385 Y119.769 E8744.03309
G1 X96.327 Y120.275 E8746.95079
G1 X95.251 Y120.742 E8750.45441
G1 X94.125 Y121.185 E8754.62008
G1 X93.785 Y121.308
G1 X93.024 Y121.574 E8756.33552
G1 X91.873 Y121.936 E8761.42836
G1 X90.74 Y122.246 E8766.76399
G1 X89.571 Y122.523 E8772.07876
G1 X88.422 Y122.751 E8776.73571
G1 X87.238 Y122.944 E8780.99533
G1 X86.045 Y123.093 E8784.82897
G1 X84.863 Y123.199 E8788.08722
G1 X83.712 Y123.26 E8792.31385
G0 F7200 X83.512 Y123.263
;MESH:NONMESH
G0 F600 X83.512 Y123.263 Z9.3
G0 F7200 X83.512 Y123.163
G0 X81.231 Y123.158
G0 X81.225 Y123.269
;TIME_ELAPSED:57.622711
;LAYER:6
;TYPE:WALL-OUTER
;MESH:Vaza_zakljucna.STL
G1 F1800 X82.504 Y123.293 E8801.90804
G1 X82.996 Y123.282 E8805.59897
G1 X83.773 Y123.269 E8811.42728
G1 X85.05 Y123.195 E8821.02085
G1 X86.322 Y123.073 E8830.60463
G1 X86.823 Y123.003 E8834.39863
G1 X87.58 Y122.904 E8840.12447
G1 X88.84 Y122.684 E8849.71744
G1 X90.087 Y122.417 E8859.28192
G1 X91.322 Y122.102 E8868.84096
G1 X92.546 Y121.741 E8878.4119
G1 X93.754 Y121.333 E8887.97471
G1 X94.946 Y120.879 E8897.54119
G1 X96.124 Y120.378 E8907.14203
G1 X96.568 Y120.167 E8910.82892
G1 X97.271 Y119.837 E8916.65343
G1 X98.405 Y119.249 E8926.23378
G1 X99.514 Y118.617 E8935.8071
G1 X100.597 Y117.945 E8945.36621
G1 X101.654 Y117.231 E8954.93289
G1 X102.682 Y116.478 E8964.49
G1 X103.683 Y115.685 E8974.06785
G1 X104.65 Y114.855 E8983.62554
G1 X105.589 Y113.987 E8993.216
G1 X105.938 Y113.635 E8996.93365
G1 X106.488 Y113.088 E9002.75139
G1 X107.355 Y112.15 E9012.33125
G1 X108.185 Y111.183 E9021.88894
G1 X108.978 Y110.182 E9031.46679
G1 X109.731 Y109.154 E9041.0239
G1 X110.445 Y108.097 E9050.59058
G1 X111.117 Y107.014 E9060.14969
G1 X111.751 Y105.901 E9069.7565
G1 X111.976 Y105.463 E9073.44958
G1 X112.337 Y104.772 E9079.29671
G1 X112.547 Y104.322 E9083.02112
G1 X112.879 Y103.622 E9088.83168
G1 X113.379 Y102.446 E9098.41578
G1 X113.833 Y101.254 E9107.98226
G1 X114.241 Y100.046 E9117.54506
G1 X114.603 Y98.818 E9127.1469
G1 X114.726 Y98.327 E9130.94319
G1 X114.916 Y97.59 E9136.65142
G1 X115.184 Y96.336 E9146.26881
G1 X115.403 Y95.085 E9155.79399
G1 X115.573 Y93.818 E9165.38165
G1 X115.695 Y92.55 E9174.93556
G1 X115.769 Y91.275 E9184.51415
G1 X115.793 Y89.996 E9194.10834
G1 X115.782 Y89.504 E9197.79927
G1 X115.769 Y88.727 E9203.62758
G1 X115.695 Y87.45 E9213.22115
G1 X115.573 Y86.178 E9222.80493
G1 X115.503 Y85.677 E9226.59893
G1 X115.404 Y84.92 E9232.32477
G1 X115.184 Y83.66 E9241.91774
G1 X114.917 Y82.413 E9251.48222
G1 X114.602 Y81.178 E9261.04126
G1 X114.241 Y79.954 E9270.61221
G1 X113.833 Y78.746 E9280.17501
G1 X113.379 Y77.554 E9289.74149
G1 X112.878 Y76.376 E9299.34233
G1 X112.337 Y75.229 E9308.85371
G1 X111.749 Y74.095 E9318.43406
G1 X111.117 Y72.986 E9328.00737
G1 X110.445 Y71.903 E9337.56649
G1 X109.731 Y70.846 E9347.13316
G1 X108.978 Y69.818 E9356.69027
G1 X108.185 Y68.817 E9366.26813
G1 X107.355 Y67.85 E9375.82581
G1 X106.487 Y66.911 E9385.41627
G1 X106.126 Y66.553 E9389.22938
G1 X105.588 Y66.012 E9394.95166
G1 X104.65 Y65.145 E9404.53152
G1 X103.683 Y64.315 E9414.08921
G1 X102.682 Y63.522 E9423.66707
G1 X101.654 Y62.769 E9433.22418
G1 X100.597 Y62.055 E9442.79085
G1 X99.514 Y61.383 E9452.34996
G1 X98.401 Y60.749 E9461.95677
G1 X97.95 Y60.517 E9465.76057
G1 X97.272 Y60.163 E9471.49697
G1 X96.809 Y59.947 E9475.32877
G1 X96.122 Y59.621 E9481.03195
G1 X94.946 Y59.121 E9490.61604
G1 X93.754 Y58.667 E9500.18253
G1 X92.546 Y58.259 E9509.74533
G1 X91.318 Y57.897 E9519.34717
G1 X90.827 Y57.774 E9523.14346
G1 X90.09 Y57.584 E9528.85169
G1 X88.836 Y57.316 E9538.46908
G1 X87.585 Y57.097 E9547.99426
G1 X86.318 Y56.927 E9557.58191
G1 X85.05 Y56.805 E9567.13583
G1 X83.775 Y56.731 E9576.71442
G1 X82.496 Y56.707 E9586.30861
G1 X82.004 Y56.718 E9589.99953
G1 X81.227 Y56.731 E9595.82785
G1 X79.95 Y56.805 E9605.42142
G1 X78.678 Y56.927 E9615.0052
G1 X78.177 Y56.997 E9618.7992
G1 X77.42 Y57.096 E9624.52504
G1 X76.16 Y57.316 E9634.11801
G1 X74.913 Y57.583 E9643.68249
G1 X73.678 Y57.898 E9653.24153
G1 X72.454 Y58.259 E9662.81247
G1 X71.246 Y58.667 E9672.37528
G1 X70.054 Y59.121 E9681.94176
G1 X68.876 Y59.622 E9691.5426
G1 X68.432 Y59.833 E9695.22949
G1 X67.729 Y60.163 E9701.054
G1 X66.595 Y60.751 E9710.63435
G1 X65.486 Y61.383 E9720.20767
G1 X64.403 Y62.055 E9729.76678
G1 X63.346 Y62.769 E9739.33345
G1 X62.318 Y63.522 E9748.89056
G1 X61.317 Y64.315 E9758.46842
G1 X60.35 Y65.145 E9768.02611
G1 X59.411 Y66.013 E9777.61657
G1 X59.062 Y66.365 E9781.33421
G1 X58.512 Y66.912 E9787.15196
G1 X57.645 Y67.85 E9796.73182
G1 X56.815 Y68.817 E9806.2895
G1 X56.022 Y69.818 E9815.86736
G1 X55.269 Y70.846 E9825.42447
G1 X54.555 Y71.903 E9834.99115
G1 X53.883 Y72.986 E9844.55026
G1 X53.249 Y74.099 E9854.15707
G1 X53.024 Y74.537 E9857.85015
G1 X52.663 Y75.228 E9863.69728
G1 X52.453 Y75.678 E9867.42169
G1 X52.121 Y76.378 E9873.23225
G1 X51.621 Y77.554 E9882.81634
G1 X51.167 Y78.746 E9892.38283
G1 X50.759 Y79.954 E9901.94563
G1 X50.397 Y81.182 E9911.54747
G1 X50.274 Y81.673 E9915.34376
G1 X50.084 Y82.41 E9921.05199
G1 X49.816 Y83.664 E9930.66938
G1 X49.597 Y84.915 E9940.19456
G1 X49.427 Y86.182 E9949.78221
G1 X49.305 Y87.45 E9959.33613
G1 X49.231 Y88.725 E9968.91472
G1 X49.207 Y90.004 E9978.50891
G1 X49.218 Y90.496 E9982.19983
G1 X49.231 Y91.273 E9988.02815
G1 X49.305 Y92.55 E9997.62172
G1 X49.427 Y93.822 E10007.2055
G92 E0
G1 X49.497 Y94.323 E3.794
G1 X49.596 Y95.08 E9.51985
G1 X49.816 Y96.34 E19.11281
G1 X50.083 Y97.587 E28.67729
G1 X50.398 Y98.822 E38.23633
G1 X50.759 Y100.046 E47.80728
G1 X51.167 Y101.254 E57.37008
G1 X51.621 Y102.446 E66.93656
G1 X52.122 Y103.624 E76.5374
G1 X52.333 Y104.068 E80.2243
G1 X52.663 Y104.771 E86.0488
G1 X53.251 Y105.905 E95.62915
G1 X53.883 Y107.014 E105.20247
G1 X54.555 Y108.097 E114.76158
G1 X55.269 Y109.154 E124.32826
G1 X56.022 Y110.182 E133.88537
G1 X56.815 Y111.183 E143.46322
G1 X57.645 Y112.15 E153.02091
G1 X58.513 Y113.089 E162.61137
G1 X58.865 Y113.438 E166.32902
G1 X59.412 Y113.988 E172.14676
G1 X60.35 Y114.855 E181.72662
G1 X61.317 Y115.685 E191.28431
G1 X62.318 Y116.478 E200.86216
G1 X63.346 Y117.231 E210.41927
G1 X64.403 Y117.945 E219.98595
G1 X65.486 Y118.617 E229.54506
G1 X66.599 Y119.251 E239.15187
G1 X67.05 Y119.483 E242.95567
G1 X67.728 Y119.837 E248.69207
G1 X68.178 Y120.047 E252.41648
G1 X68.878 Y120.379 E258.22704
G1 X70.054 Y120.879 E267.81114
G1 X71.246 Y121.333 E277.37762
G1 X72.454 Y121.741 E286.94042
G1 X73.682 Y122.103 E296.54226
G1 X74.173 Y122.226 E300.33855
G1 X74.91 Y122.416 E306.04678
G1 X76.164 Y122.684 E315.66417
G1 X77.415 Y122.903 E325.18935
G1 X78.682 Y123.073 E334.77701
G1 X79.95 Y123.195 E344.33092
G1 X81.225 Y123.269 E353.90952
G0 F7200 X81.425 Y123.272
G0 X81.423 Y123.372
G0 X83.104 Y124.023
G0 X83.105 Y124.122
G1 F1800 X82.5 Y124.131
G1 X81.897 Y124.122 E354.64882
G1 X81.257 Y124.109
G1 X80.079 Y124.046 E356.62387
G1 X78.838 Y123.935 E359.4841
G1 X77.661 Y123.787 E362.64004
G1 X76.437 Y123.589 E366.69729
G1 X75.244 Y123.351 E371.18697
G1 X74.065 Y123.073 E376.21884
G1 X72.875 Y122.746 E380.1785
G1 X71.736 Y122.39 E384.95932
G1 X70.557 Y121.974 E389.43446
G1 X69.439 Y121.534 E393.15201
G1 X68.334 Y121.053 E396.18894
G1 X67.224 Y120.522 E400.03429
G1 X66.123 Y119.946 E403.89615
G1 X65.085 Y119.355 E405.13055
G1 X64.062 Y118.724 E406.94008
G1 X63.028 Y118.033 E409.45962
G1 X62.041 Y117.321 E412.37149
G1 X61.084 Y116.576 E415.8188
G1 X60.159 Y115.804 E419.8946
G1 X59.238 Y114.976 E424.63653
G1 X58.365 Y114.135 E429.72466
G1 X57.524 Y113.262 E433.6053
G1 X56.696 Y112.341 E438.43662
G1 X55.924 Y111.416 E442.55966
G1 X55.179 Y110.459 E446.06024
G1 X54.467 Y109.472 E448.98713
G1 X53.776 Y108.438 E451.52306
G1 X53.145 Y107.415 E453.3326
G1 X52.554 Y106.377 E454.58167
G1 X51.978 Y105.276 E456.7506
G1 X51.447 Y104.166 E459.7533
G1 X50.966 Y103.061 E462.77714
G1 X50.526 Y101.943 E466.4947
G1 X50.1 Y100.736 E470.92743
G1 X49.754 Y99.625 E475.3228
G1 X49.424 Y98.421 E480.71661
G1 X49.285 Y97.842
G1 X49.15 Y97.266 E481.24337
G1 X48.912 Y96.066 E485.74472
G1 X48.811 Y95.454
G1 X48.717 Y94.865 E487.85494
G1 X48.565 Y93.659 E491.62541
G1 X48.454 Y92.421 E494.52231
G1 X48.391 Y91.243 E496.49978
G1 X48.378 Y90.605 E496.87377
G1 X48.369 Y89.996
G1 X48.378 Y89.397 E497.46603
G1 X48.391 Y88.757
G1 X48.454 Y87.579 E499.45596
G1 X48.565 Y86.338 E502.35596
G1 X48.713 Y85.161 E505.58578
G1 X48.911 Y83.937 E509.6258
G1 X49.149 Y82.744 E514.05743
G1 X49.427 Y81.565 E519.0893
G1 X49.754 Y80.375 E523.04896
G1 X50.11 Y79.236 E527.82978
G1 X50.526 Y78.057 E532.30492
G1 X50.966 Y76.939 E536.02247
G1 X51.447 Y75.834 E539.0594
G1 X51.978 Y74.724 E543.01943
G1 X52.554 Y73.623 E547.07186
G1 X53.145 Y72.585 E548.30626
G1 X53.776 Y71.562 E550.11579
G1 X54.467 Y70.528 E552.63533
G1 X55.179 Y69.541 E555.5472
G1 X55.924 Y68.584 E559.04777
G1 X56.696 Y67.659 E563.09571
G1 X57.524 Y66.738 E567.85763
G1 X58.365 Y65.865 E573.02294
G1 X59.238 Y65.024 E576.90358
G1 X60.159 Y64.196 E581.7349
G1 X61.084 Y63.424 E585.85794
G1 X62.041 Y62.679 E589.35851
G1 X63.028 Y61.967 E592.28541
G1 X64.062 Y61.276 E594.82134
G1 X65.085 Y60.645 E596.63087
G1 X66.123 Y60.054 E597.8781
G1 X67.224 Y59.478 E600.04531
G1 X68.334 Y58.947 E603.04801
G1 X69.439 Y58.466 E606.03168
G1 X70.557 Y58.026 E609.65
G1 X71.751 Y57.604 E614.00949
G1 X72.875 Y57.254 E618.51201
G1 X74.079 Y56.924 E624.00992
G1 X74.645 Y56.788
G1 X75.228 Y56.652 E624.58688
G1 X76.44 Y56.411 E629.13961
G1 X77.046 Y56.311
G1 X77.635 Y56.217 E631.28018
G1 X78.841 Y56.065 E635.11909
G1 X80.079 Y55.954 E638.01599
G1 X81.257 Y55.891 E639.99346
G1 X81.895 Y55.878 E640.36746
G1 X82.5 Y55.869
G1 X83.103 Y55.878 E641.10676
G1 X83.743 Y55.891
G1 X84.921 Y55.954 E643.09668
G1 X86.162 Y56.065 E645.97095
G1 X87.339 Y56.213 E649.17798
G1 X88.563 Y56.411 E653.28248
G1 X89.756 Y56.649 E657.6871
G1 X90.935 Y56.927 E662.64242
G1 X92.125 Y57.254 E666.59817
G1 X93.264 Y57.61 E671.37899
G1 X94.443 Y58.026 E675.85412
G1 X95.561 Y58.466 E679.57168
G1 X96.666 Y58.947 E682.6086
G1 X97.776 Y59.478 E686.41098
G1 X98.877 Y60.054 E690.27283
G1 X99.915 Y60.645 E691.50723
G1 X100.938 Y61.276 E693.31676
G1 X101.972 Y61.967 E695.8363
G1 X102.959 Y62.679 E698.71511
G1 X103.916 Y63.424 E702.18563
G1 X104.841 Y64.196 E706.30867
G1 X105.762 Y65.024 E711.0506
G1 X106.635 Y65.865 E716.13295
G1 X107.476 Y66.738 E719.96616
G1 X108.304 Y67.659 E724.79748
G1 X109.076 Y68.584 E728.92053
G1 X109.821 Y69.541 E732.4211
G1 X110.533 Y70.528 E735.348
G1 X111.224 Y71.562 E737.88393
G1 X111.855 Y72.585 E739.69346
G1 X112.446 Y73.623 E740.94254
G1 X113.022 Y74.724 E743.11147
G1 X113.553 Y75.834 E745.67393
G1 X114.034 Y76.939 E748.64008
G1 X114.474 Y78.057 E752.2584
G1 X114.9 Y79.264 E756.69868
G1 X115.246 Y80.375 E761.15138
G1 X115.576 Y81.576 E766.53922
G1 X115.712 Y82.145
G1 X115.848 Y82.728 E767.11617
G1 X116.089 Y83.94 E771.6689
G1 X116.187 Y84.533
G1 X116.283 Y85.135 E773.87721
G1 X116.435 Y86.341 E777.64769
G1 X116.546 Y87.579 E780.54459
G1 X116.609 Y88.757 E782.52206
G1 X116.622 Y89.383 E782.84397
G1 X116.631 Y89.996
G1 X116.622 Y90.603 E783.61328
G1 X116.609 Y91.243
G1 X116.546 Y92.421 E785.58833
G1 X116.435 Y93.662 E788.4743
G1 X116.287 Y94.839 E791.65302
G1 X116.088 Y96.069 E795.71665
G1 X115.854 Y97.246 E800.06309
G1 X115.571 Y98.441 E805.10738
G1 X115.246 Y99.625 E809.03349
G1 X114.89 Y100.764 E813.81431
G1 X114.474 Y101.943 E818.28944
G1 X114.034 Y103.061 E822.007
G1 X113.553 Y104.166 E825.04393
G1 X113.022 Y105.276 E829.00396
G1 X112.446 Y106.377 E832.91197
G1 X111.855 Y107.415 E834.14637
G1 X111.224 Y108.438 E835.94809
G1 X110.533 Y109.472 E838.47665
G1 X109.821 Y110.459 E841.37048
G1 X109.076 Y111.416 E844.78774
G1 X108.304 Y112.341 E848.86354
G1 X107.476 Y113.262 E853.60547
G1 X106.635 Y114.135 E858.6936
G1 X105.762 Y114.976 E862.57424
G1 X104.841 Y115.804 E867.40556
G1 X103.916 Y116.576 E871.5286
G1 X102.959 Y117.321 E875.02918
G1 X101.972 Y118.033 E877.95607
G1 X100.938 Y118.724 E880.492
G1 X99.915 Y119.355 E882.30154
G1 X98.877 Y119.946 E883.55061
G1 X97.776 Y120.522 E885.729
G1 X96.666 Y121.053 E888.73998
G1 X95.561 Y121.534 E891.72365
G1 X94.443 Y121.974 E895.40554
G1 X93.249 Y122.396 E899.82561
G1 X92.125 Y122.746 E904.42444
G1 X90.921 Y123.076 E909.90659
G1 X90.355 Y123.212
G1 X89.772 Y123.348 E910.48355
G1 X88.56 Y123.589 E915.03628
G1 X87.954 Y123.689
G1 X87.365 Y123.783 E917.17685
G1 X86.159 Y123.935 E921.01576
G1 X84.921 Y124.046 E923.91266
G1 X83.743 Y124.109 E925.89013
G1 X83.105 Y124.122 E926.26094
G0 F7200 X82.905 Y124.124
;MESH:NONMESH
G0 F600 X82.905 Y124.124 Z10.8
G0 F7200 X82.905 Y124.024
G0 X81.199 Y124.007
G0 X81.187 Y124.231
;TIME_ELAPSED:72.158620
;LAYER:7
;TYPE:WALL-OUTER
;MESH:Vaza_zakljucna.STL
G1 F1800 X82.5 Y124.255 E936.11009
G1 X83.813 Y124.231 E945.95923
G1 X85.123 Y124.155 E955.80075
G1 X86.429 Y124.03 E965.64051
G1 X87.761 Y123.85 E975.72132
G1 X87.868 Y123.828 E976.5406
G1 X89.02 Y123.629 E985.30857
G1 X90.306 Y123.355 E995.17006
G1 X91.577 Y123.031 E1005.00741
G1 X92.837 Y122.66 E1014.85854
G1 X94.08 Y122.239 E1024.70125
G1 X95.305 Y121.772 E1034.53373
G1 X96.514 Y121.259 E1044.38374
G1 X97.7 Y120.699 E1054.22046
G1 X98.894 Y120.08 E1064.30732
G1 X98.989 Y120.023 E1065.13823
G1 X100.03 Y119.431 E1074.11992
G1 X100.096 Y119.388 E1074.71071
G1 X101.12 Y118.754 E1083.74356
G1 X102.209 Y118.019 E1093.59728
G1 X103.267 Y117.244 E1103.4334
G1 X104.296 Y116.428 E1113.28298
G1 X105.292 Y115.573 E1123.12783
G1 X106.275 Y114.663 E1133.17444
G1 X106.329 Y114.606 E1133.76332
G1 X107.182 Y113.755 E1142.80015
G1 X108.073 Y112.792 E1152.63988
G1 X108.928 Y111.796 E1162.48473
G1 X109.744 Y110.767 E1172.33431
G1 X110.519 Y109.709 E1182.17044
G1 X111.253 Y108.621 E1192.01374
G1 X111.966 Y107.472 E1202.15559
G1 X112.014 Y107.381 E1202.92722
G1 X112.612 Y106.336 E1211.95726
G1 X112.66 Y106.236 E1212.78918
G1 X113.198 Y105.202 E1221.53111
G1 X113.759 Y104.014 E1231.38459
G1 X114.272 Y102.805 E1241.23461
G1 X114.739 Y101.58 E1251.06709
G1 X115.172 Y100.301 E1261.19439
G1 X115.197 Y100.205 E1261.93841
G1 X115.539 Y99.051 E1270.96549
G1 X115.565 Y98.938 E1271.83513
G1 X115.854 Y97.808 E1280.58292
G1 X116.129 Y96.522 E1290.44597
G1 X116.359 Y95.201 E1300.50252
G1 X116.375 Y95.061 E1301.55936
G1 X116.53 Y93.93 E1310.12115
G1 X116.655 Y92.623 E1319.96837
G1 X116.731 Y91.313 E1329.8099
G1 X116.755 Y90 E1339.65904
G1 X116.731 Y88.687 E1349.50819
G1 X116.655 Y87.377 E1359.34971
G1 X116.53 Y86.071 E1369.18947
G1 X116.35 Y84.739 E1379.27027
G1 X116.328 Y84.632 E1380.08956
G1 X116.129 Y83.48 E1388.85752
G1 X115.855 Y82.194 E1398.71901
G1 X115.531 Y80.923 E1408.55636
G1 X115.16 Y79.663 E1418.4075
G1 X114.739 Y78.42 E1428.2502
G1 X114.272 Y77.195 E1438.08268
G1 X113.759 Y75.986 E1447.9327
G1 X113.199 Y74.8 E1457.76941
G1 X112.58 Y73.606 E1467.85628
G1 X112.523 Y73.511 E1468.68719
G1 X111.931 Y72.47 E1477.66887
G1 X111.888 Y72.404 E1478.25966
G1 X111.254 Y71.38 E1487.29251
G1 X110.519 Y70.291 E1497.14623
G1 X109.744 Y69.233 E1506.98236
G1 X108.928 Y68.204 E1516.83194
G1 X108.073 Y67.208 E1526.67679
G1 X107.163 Y66.225 E1536.7234
G1 X107.103 Y66.168 E1537.34409
G1 X106.255 Y65.318 E1546.3491
G1 X105.292 Y64.427 E1556.18883
G1 X104.296 Y63.572 E1566.03368
G1 X103.267 Y62.756 E1575.88326
G1 X102.209 Y61.981 E1585.71938
G1 X101.121 Y61.247 E1595.56269
G1 X99.972 Y60.534 E1605.70453
G1 X99.881 Y60.486 E1606.47616
G1 X98.836 Y59.888 E1615.5062
G1 X98.736 Y59.84 E1616.33812
G1 X97.702 Y59.302 E1625.08005
G1 X96.514 Y58.741 E1634.93353
G1 X95.305 Y58.228 E1644.78355
G1 X94.08 Y57.761 E1654.61603
G1 X92.801 Y57.328 E1664.74334
G1 X92.705 Y57.303 E1665.48735
G1 X91.551 Y56.961 E1674.51443
G1 X91.438 Y56.935 E1675.38408
G1 X90.308 Y56.646 E1684.13186
G1 X89.022 Y56.371 E1693.99492
G1 X87.701 Y56.141 E1704.05147
G1 X87.582 Y56.127 E1704.95012
G1 X86.43 Y55.97 E1713.66999
G1 X85.123 Y55.845 E1723.51722
G1 X83.813 Y55.769 E1733.35874
G1 X82.5 Y55.745 E1743.20788
G1 X81.187 Y55.769 E1753.05703
G1 X79.877 Y55.845 E1762.89855
G1 X78.571 Y55.97 E1772.73831
G1 X77.239 Y56.15 E1782.81912
G1 X77.132 Y56.172 E1783.6384
G1 X75.98 Y56.371 E1792.40637
G1 X74.694 Y56.645 E1802.26786
G1 X73.423 Y56.969 E1812.10521
G1 X72.163 Y57.34 E1821.95634
G1 X70.92 Y57.761 E1831.79904
G1 X69.695 Y58.228 E1841.63152
G1 X68.486 Y58.741 E1851.48154
G1 X67.3 Y59.301 E1861.31826
G1 X66.106 Y59.92 E1871.40512
G1 X66.011 Y59.977 E1872.23603
G1 X64.97 Y60.569 E1881.21772
G1 X64.904 Y60.612 E1881.80851
G1 X63.88 Y61.246 E1890.84136
G1 X62.791 Y61.981 E1900.69508
G1 X61.733 Y62.756 E1910.5312
G1 X60.704 Y63.572 E1920.38078
G1 X59.708 Y64.427 E1930.22563
G1 X58.725 Y65.337 E1940.27224
G1 X58.671 Y65.394 E1940.86112
G1 X57.818 Y66.245 E1949.89795
G1 X56.927 Y67.208 E1959.73768
G1 X56.072 Y68.204 E1969.58253
G1 X55.256 Y69.233 E1979.43211
G1 X54.481 Y70.291 E1989.26824
G1 X53.747 Y71.379 E1999.11154
G1 X53.034 Y72.528 E2009.25339
G1 X52.986 Y72.619 E2010.02501
G1 X52.388 Y73.664 E2019.05506
G1 X52.34 Y73.764 E2019.88698
G1 X51.802 Y74.798 E2028.62891
G1 X51.241 Y75.986 E2038.48239
G1 X50.728 Y77.195 E2048.33241
G1 X50.261 Y78.42 E2058.16489
G1 X49.828 Y79.699 E2068.29219
G1 X49.803 Y79.795 E2069.0362
G1 X49.461 Y80.949 E2078.06329
G1 X49.435 Y81.062 E2078.93293
G1 X49.146 Y82.192 E2087.68071
G1 X48.871 Y83.478 E2097.54377
G1 X48.641 Y84.799 E2107.60032
G1 X48.627 Y84.918 E2108.49898
G1 X48.47 Y86.07 E2117.21885
G1 X48.345 Y87.377 E2127.06608
G1 X48.269 Y88.687 E2136.9076
G1 X48.245 Y90 E2146.75674
G1 X48.269 Y91.313 E2156.60589
G1 X48.345 Y92.623 E2166.44741
G1 X48.47 Y93.929 E2176.28717
G1 X48.65 Y95.261 E2186.36797
G1 X48.672 Y95.368 E2187.18726
G1 X48.871 Y96.52 E2195.95522
G1 X49.145 Y97.806 E2205.81671
G1 X49.469 Y99.077 E2215.65406
G1 X49.84 Y100.337 E2225.5052
G1 X50.261 Y101.58 E2235.3479
G1 X50.728 Y102.805 E2245.18038
G1 X51.241 Y104.014 E2255.0304
G1 X51.801 Y105.2 E2264.86711
G1 X52.42 Y106.394 E2274.95398
G1 X52.477 Y106.489 E2275.78489
G1 X53.069 Y107.53 E2284.76657
G1 X53.112 Y107.596 E2285.35736
G1 X53.746 Y108.62 E2294.39022
G1 X54.481 Y109.709 E2304.24393
G1 X55.256 Y110.767 E2314.08006
G1 X56.072 Y111.796 E2323.92964
G1 X56.927 Y112.792 E2333.77449
G1 X57.837 Y113.775 E2343.8211
G1 X57.894 Y113.829 E2344.40998
G1 X58.745 Y114.682 E2353.44681
G1 X59.708 Y115.573 E2363.28654
G1 X60.704 Y116.428 E2373.13139
G1 X61.733 Y117.244 E2382.98097
G1 X62.791 Y118.019 E2392.81709
G1 X63.879 Y118.753 E2402.6604
G1 X65.028 Y119.466 E2412.80224
G1 X65.119 Y119.514 E2413.57387
G1 X66.164 Y120.112 E2422.60391
G1 X66.264 Y120.16 E2423.43584
G1 X67.298 Y120.698 E2432.17776
G1 X68.486 Y121.259 E2442.03125
G1 X69.695 Y121.772 E2451.88126
G1 X70.92 Y122.239 E2461.71374
G1 X72.199 Y122.672 E2471.84105
G1 X72.295 Y122.697 E2472.58506
G1 X73.449 Y123.039 E2481.61214
G1 X73.562 Y123.065 E2482.48179
G1 X74.692 Y123.354 E2491.22957
G1 X75.978 Y123.629 E2501.09263
G1 X77.299 Y123.859 E2511.14918
G1 X77.418 Y123.873 E2512.04783
G1 X78.57 Y124.03 E2520.7677
G1 X79.877 Y124.155 E2530.61493
G1 X81.187 Y124.231 E2540.45645
G0 F7200 X81.387 Y124.234
G0 X81.385 Y124.334
G0 X83.762 Y124.743
G0 X83.765 Y124.842
G1 F1800 X82.497 Y124.864 E2541.70999
G1 X81.262 Y124.844 E2542.89508
G1 X80.022 Y124.777 E2544.75478
G1 X78.786 Y124.666 E2547.2155
G1 X77.537 Y124.51 E2550.31923
G1 X76.297 Y124.308 E2553.87759
G1 X75.093 Y124.069 E2558.04648
G1 X73.869 Y123.779 E2562.89011
G1 X72.681 Y123.454 E2567.8256
G1 X71.48 Y123.078 E2572.92905
G1 X70.321 Y122.669 E2577.06493
G1 X69.153 Y122.208 E2580.64136
G1 X68.038 Y121.723 E2583.3446
G1 X66.871 Y121.166 E2585.79349
G1 X65.818 Y120.615 E2588.13396
G1 X64.695 Y119.975 E2590.24951
G1 X63.659 Y119.335 E2590.92862
G1 X62.605 Y118.632 E2593.04922
G1 X61.614 Y117.916 E2595.62888
G1 X60.612 Y117.139 E2598.95515
G1 X59.683 Y116.362 E2602.74115
G1 X58.736 Y115.511 E2607.38905
G1 X57.847 Y114.653 E2612.30865
G1 X56.989 Y113.764 E2617.28606
G1 X56.138 Y112.817 E2622.0705
G1 X55.361 Y111.888 E2625.91934
G1 X54.584 Y110.886 E2629.31808
G1 X53.868 Y109.895 E2631.89773
G1 X53.165 Y108.841 E2634.00765
G1 X52.525 Y107.805 E2636.00132
G1 X51.885 Y106.682 E2638.01385
G1 X51.334 Y105.629 E2639.15221
G1 X50.777 Y104.462 E2641.59594
G1 X50.292 Y103.347 E2644.29917
G1 X49.831 Y102.179 E2647.79175
G1 X49.422 Y101.02 E2651.83849
G1 X49.046 Y99.819 E2656.73097
G1 X48.784 Y98.866 E2659.87825
G1 X48.718 Y98.619
G1 X48.43 Y97.4 E2664.99136
G1 X48.237 Y96.433 E2667.43926
G1 X48.19 Y96.19
G1 X47.988 Y94.947 E2672.25832
G1 X47.837 Y93.747 E2675.2117
G1 X47.723 Y92.478 E2677.76564
G1 X47.658 Y91.265 E2679.43963
G1 X47.636 Y90 E2680.67067
G1 X47.658 Y88.735 E2681.9017
G1 X47.723 Y87.522 E2683.55444
G1 X47.834 Y86.286 E2686.0612
G1 X47.99 Y85.037 E2689.20754
G1 X48.192 Y83.797 E2692.76591
G1 X48.431 Y82.593 E2696.9348
G1 X48.721 Y81.369 E2701.86271
G1 X49.046 Y80.181 E2706.87957
G1 X49.422 Y78.98 E2712.07967
G1 X49.831 Y77.821 E2716.21555
G1 X50.292 Y76.653 E2719.79198
G1 X50.777 Y75.538 E2722.49521
G1 X51.334 Y74.371 E2724.94411
G1 X51.885 Y73.318 E2727.28457
G1 X52.525 Y72.195 E2729.40012
G1 X53.165 Y71.159 E2730.07923
G1 X53.868 Y70.105 E2732.17618
G1 X54.584 Y69.114 E2734.68142
G1 X55.361 Y68.112 E2737.95797
G1 X56.138 Y67.183 E2741.74396
G1 X56.999 Y66.225 E2746.40716
G1 X57.857 Y65.337 E2751.22821
G1 X58.736 Y64.489 E2756.10005
G1 X59.683 Y63.638 E2760.88448
G1 X60.612 Y62.861 E2764.73333
G1 X61.626 Y62.075 E2768.24637
G1 X62.605 Y61.368 E2770.8164
G1 X63.659 Y60.665 E2772.92631
G1 X64.695 Y60.025 E2774.91998
G1 X65.818 Y59.385 E2776.93251
G1 X66.871 Y58.834 E2778.09123
G1 X68.038 Y58.277 E2780.52584
G1 X69.153 Y57.792 E2783.1424
G1 X70.321 Y57.331 E2786.57839
G1 X71.48 Y56.922 E2790.51311
G1 X72.681 Y56.546 E2795.17409
G1 X73.634 Y56.284 E2798.32137
G1 X73.881 Y56.218
G1 X75.1 Y55.93 E2803.43448
G1 X76.067 Y55.737 E2805.88237
G1 X76.31 Y55.69
G1 X77.553 Y55.488 E2810.70143
G1 X78.753 Y55.337 E2813.65481
G1 X80.022 Y55.223 E2816.20875
G1 X81.235 Y55.158 E2817.88274
G1 X82.5 Y55.136 E2819.11378
G1 X83.765 Y55.158 E2820.34482
G1 X84.978 Y55.223 E2822.01881
G1 X86.214 Y55.334 E2824.49904
G1 X87.463 Y55.49 E2827.60276
G1 X88.703 Y55.692 E2831.16113
G1 X89.907 Y55.931 E2835.44902
G1 X91.131 Y56.221 E2840.39944
G1 X92.319 Y56.546 E2845.33493
G1 X93.52 Y56.922 E2850.53503
G1 X94.679 Y57.331 E2854.67091
G1 X95.847 Y57.792 E2858.24734
G1 X96.962 Y58.277 E2860.95057
G1 X98.129 Y58.834 E2863.39947
G1 X99.182 Y59.385 E2865.73994
G1 X100.305 Y60.025 E2867.85549
G1 X101.341 Y60.665 E2868.52303
G1 X102.395 Y61.368 E2870.6335
G1 X103.374 Y62.075 E2873.14667
G1 X104.388 Y62.861 E2876.60569
G1 X105.317 Y63.638 E2880.3467
G1 X106.264 Y64.489 E2884.89484
G1 X107.143 Y65.337 E2889.90896
G1 X108.001 Y66.225 E2894.87498
G1 X108.862 Y67.183 E2899.67152
G1 X109.639 Y68.112 E2903.52036
G1 X110.416 Y69.114 E2906.9191
G1 X111.132 Y70.105 E2909.49875
G1 X111.835 Y71.159 E2911.60867
G1 X112.475 Y72.195 E2913.60234
G1 X113.115 Y73.318 E2915.61487
G1 X113.666 Y74.371 E2916.75323
G1 X114.223 Y75.538 E2919.16876
G1 X114.708 Y76.653 E2921.78531
G1 X115.169 Y77.821 E2925.30516
G1 X115.578 Y78.98 E2929.42598
G1 X115.954 Y80.181 E2934.18827
G1 X116.216 Y81.134 E2937.58539
G1 X116.282 Y81.381
G1 X116.57 Y82.6 E2942.6985
G1 X116.763 Y83.567 E2945.1464
G1 X116.81 Y83.81
G1 X117.012 Y85.053 E2949.96546
G1 X117.136 Y86.025 E2951.1608
G1 X117.163 Y86.253
G1 X117.277 Y87.522 E2953.71474
G1 X117.342 Y88.735 E2955.38873
G1 X117.364 Y90 E2956.61977
G1 X117.342 Y91.265 E2957.85081
G1 X117.277 Y92.478 E2959.50355
G1 X117.168 Y93.698 E2961.95013
G1 X117.01 Y94.963 E2965.19772
G1 X116.808 Y96.203 E2968.66357
G1 X116.569 Y97.407 E2972.87271
G1 X116.279 Y98.631 E2977.82313
G1 X115.954 Y99.819 E2982.75862
G1 X115.578 Y101.02 E2987.84011
G1 X115.169 Y102.179 E2991.97599
G1 X114.708 Y103.347 E2995.55242
G1 X114.223 Y104.462 E2998.25565
G1 X113.666 Y105.629 E3000.70454
G1 X113.115 Y106.682 E3003.04501
G1 X112.475 Y107.805 E3005.16056
G1 X111.835 Y108.841 E3005.83967
G1 X111.132 Y109.895 E3007.96028
G1 X110.416 Y110.886 E3010.48677
G1 X109.639 Y111.888 E3013.76332
G1 X108.862 Y112.817 E3017.44148
G1 X108.011 Y113.764 E3021.98962
G1 X107.153 Y114.653 E3026.90922
G1 X106.264 Y115.511 E3031.88663
G1 X105.317 Y116.362 E3036.67107
G1 X104.388 Y117.139 E3040.51991
G1 X103.386 Y117.916 E3043.91865
G1 X102.395 Y118.632 E3046.4983
G1 X101.341 Y119.335 E3048.60822
G1 X100.305 Y119.975 E3050.60189
G1 X99.182 Y120.615 E3052.61442
G1 X98.129 Y121.166 E3053.77314
G1 X96.962 Y121.723 E3056.20775
G1 X95.847 Y122.208 E3058.82431
G1 X94.679 Y122.669 E3062.2603
G1 X93.52 Y123.078 E3066.30704
G1 X92.319 Y123.454 E3071.19952
G1 X91.366 Y123.716 E3074.3468
G1 X91.119 Y123.782
G1 X89.9 Y124.07 E3079.45991
G1 X88.933 Y124.263 E3081.90781
G1 X88.69 Y124.31
G1 X87.447 Y124.512 E3086.72687
G1 X86.247 Y124.663 E3089.68024
G1 X84.978 Y124.777 E3092.23419
G1 X83.765 Y124.842 E3093.90818
G0 F7200 X83.565 Y124.845
;MESH:NONMESH
G0 F600 X83.565 Y124.845 Z12.3
G0 F7200 X83.565 Y124.745
G0 X81.173 Y124.74
G0 X81.157 Y125.025
;TIME_ELAPSED:87.049950
;LAYER:8
;TYPE:WALL-OUTER
;MESH:Vaza_zakljucna.STL
G1 F1800 X82.5 Y125.05 E3103.98242
G1 X83.843 Y125.025 E3114.05667
G1 X85.184 Y124.947 E3124.13116
G1 X86.521 Y124.819 E3134.20451
G1 X87.85 Y124.639 E3144.26302
G1 X89.173 Y124.41 E3154.33307
G1 X90.488 Y124.129 E3164.41823
G1 X91.789 Y123.797 E3174.48842
G1 X93.076 Y123.417 E3184.55288
G1 X94.349 Y122.987 E3194.63035
G1 X95.603 Y122.509 E3204.69545
G1 X96.839 Y121.984 E3214.76703
G1 X98.053 Y121.411 E3224.83528
G1 X99.246 Y120.793 E3234.91203
G1 X100.413 Y120.128 E3244.98583
G1 X101.552 Y119.42 E3255.04418
G1 X102.665 Y118.67 E3265.11003
G1 X103.749 Y117.875 E3275.19211
G1 X104.8 Y117.041 E3285.25486
G1 X105.824 Y116.165 E3295.36165
G1 X106.218 Y115.797 E3299.40512
G1 X106.804 Y115.256 E3305.3867
G1 X107.754 Y114.306 E3315.46297
G1 X108.668 Y113.321 E3325.54098
G1 X109.541 Y112.3 E3335.61605
G1 X110.375 Y111.249 E3345.67879
G1 X111.17 Y110.165 E3355.76087
G1 X111.92 Y109.052 E3365.82672
G1 X112.628 Y107.913 E3375.88507
G1 X113.295 Y106.742 E3385.99236
G1 X113.542 Y106.261 E3390.04771
G1 X113.91 Y105.555 E3396.01886
G1 X114.484 Y104.339 E3406.10387
G1 X115.009 Y103.103 E3416.17545
G1 X115.487 Y101.849 E3426.24055
G1 X115.917 Y100.576 E3436.31802
G1 X116.297 Y99.289 E3446.38248
G1 X116.629 Y97.988 E3456.45267
G1 X116.91 Y96.673 E3466.53783
G1 X117.139 Y95.35 E3476.60788
G1 X117.319 Y94.021 E3486.66639
G1 X117.447 Y92.684 E3496.73974
G1 X117.525 Y91.343 E3506.81423
G1 X117.55 Y90 E3516.88848
G1 X117.525 Y88.657 E3526.96272
G1 X117.447 Y87.316 E3537.03722
G1 X117.319 Y85.979 E3547.11057
G1 X117.139 Y84.65 E3557.16908
G1 X116.91 Y83.327 E3567.23912
G1 X116.629 Y82.012 E3577.32428
G1 X116.297 Y80.711 E3587.39448
G1 X115.917 Y79.424 E3597.45894
G1 X115.487 Y78.151 E3607.53641
G1 X115.009 Y76.897 E3617.60151
G1 X114.484 Y75.661 E3627.67309
G1 X113.911 Y74.447 E3637.74134
G1 X113.293 Y73.254 E3647.81809
G1 X112.628 Y72.087 E3657.89189
G1 X111.92 Y70.948 E3667.95024
G1 X111.17 Y69.835 E3678.01609
G1 X110.375 Y68.751 E3688.09817
G1 X109.541 Y67.7 E3698.16091
G1 X108.665 Y66.676 E3708.26771
G1 X108.287 Y66.271 E3712.42266
G1 X107.756 Y65.696 E3718.29275
G1 X106.806 Y64.746 E3728.36902
G1 X105.821 Y63.832 E3738.44703
G1 X104.8 Y62.959 E3748.5221
G1 X103.749 Y62.125 E3758.58484
G1 X102.665 Y61.33 E3768.66692
G1 X101.552 Y60.58 E3778.73278
G1 X100.413 Y59.872 E3788.79113
G1 X99.242 Y59.205 E3798.89842
G1 X98.75 Y58.952 E3803.04771
G1 X98.055 Y58.59 E3808.9249
G1 X96.839 Y58.016 E3819.00991
G1 X95.603 Y57.491 E3829.08149
G1 X94.349 Y57.013 E3839.14659
G1 X93.076 Y56.583 E3849.22406
G1 X91.789 Y56.203 E3859.28852
G1 X90.488 Y55.871 E3869.35871
G1 X89.173 Y55.59 E3879.44388
G1 X87.85 Y55.361 E3889.51392
G1 X86.521 Y55.181 E3899.57243
G1 X85.184 Y55.053 E3909.64578
G1 X83.843 Y54.975 E3919.72028
G1 X82.5 Y54.95 E3929.79452
G1 X81.157 Y54.975 E3939.86877
G1 X79.816 Y55.053 E3949.94326
G1 X78.479 Y55.181 E3960.01661
G1 X77.15 Y55.361 E3970.07512
G1 X75.827 Y55.59 E3980.14517
G1 X74.512 Y55.871 E3990.23033
G1 X73.211 Y56.203 E4000.30052
G1 X71.924 Y56.583 E4010.36498
G1 X70.651 Y57.013 E4020.44245
G1 X69.397 Y57.491 E4030.50755
G1 X68.161 Y58.016 E4040.57913
G1 X66.947 Y58.589 E4050.64738
G1 X65.754 Y59.207 E4060.72413
G1 X64.587 Y59.872 E4070.79793
G1 X63.448 Y60.58 E4080.85628
G1 X62.335 Y61.33 E4090.92213
G1 X61.251 Y62.125 E4101.00421
G1 X60.2 Y62.959 E4111.06696
G1 X59.176 Y63.835 E4121.17375
G1 X58.782 Y64.203 E4125.21722
G1 X58.196 Y64.744 E4131.1988
G1 X57.246 Y65.694 E4141.27507
G1 X56.332 Y66.679 E4151.35308
G1 X55.459 Y67.7 E4161.42815
G1 X54.625 Y68.751 E4171.49089
G1 X53.83 Y69.835 E4181.57297
G1 X53.08 Y70.948 E4191.63882
G1 X52.372 Y72.087 E4201.69717
G1 X51.705 Y73.258 E4211.80446
G1 X51.458 Y73.739 E4215.85981
G1 X51.09 Y74.445 E4221.83096
G1 X50.516 Y75.661 E4231.91597
G1 X49.991 Y76.897 E4241.98755
G1 X49.513 Y78.151 E4252.05265
G1 X49.083 Y79.424 E4262.13012
G1 X48.703 Y80.711 E4272.19457
G1 X48.371 Y82.012 E4282.26477
G1 X48.09 Y83.327 E4292.34993
G1 X47.861 Y84.65 E4302.41998
G1 X47.681 Y85.979 E4312.47849
G1 X47.553 Y87.316 E4322.55183
G1 X47.475 Y88.657 E4332.62633
G1 X47.45 Y90 E4342.70058
G1 X47.475 Y91.343 E4352.77482
G1 X47.553 Y92.684 E4362.84932
G1 X47.681 Y94.021 E4372.92267
G1 X47.861 Y95.35 E4382.98118
G1 X48.09 Y96.673 E4393.05122
G1 X48.371 Y97.988 E4403.13638
G1 X48.703 Y99.289 E4413.20658
G1 X49.083 Y100.576 E4423.27104
G1 X49.513 Y101.849 E4433.34851
G1 X49.991 Y103.103 E4443.41361
G1 X50.516 Y104.339 E4453.48519
G1 X51.089 Y105.553 E4463.55344
G1 X51.707 Y106.746 E4473.63019
G1 X52.372 Y107.913 E4483.70399
G1 X53.08 Y109.052 E4493.76234
G1 X53.83 Y110.165 E4503.82819
G1 X54.625 Y111.249 E4513.91027
G1 X55.459 Y112.3 E4523.97301
G1 X56.335 Y113.324 E4534.07981
G1 X56.703 Y113.718 E4538.12328
G1 X57.244 Y114.304 E4544.10486
G1 X58.194 Y115.254 E4554.18113
G1 X59.179 Y116.168 E4564.25913
G1 X60.2 Y117.041 E4574.33421
G1 X61.251 Y117.875 E4584.39695
G1 X62.335 Y118.67 E4594.47903
G1 X63.448 Y119.42 E4604.54488
G1 X64.587 Y120.128 E4614.60323
G1 X65.758 Y120.795 E4624.71052
G1 X66.25 Y121.048 E4628.85981
G1 X66.945 Y121.41 E4634.737
G1 X68.161 Y121.984 E4644.82201
G1 X69.397 Y122.509 E4654.8936
G1 X70.651 Y122.987 E4664.9587
G1 X71.924 Y123.417 E4675.03617
G1 X73.211 Y123.797 E4685.10062
G1 X74.512 Y124.129 E4695.17082
G1 X75.827 Y124.41 E4705.25598
G1 X77.15 Y124.639 E4715.32603
G1 X78.479 Y124.819 E4725.38453
G1 X79.816 Y124.947 E4735.45788
G1 X81.157 Y125.025 E4745.53238
G0 F7200 X81.357 Y125.028
G0 X81.355 Y125.128
G0 X83.764 Y125.372
G0 X83.767 Y125.471
G1 F1800 X82.491 Y125.493 E4746.50607
G1 X81.208 Y125.469 E4747.15466
G1 X79.98 Y125.404 E4748.48737
G1 X78.719 Y125.291 E4750.80759
G1 X77.443 Y125.131 E4753.77223
G1 X76.201 Y124.93 E4757.27629
G1 X74.949 Y124.68 E4761.62206
G1 X73.728 Y124.392 E4766.39654
G1 X72.5 Y124.054 E4771.52343
G1 X71.29 Y123.676 E4776.30012
G1 X70.08 Y123.249 E4780.52455
G1 X68.919 Y122.792 E4783.90104
G1 X67.75 Y122.283 E4786.65691
G1 X66.614 Y121.74 E4788.6438
G1 X65.503 Y121.158 E4792.10254
G1 X64.382 Y120.52 E4792.75688
G1 X63.301 Y119.852 E4793.81673
G1 X62.258 Y119.156 E4795.4963
G1 X61.233 Y118.416 E4797.97909
G1 X60.237 Y117.642 E4801.18675
G1 X59.245 Y116.812 E4805.0007
G1 X58.321 Y115.983 E4809.29487
G1 X57.392 Y115.086 E4814.42144
G1 X57.254 Y114.945
G1 X56.517 Y114.179 E4818.47206
G1 X55.688 Y113.255 E4821.87121
G1 X54.858 Y112.263 E4825.81931
G1 X54.084 Y111.267 E4829.02696
G1 X53.344 Y110.242 E4831.50975
G1 X52.648 Y109.199 E4833.19956
G1 X51.98 Y108.118 E4834.27056
G1 X51.342 Y106.997 E4834.9366
G1 X50.76 Y105.886 E4836.1599
G1 X50.214 Y104.745 E4838.10705
G1 X49.705 Y103.574 E4840.68987
G1 X49.251 Y102.42 E4843.81897
G1 X48.824 Y101.21 E4847.93092
G1 X48.446 Y100 E4852.53684
G1 X48.108 Y98.772 E4857.8196
G1 X47.82 Y97.551 E4862.76569
G1 X47.57 Y96.299 E4867.11147
G1 X47.369 Y95.057 E4870.69741
G1 X47.209 Y93.781 E4873.75312
G1 X47.096 Y92.52 E4876.10435
G1 X47.029 Y91.267 E4877.66631
G1 X47.008 Y90 E4878.56718
G1 X47.031 Y88.706 E4879.4809
G1 X47.096 Y87.48 E4880.83238
G1 X47.209 Y86.219 E4883.11762
G1 X47.369 Y84.943 E4886.0208
G1 X47.57 Y83.701 E4889.52486
G1 X47.82 Y82.449 E4893.71599
G1 X48.108 Y81.228 E4898.53445
G1 X48.446 Y80 E4903.66135
G1 X48.824 Y78.79 E4908.43804
G1 X49.251 Y77.58 E4912.66247
G1 X49.708 Y76.419 E4916.03895
G1 X50.217 Y75.25 E4918.79483
G1 X50.76 Y74.114 E4920.78172
G1 X51.342 Y73.003 E4924.05717
G1 X51.98 Y71.882 E4924.7115
G1 X52.648 Y70.801 E4925.77135
G1 X53.344 Y69.758 E4927.41087
G1 X54.084 Y68.733 E4929.78361
G1 X54.858 Y67.737 E4932.9249
G1 X55.688 Y66.745 E4936.73885
G1 X56.517 Y65.821 E4940.86686
G1 X57.414 Y64.892 E4946.02188
G1 X58.321 Y64.017 E4951.28688
G1 X59.245 Y63.188 E4954.65399
G1 X60.237 Y62.358 E4958.60209
G1 X61.233 Y61.584 E4961.80974
G1 X62.258 Y60.844 E4964.29253
G1 X63.301 Y60.148 E4965.98233
G1 X64.382 Y59.48 E4967.05334
G1 X65.503 Y58.842 E4967.71938
G1 X66.614 Y58.26 E4968.94268
G1 X67.755 Y57.714 E4970.88982
G1 X68.926 Y57.205 E4973.47264
G1 X70.08 Y56.751 E4976.60175
G1 X71.29 Y56.324 E4980.56642
G1 X72.5 Y55.946 E4985.21213
G1 X73.728 Y55.608 E4990.54217
G1 X74.949 Y55.32 E4995.4947
G1 X76.201 Y55.07 E4999.84048
G1 X77.443 Y54.869 E5003.42642
G1 X78.719 Y54.709 E5006.48213
G1 X79.98 Y54.596 E5008.83336
G1 X81.233 Y54.529 E5010.39531
G1 X82.496 Y54.508 E5011.26618
G1 X83.791 Y54.531 E5012.20792
G1 X85.02 Y54.596 E5013.54471
G1 X86.281 Y54.709 E5015.86494
G1 X87.557 Y54.869 E5018.82957
G1 X88.799 Y55.07 E5022.33363
G1 X90.051 Y55.32 E5026.52476
G1 X91.272 Y55.608 E5031.16516
G1 X92.5 Y55.946 E5036.29206
G1 X93.71 Y56.324 E5041.06875
G1 X94.92 Y56.751 E5045.29318
G1 X96.081 Y57.208 E5048.66966
G1 X97.25 Y57.717 E5051.42554
G1 X98.386 Y58.26 E5053.41243
G1 X99.497 Y58.842 E5056.64345
G1 X100.618 Y59.48 E5057.29778
G1 X101.699 Y60.148 E5058.36879
G1 X102.742 Y60.844 E5060.01854
G1 X103.767 Y61.584 E5062.46464
G1 X104.763 Y62.358 E5065.67229
G1 X105.755 Y63.188 E5069.48624
G1 X106.679 Y64.017 E5073.78042
G1 X107.608 Y64.914 E5079.08648
G1 X108.483 Y65.821 E5084.35148
G1 X109.312 Y66.745 E5087.69611
G1 X110.142 Y67.737 E5091.64421
G1 X110.916 Y68.733 E5094.85186
G1 X111.656 Y69.758 E5097.33465
G1 X112.352 Y70.801 E5099.02445
G1 X113.02 Y71.882 E5100.09546
G1 X113.658 Y73.003 E5100.7615
G1 X114.24 Y74.114 E5101.9848
G1 X114.786 Y75.255 E5103.98256
G1 X115.295 Y76.426 E5106.61221
G1 X115.749 Y77.58 E5109.74132
G1 X116.176 Y78.79 E5113.70598
G1 X116.554 Y80 E5118.35169
G1 X116.892 Y81.228 E5123.4909
G1 X117.18 Y82.449 E5128.43699
G1 X117.43 Y83.701 E5132.78276
G1 X117.631 Y84.943 E5136.36871
G1 X117.791 Y86.219 E5139.42442
G1 X117.904 Y87.48 E5141.77565
G1 X117.971 Y88.733 E5143.3376
G1 X117.992 Y89.996 E5144.20847
G1 X117.969 Y91.291 E5145.15021
G1 X117.904 Y92.52 E5146.52079
G1 X117.791 Y93.781 E5148.80603
G1 X117.631 Y95.057 E5151.80028
G1 X117.43 Y96.299 E5155.25908
G1 X117.18 Y97.551 E5159.33482
G1 X116.892 Y98.772 E5164.15329
G1 X116.554 Y100 E5169.28018
G1 X116.176 Y101.21 E5174.05687
G1 X115.749 Y102.42 E5178.28131
G1 X115.292 Y103.581 E5181.65779
G1 X114.783 Y104.75 E5184.41366
G1 X114.24 Y105.886 E5186.40055
G1 X113.658 Y106.997 E5189.676
G1 X113.02 Y108.118 E5190.33033
G1 X112.352 Y109.199 E5191.40134
G1 X111.656 Y110.242 E5193.05109
G1 X110.916 Y111.267 E5195.42383
G1 X110.142 Y112.263 E5198.56512
G1 X109.312 Y113.255 E5202.37907
G1 X108.483 Y114.179 E5206.50708
G1 X107.586 Y115.108 E5211.6621
G1 X106.679 Y115.983 E5216.9271
G1 X105.755 Y116.812 E5220.32625
G1 X104.763 Y117.642 E5224.27435
G1 X103.767 Y118.416 E5227.48201
G1 X102.742 Y119.156 E5229.9648
G1 X101.699 Y119.852 E5231.6546
G1 X100.618 Y120.52 E5232.7256
G1 X99.497 Y121.158 E5233.39263
G1 X98.386 Y121.74 E5234.61683
G1 X97.245 Y122.286 E5236.56398
G1 X96.074 Y122.795 E5239.1468
G1 X94.92 Y123.249 E5242.2759
G1 X93.71 Y123.676 E5246.24057
G1 X92.5 Y124.054 E5250.71551
G1 X91.272 Y124.392 E5255.99827
G1 X90.051 Y124.68 E5260.94436
G1 X88.799 Y124.93 E5265.29014
G1 X87.557 Y125.131 E5268.87608
G1 X86.281 Y125.291 E5271.93179
G1 X85.02 Y125.404 E5274.28302
G1 X83.767 Y125.471 E5275.84497
G0 F7200 X83.567 Y125.474
;MESH:NONMESH
G0 F600 X83.567 Y125.474 Z13.8
G0 F7200 X83.567 Y125.374
G0 X81.149 Y125.367
G0 X81.132 Y125.687
;TIME_ELAPSED:102.193593
;LAYER:9
;TYPE:WALL-OUTER
;MESH:Vaza_zakljucna.STL
G1 F1800 X82.5 Y125.712 E5286.10669
G1 X83.868 Y125.687 E5296.3684
G1 X85.235 Y125.608 E5306.63801
G1 X86.597 Y125.477 E5316.90015
G1 X87.952 Y125.294 E5327.15491
G1 X89.3 Y125.06 E5337.41611
G1 X90.638 Y124.774 E5347.67779
G1 X91.963 Y124.436 E5357.93353
G1 X93.277 Y124.049 E5368.20707
G1 X94.572 Y123.61 E5378.46246
G1 X95.851 Y123.124 E5388.72414
G1 X97.109 Y122.588 E5398.97986
G1 X98.347 Y122.005 E5409.2429
G1 X99.56 Y121.375 E5419.49424
G1 X100.753 Y120.697 E5429.78574
G1 X101.316 Y120.346 E5434.76164
G1 X101.913 Y119.977 E5440.02539
G1 X102.466 Y119.602 E5445.03657
G1 X103.044 Y119.213 E5450.2619
G1 X104.151 Y118.402 E5460.55405
G1 X105.222 Y117.552 E5470.80888
G1 X106.26 Y116.662 E5481.06373
G1 X107.265 Y115.732 E5491.33332
G1 X108.232 Y114.765 E5501.5899
G1 X109.162 Y113.76 E5511.8595
G1 X110.052 Y112.722 E5522.11434
G1 X110.904 Y111.649 E5532.39025
G1 X111.296 Y111.111 E5537.38273
G1 X111.71 Y110.549 E5542.61792
G1 X112.479 Y109.41 E5552.92512
G1 X112.826 Y108.847 E5557.88521
G1 X113.198 Y108.251 E5563.15447
G1 X113.528 Y107.668 E5568.17884
G1 X113.874 Y107.063 E5573.40598
G1 X114.505 Y105.847 E5583.68075
G1 X115.088 Y104.609 E5593.94379
G1 X115.624 Y103.351 E5604.1995
G1 X116.11 Y102.072 E5614.46118
G1 X116.549 Y100.777 E5624.71658
G1 X116.936 Y99.463 E5634.99012
G1 X117.274 Y98.138 E5645.24585
G1 X117.56 Y96.8 E5655.50754
G1 X117.794 Y95.452 E5665.76874
G1 X117.977 Y94.097 E5676.0235
G1 X118.108 Y92.735 E5686.28564
G1 X118.187 Y91.368 E5696.55525
G1 X118.212 Y90 E5706.81696
G1 X118.187 Y88.632 E5717.07867
G1 X118.108 Y87.265 E5727.34828
G1 X117.977 Y85.903 E5737.61042
G1 X117.794 Y84.548 E5747.86518
G1 X117.56 Y83.2 E5758.12638
G1 X117.274 Y81.862 E5768.38807
G1 X116.936 Y80.537 E5778.6438
G1 X116.549 Y79.223 E5788.91734
G1 X116.11 Y77.928 E5799.17274
G1 X115.624 Y76.649 E5809.43442
G1 X115.088 Y75.391 E5819.69013
G1 X114.505 Y74.153 E5829.95317
G1 X113.875 Y72.94 E5840.20452
G1 X113.197 Y71.747 E5850.49602
G1 X112.846 Y71.184 E5855.47192
G1 X112.477 Y70.587 E5860.73567
G1 X112.102 Y70.034 E5865.74684
G1 X111.713 Y69.456 E5870.97217
G1 X110.902 Y68.349 E5881.26432
G1 X110.052 Y67.278 E5891.51916
G1 X109.162 Y66.24 E5901.774
G1 X108.232 Y65.235 E5912.04359
G1 X107.265 Y64.268 E5922.30018
G1 X106.26 Y63.338 E5932.56977
G1 X105.222 Y62.448 E5942.82462
G1 X104.149 Y61.596 E5953.10053
G1 X103.611 Y61.204 E5958.093
G1 X103.049 Y60.79 E5963.3282
G1 X101.91 Y60.021 E5973.6354
G1 X101.334 Y59.666 E5978.70997
G1 X100.751 Y59.302 E5983.86474
G1 X100.168 Y58.972 E5988.88912
G1 X99.563 Y58.626 E5994.11625
G1 X98.347 Y57.995 E6004.39103
G1 X97.109 Y57.412 E6014.65407
G1 X95.851 Y56.876 E6024.90978
G1 X94.572 Y56.39 E6035.17146
G1 X93.277 Y55.951 E6045.42686
G1 X91.963 Y55.564 E6055.70039
G1 X90.638 Y55.226 E6065.95613
G1 X89.3 Y54.94 E6076.21782
G1 X87.952 Y54.706 E6086.47901
G1 X86.597 Y54.523 E6096.73378
G1 X85.235 Y54.392 E6106.99592
G1 X83.868 Y54.313 E6117.26552
G1 X82.5 Y54.288 E6127.52724
G1 X81.132 Y54.313 E6137.78895
G1 X79.765 Y54.392 E6148.05856
G1 X78.403 Y54.523 E6158.3207
G1 X77.048 Y54.706 E6168.57546
G1 X75.7 Y54.94 E6178.83665
G1 X74.362 Y55.226 E6189.09834
G1 X73.037 Y55.564 E6199.35408
G1 X71.723 Y55.951 E6209.62761
G1 X70.428 Y56.39 E6219.88301
G1 X69.149 Y56.876 E6230.14469
G1 X67.891 Y57.412 E6240.40041
G1 X66.653 Y57.995 E6250.66345
G1 X65.44 Y58.625 E6260.91479
G1 X64.247 Y59.303 E6271.20629
G1 X63.684 Y59.654 E6276.18219
G1 X63.087 Y60.023 E6281.44594
G1 X62.534 Y60.398 E6286.45712
G1 X61.956 Y60.787 E6291.68245
G1 X60.849 Y61.598 E6301.97459
G1 X59.778 Y62.448 E6312.22943
G1 X58.74 Y63.338 E6322.48428
G1 X57.735 Y64.268 E6332.75387
G1 X56.768 Y65.235 E6343.01045
G1 X55.838 Y66.24 E6353.28005
G1 X54.948 Y67.278 E6363.53489
G1 X54.096 Y68.351 E6373.8108
G1 X53.704 Y68.889 E6378.80328
G1 X53.29 Y69.451 E6384.03847
G1 X52.521 Y70.59 E6394.34567
G1 X52.174 Y71.153 E6399.30576
G1 X51.802 Y71.749 E6404.57501
G1 X51.472 Y72.332 E6409.59939
G1 X51.126 Y72.937 E6414.82653
G1 X50.495 Y74.153 E6425.1013
G1 X49.912 Y75.391 E6435.36434
G1 X49.376 Y76.649 E6445.62005
G1 X48.89 Y77.928 E6455.88173
G1 X48.451 Y79.223 E6466.13713
G1 X48.064 Y80.537 E6476.41067
G1 X47.726 Y81.862 E6486.6664
G1 X47.44 Y83.2 E6496.92809
G1 X47.206 Y84.548 E6507.18929
G1 X47.023 Y85.903 E6517.44405
G1 X46.892 Y87.265 E6527.70619
G1 X46.813 Y88.632 E6537.9758
G1 X46.788 Y90 E6548.23751
G1 X46.813 Y91.368 E6558.49922
G1 X46.892 Y92.735 E6568.76883
G1 X47.023 Y94.097 E6579.03097
G1 X47.206 Y95.452 E6589.28573
G1 X47.44 Y96.8 E6599.54693
G1 X47.726 Y98.138 E6609.80862
G1 X48.064 Y99.463 E6620.06435
G1 X48.451 Y100.777 E6630.33789
G1 X48.89 Y102.072 E6640.59329
G1 X49.376 Y103.351 E6650.85497
G1 X49.912 Y104.609 E6661.11068
G1 X50.495 Y105.847 E6671.37372
G1 X51.125 Y107.06 E6681.62507
G1 X51.803 Y108.253 E6691.91657
G1 X52.154 Y108.816 E6696.89247
G1 X52.523 Y109.413 E6702.15621
G1 X52.898 Y109.966 E6707.16739
G1 X53.287 Y110.544 E6712.39272
G1 X54.098 Y111.651 E6722.68487
G1 X54.948 Y112.722 E6732.9397
G1 X55.838 Y113.76 E6743.19455
G1 X56.768 Y114.765 E6753.46414
G1 X57.735 Y115.732 E6763.72073
G1 X58.74 Y116.662 E6773.99032
G1 X59.778 Y117.552 E6784.24516
G1 X60.851 Y118.404 E6794.52108
G1 X61.389 Y118.796 E6799.51355
G1 X61.951 Y119.21 E6804.74875
G1 X63.09 Y119.979 E6815.05595
G1 X63.653 Y120.326 E6820.01604
G1 X64.249 Y120.698 E6825.28529
G1 X64.832 Y121.028 E6830.30967
G1 X65.437 Y121.374 E6835.5368
G1 X66.653 Y122.005 E6845.81157
G1 X67.891 Y122.588 E6856.07461
G1 X69.149 Y123.124 E6866.33032
G1 X70.428 Y123.61 E6876.592
G1 X71.723 Y124.049 E6886.8474
G1 X73.037 Y124.436 E6897.12094
G1 X74.362 Y124.774 E6907.37668
G1 X75.7 Y125.06 E6917.63836
G1 X77.048 Y125.294 E6927.89956
G1 X78.403 Y125.477 E6938.15432
G1 X79.765 Y125.608 E6948.41646
G1 X81.132 Y125.687 E6958.68607
G0 F7200 X81.332 Y125.69
G0 X81.33 Y125.79
G0 X83.805 Y125.908
G0 X83.808 Y126.007
G1 F1800 X82.5 Y126.03 E6959.35906
G1 X81.192 Y126.007 E6960.03206
G1 X79.943 Y125.94 E6961.22702
G1 X78.639 Y125.823 E6963.36378
G1 X77.379 Y125.664 E6965.92944
G1 X76.113 Y125.46 E6969.44112
G1 X74.828 Y125.204 E6973.63786
G1 X73.601 Y124.914 E6978.14183
G1 X72.349 Y124.57 E6983.26984
G1 X71.117 Y124.185 E6988.06245
G1 X69.905 Y123.757 E6992.14101
G1 X68.706 Y123.286 E6995.51356
G1 X67.533 Y122.775 E6998.09483
G1 X66.384 Y122.225 E6999.83881
G1 X65.226 Y121.62 E7001.00728
G1 X64.118 Y120.988 E7006.2627
G1 X63.011 Y120.305 E7009.22423
G1 X61.943 Y119.591 E7010.70822
G1 X60.918 Y118.853 E7013.4558
G1 X59.886 Y118.05 E7016.40479
G1 X58.922 Y117.245 E7019.8461
G1 X57.953 Y116.375 E7024.38527
G1 X57.024 Y115.476 E7029.44387
G1 X56.125 Y114.547 E7034.51701
G1 X55.255 Y113.578 E7039.22234
G1 X54.45 Y112.614 E7042.96594
G1 X53.647 Y111.582 E7046.16647
G1 X52.909 Y110.557 E7048.41394
G1 X52.195 Y109.489 E7051.4041
G1 X51.512 Y108.382 E7054.25915
G1 X50.88 Y107.274 E7054.52683
G1 X50.275 Y106.116 E7055.68492
G1 X49.725 Y104.967 E7057.40526
G1 X49.214 Y103.794 E7059.98653
G1 X48.736 Y102.577 E7063.35953
G1 X48.319 Y101.396 E7067.08933
G1 X47.93 Y100.151 E7071.60487
G1 X47.586 Y98.899 E7076.66159
G1 X47.296 Y97.672 E7081.47509
G1 X47.038 Y96.379 E7085.92993
G1 X46.907 Y95.57
G1 X46.832 Y95.094
G1 X46.677 Y93.861 E7088.69591
G1 X46.56 Y92.557 E7090.91195
G1 X46.493 Y91.308 E7092.10692
G1 X46.47 Y90 E7092.77991
G1 X46.493 Y88.692 E7093.45291
G1 X46.56 Y87.443 E7094.59946
G1 X46.677 Y86.139 E7096.69079
G1 X46.836 Y84.879 E7099.38588
G1 X47.04 Y83.613 E7102.84591
G1 X47.296 Y82.328 E7106.88741
G1 X47.586 Y81.101 E7111.61111
G1 X47.93 Y79.849 E7116.73912
G1 X48.315 Y78.617 E7121.53173
G1 X48.743 Y77.405 E7125.61029
G1 X49.214 Y76.206 E7128.98284
G1 X49.725 Y75.033 E7131.56411
G1 X50.275 Y73.884 E7133.30809
G1 X50.88 Y72.726 E7134.47656
G1 X51.512 Y71.618 E7139.73198
G1 X52.195 Y70.511 E7142.6935
G1 X52.909 Y69.443 E7144.12403
G1 X53.647 Y68.418 E7146.82676
G1 X54.45 Y67.386 E7149.77575
G1 X55.255 Y66.422 E7153.39983
G1 X56.125 Y65.453 E7157.89891
G1 X57.024 Y64.524 E7162.99822
G1 X57.953 Y63.625 E7168.07136
G1 X58.922 Y62.755 E7172.77669
G1 X59.886 Y61.95 E7176.52029
G1 X60.924 Y61.143 E7179.77746
G1 X61.949 Y60.405 E7182.0801
G1 X63.011 Y59.695 E7185.03671
G1 X64.118 Y59.012 E7187.89176
G1 X65.226 Y58.38 E7188.15944
G1 X66.384 Y57.775 E7189.31753
G1 X67.533 Y57.225 E7191.03787
G1 X68.706 Y56.714 E7193.5046
G1 X69.923 Y56.236 E7196.77113
G1 X71.104 Y55.819 E7200.69219
G1 X72.349 Y55.43 E7205.59453
G1 X73.601 Y55.086 E7210.74927
G1 X74.828 Y54.796 E7215.56277
G1 X76.121 Y54.538 E7220.01762
G1 X76.93 Y54.407
G1 X77.393 Y54.334
G1 X78.639 Y54.177 E7222.78229
G1 X79.943 Y54.06 E7224.99834
G1 X81.192 Y53.993 E7226.1933
G1 X82.5 Y53.97 E7226.8663
G1 X83.808 Y53.993 E7227.53343
G1 X85.057 Y54.06 E7228.6747
G1 X86.361 Y54.177 E7230.76604
G1 X87.621 Y54.336 E7233.46112
G1 X88.887 Y54.54 E7237.08949
G1 X90.172 Y54.796 E7241.28623
G1 X91.399 Y55.086 E7245.7902
G1 X92.651 Y55.43 E7250.91821
G1 X93.883 Y55.815 E7255.71083
G1 X95.095 Y56.243 E7259.78939
G1 X96.294 Y56.714 E7263.16194
G1 X97.467 Y57.225 E7265.7432
G1 X98.616 Y57.775 E7267.48718
G1 X99.774 Y58.38 E7268.65565
G1 X100.882 Y59.012 E7273.91059
G1 X101.989 Y59.695 E7276.93195
G1 X103.051 Y60.405 E7278.37283
G1 X104.076 Y61.143 E7281.07114
G1 X105.114 Y61.95 E7284.07308
G1 X106.078 Y62.755 E7287.51439
G1 X107.047 Y63.625 E7292.05356
G1 X107.976 Y64.524 E7297.11216
G1 X108.875 Y65.453 E7302.39436
G1 X109.745 Y66.422 E7307.09969
G1 X110.55 Y67.386 E7310.84328
G1 X111.353 Y68.418 E7314.04381
G1 X112.091 Y69.443 E7316.29128
G1 X112.805 Y70.511 E7319.0837
G1 X113.488 Y71.618 E7321.93875
G1 X114.12 Y72.726 E7322.21338
G1 X114.725 Y73.884 E7323.40377
G1 X115.275 Y75.033 E7325.07937
G1 X115.786 Y76.206 E7327.59837
G1 X116.264 Y77.423 E7330.82558
G1 X116.681 Y78.604 E7334.42911
G1 X117.07 Y79.849 E7339.15748
G1 X117.414 Y81.101 E7344.31222
G1 X117.704 Y82.328 E7349.12572
G1 X117.962 Y83.621 E7353.58057
G1 X118.093 Y84.43
G1 X118.168 Y84.906
G1 X118.323 Y86.139 E7356.34654
G1 X118.44 Y87.443 E7358.56259
G1 X118.507 Y88.692 E7359.75755
G1 X118.53 Y90 E7360.43055
G1 X118.507 Y91.308 E7361.09768
G1 X118.44 Y92.557 E7362.28736
G1 X118.323 Y93.861 E7364.42413
G1 X118.164 Y95.121 E7366.98978
G1 X117.96 Y96.387 E7370.50146
G1 X117.704 Y97.672 E7374.6982
G1 X117.414 Y98.899 E7379.20217
G1 X117.07 Y100.151 E7384.33018
G1 X116.685 Y101.383 E7389.12279
G1 X116.257 Y102.595 E7393.20135
G1 X115.786 Y103.794 E7396.57391
G1 X115.275 Y104.967 E7399.15517
G1 X114.725 Y106.116 E7400.89915
G1 X114.12 Y107.274 E7402.06762
G1 X113.488 Y108.382 E7407.32256
G1 X112.805 Y109.489 E7410.28334
G1 X112.091 Y110.557 E7411.78135
G1 X111.353 Y111.582 E7414.52893
G1 X110.55 Y112.614 E7417.47793
G1 X109.745 Y113.578 E7421.10201
G1 X108.875 Y114.547 E7425.80734
G1 X107.976 Y115.476 E7430.86595
G1 X107.047 Y116.375 E7436.14814
G1 X106.078 Y117.245 E7440.85347
G1 X105.114 Y118.05 E7444.59707
G1 X104.082 Y118.853 E7447.79759
G1 X103.057 Y119.591 E7450.04507
G1 X101.989 Y120.305 E7453.03523
G1 X100.882 Y120.988 E7456.15262
G1 X99.774 Y121.62 E7456.4203
G1 X98.616 Y122.225 E7457.60423
G1 X97.467 Y122.775 E7459.27982
G1 X96.294 Y123.286 E7461.79883
G1 X95.077 Y123.764 E7465.02604
G1 X93.896 Y124.181 E7468.82084
G1 X92.651 Y124.57 E7473.72317
G1 X91.399 Y124.914 E7479.10867
G1 X90.172 Y125.204 E7483.99703
G1 X88.879 Y125.462 E7488.45187
G1 X88.07 Y125.593
G1 X87.607 Y125.666
G1 X86.361 Y125.823 E7491.21655
G1 X85.057 Y125.94 E7493.43259
G1 X83.808 Y126.007 E7494.62756
G0 F7200 X83.608 Y126.01
;MESH:NONMESH
G0 F600 X83.608 Y126.01 Z15.3
G0 F7200 X83.608 Y125.91
G0 X81.644 Y125.915
G0 X81.638 Y126.246
;TIME_ELAPSED:117.615714
;LAYER:10
;TYPE:WALL-OUTER
;MESH:Vaza_zakljucna.STL
G1 F1800 X82.497 Y126.264 E7501.07147
G1 X83.89 Y126.239 E7511.52066
G1 X85.277 Y126.158 E7521.94088
G1 X86.66 Y126.025 E7532.36123
G1 X88.036 Y125.839 E7542.77509
G1 X89.405 Y125.602 E7553.19531
G1 X90.764 Y125.311 E7563.61886
G1 X92.109 Y124.968 E7574.02921
G1 X93.446 Y124.574 E7584.48305
G1 X93.926 Y124.41 E7588.28738
G1 X94.757 Y124.131 E7594.86177
G1 X96.057 Y123.635 E7605.29733
G1 X97.334 Y123.092 E7615.70472
G1 X98.593 Y122.499 E7626.1422
G1 X99.825 Y121.859 E7636.55458
G1 X101.032 Y121.172 E7646.97072
G1 X102.212 Y120.439 E7657.38922
G1 X103.363 Y119.662 E7667.80458
G1 X104.485 Y118.841 E7678.23181
G1 X105.573 Y117.978 E7688.64713
G1 X106.627 Y117.074 E7699.06142
G1 X107.65 Y116.127 E7709.51669
G1 X108.632 Y115.146 E7719.92707
G1 X108.977 Y114.77 E7723.75428
G1 X109.573 Y114.129 E7730.31881
G1 X110.478 Y113.073 E7740.74936
G1 X111.341 Y111.985 E7751.16468
G1 X112.162 Y110.863 E7761.59191
G1 X112.939 Y109.712 E7772.00727
G1 X113.675 Y108.528 E7782.46312
G1 X113.924 Y108.086 E7786.26796
G1 X114.357 Y107.327 E7792.82165
G1 X114.999 Y106.093 E7803.25425
G1 X115.592 Y104.834 E7813.69173
G1 X116.135 Y103.557 E7824.09912
G1 X116.63 Y102.259 E7834.518
G1 X117.076 Y100.938 E7844.97494
G1 X117.218 Y100.45 E7848.78674
G1 X117.468 Y99.612 E7855.34546
G1 X117.811 Y98.264 E7865.77761
G1 X118.102 Y96.905 E7876.20116
G1 X118.339 Y95.536 E7886.62139
G1 X118.525 Y94.16 E7897.03524
G1 X118.658 Y92.777 E7907.4556
G1 X118.739 Y91.385 E7917.91326
G1 X118.746 Y90.862 E7921.83611
G1 X118.764 Y90.003 E7928.28002
G1 X118.739 Y88.61 E7938.7292
G1 X118.658 Y87.223 E7949.14943
G1 X118.525 Y85.84 E7959.56978
G1 X118.339 Y84.464 E7969.98364
G1 X118.102 Y83.095 E7980.40386
G1 X117.811 Y81.736 E7990.82741
G1 X117.468 Y80.391 E8001.23776
G1 X117.074 Y79.054 E8011.6916
G1 X116.906 Y78.562 E8015.5908
G1 X116.631 Y77.743 E8022.07032
G1 X116.135 Y76.443 E8032.50588
G1 X115.592 Y75.166 E8042.91327
G1 X114.999 Y73.907 E8053.35075
G1 X114.359 Y72.675 E8063.76313
G1 X113.672 Y71.468 E8074.17927
G1 X112.939 Y70.288 E8084.59776
