;FLAVOR:UltiGCode
;TIME:366
;MATERIAL:55949
;MATERIAL2:0
;NOZZLE_DIAMETER:0.4
;MINX:6.044
;MINY:4.477
;MINZ:0.3
;MAXX:67.133
;MAXY:64.711
;MAXZ:100.617
;Generated with Cura_SteamEngine main
M82 ;absolute extrusion mode
G28 ;Home
G1 Z15.0 F6000 ;Move the platform down 15mm
;Prime the extruder
G92 E0
G1 F200 E3
G92 E0
M83 ;relative extrusion mode
G10
;LAYER_COUNT:96
;LAYER:0
M107
;MESH:Solid_vaza_primer2.STL
G0 F1800 X11.362 Y20.417 Z0.3
;TYPE:WALL-OUTER
G11
G1 X23.872 Y9.756 E20.66062
G1 X36.011 Y6.054 E15.95252
G1 X50.91 Y9.866 E19.33132
G1 X59.812 Y18.973 E16.00803
G1 X65.433 Y31.916 E17.73737
G1 X62.249 Y45.655 E17.72762
G1 X55.141 Y56.23 E16.01648
G1 X43.574 Y61.57 E16.01435
G1 X33.491 Y62.26 E12.70397
G1 X21.304 Y58.544 E16.01537
G1 X11.068 Y47.07 E19.32792
G1 X8.761 Y34.541 E16.01371
G1 X11.362 Y20.417 E18.0524
G1 X23.872 Y9.756 Z0.328 E20.66065
G1 X36.011 Y6.054 Z0.35 E15.95254
G1 X50.91 Y9.866 Z0.376 E19.33134
G1 X59.812 Y18.973 Z0.397 E16.00806
G1 X65.433 Y31.916 Z0.421 E17.7374
G1 X62.249 Y45.655 Z0.445 E17.72765
G1 X55.141 Y56.23 Z0.467 E16.01651
G1 X43.574 Y61.57 Z0.489 E16.01438
G1 X33.491 Y62.26 Z0.506 E12.70399
G1 X21.304 Y58.544 Z0.528 E16.01539
G1 X11.068 Y47.07 Z0.554 E19.32795
G1 X8.761 Y34.541 Z0.576 E16.01373
G1 X11.362 Y20.417 Z0.6 E18.05243
;TIME_ELAPSED:14.113439
;LAYER:1
M106 S255
;MESH:Solid_vaza_primer2.STL
G0 F2700 X11.362 Y20.417 Z1.35
;TYPE:WALL-OUTER
G1 F2100 X24.839 Y9.326 Z1.453 E76.78992
G1 X38.455 Y6.663 Z1.534 E61.03957
G1 X52.826 Y11.781 Z1.624 E67.1162
G1 X61.112 Y21.081 Z1.697 E54.80038
G1 X64.825 Y37.009 Z1.794 E71.95529
G1 X59.698 Y49.971 Z1.876 E61.3263
G1 X47.386 Y60.944 Z1.973 E72.55861
G1 X30.957 Y61.822 Z2.07 E72.38379
G1 X18.067 Y56.428 Z2.152 E61.47568
G1 X9.246 Y42.236 Z2.25 E73.51675
G1 X9.139 Y29.524 Z2.325 E55.9294
G1 X14.175 Y17.828 Z2.4 E56.02472
;TIME_ELAPSED:19.387909
;LAYER:2
;TYPE:WALL-OUTER
;MESH:Solid_vaza_primer2.STL
G1 F2400 X23.495 Y9.166 Z2.477 E55.97896
G1 X33.473 Y7.081 Z2.539 E44.84719
G1 X49.368 Y9.959 Z2.638 E71.06843
G1 X59.944 Y18.854 Z2.722 E60.79909
G1 X64.291 Y30.822 Z2.799 E56.01988
G1 X64.048 Y40.865 Z2.86 E44.19793
G1 X57.866 Y53.356 Z2.945 E61.31732
G1 X46.11 Y61.317 Z3.031 E62.46491
G1 X36.012 Y62.438 Z3.093 E44.69989
G1 X26.084 Y60.495 Z3.154 E44.50767
G1 X14.235 Y52.835 Z3.24 E62.07534
G1 X8.94 Y39.649 Z3.326 E62.51549
G1 X8.93 Y29.438 Z3.388 E44.92414
G1 X12.524 Y19.977 Z3.45 E44.52659
;TIME_ELAPSED:23.716566
;LAYER:3
;TYPE:WALL-OUTER
;MESH:Solid_vaza_primer2.STL
G1 X20.984 Y11.893 Z3.521 E51.48124
G1 X33.418 Y6.503 Z3.603 E59.62308
G1 X46.299 Y7.829 Z3.682 E56.9705
G1 X56.632 Y15.016 Z3.758 E55.37599
G1 X62.154 Y23.44 Z3.819 E44.315
G1 X65.019 Y37.17 Z3.904 E61.70734
G1 X60.157 Y50.298 Z3.989 E61.59153
G1 X50.714 Y58.882 Z4.066 E56.14514
G1 X38.519 Y62.682 Z4.144 E56.19732
G1 X28.463 Y61.554 Z4.205 E44.51964
G1 X17.32 Y55.243 Z4.283 E56.34131
G1 X10.209 Y44.572 Z4.36 E56.41705
G1 X8.334 Y34.591 Z4.422 E44.68035
G1 X11.199 Y22.022 Z4.5 E56.71672
;TIME_ELAPSED:28.057102
;LAYER:4
;TYPE:WALL-OUTER
;MESH:Solid_vaza_primer2.STL
G1 X21.164 Y10.123 Z4.592 E68.28385
G1 X33.456 Y6.317 Z4.669 E56.61266
G1 X47.426 Y7.713 Z4.752 E61.7682
G1 X60.287 Y18.874 Z4.853 E74.91865
G1 X65.068 Y33.212 Z4.943 E66.49569
G1 X61.421 Y48.232 Z5.035 E68.00174
G1 X54.916 Y55.991 Z5.095 E44.54604
G1 X46.168 Y61.106 Z5.155 E44.58375
G1 X29.605 Y62.915 Z5.254 E73.30355
G1 X17.197 Y55.382 Z5.34 E63.86279
G1 X11.09 Y47.044 Z5.402 E45.47081
G1 X8.265 Y37.131 Z5.463 E45.34942
G1 X9.559 Y22.496 Z5.55 E64.63901
;TIME_ELAPSED:32.488116
;LAYER:5
;TYPE:WALL-OUTER
;MESH:Solid_vaza_primer2.STL
G1 X19.629 Y12.048 Z5.635 E63.84171
G1 X33.464 Y6.145 Z5.722 E66.17705
G1 X43.77 Y6.841 Z5.783 E45.44532
G1 X52.981 Y11.36 Z5.842 E45.13882
G1 X61.907 Y20.589 Z5.917 E56.48751
G1 X65.197 Y36.992 Z6.015 E73.60353
G1 X60.307 Y50.415 Z6.098 E62.8522
G1 X50.939 Y59.629 Z6.175 E57.81002
G1 X35.934 Y63.049 Z6.265 E67.70865
G1 X23.137 Y60.309 Z6.341 E57.57744
G1 X9.586 Y46.606 Z6.453 E84.78766
G1 X8.085 Y31.933 Z6.539 E64.89185
G1 X10.855 Y21.91 Z6.6 E45.74997
;TIME_ELAPSED:36.999998
;LAYER:6
;TYPE:WALL-OUTER
;MESH:Solid_vaza_primer2.STL
G1 X17.061 Y13.515 Z6.661 E45.9309
G1 X29.776 Y7.037 Z6.745 E62.78239
G1 X47.432 Y7.959 Z6.848 E77.78473
G1 X58.823 Y16.553 Z6.932 E62.77869
G1 X63.787 Y25.562 Z6.992 E45.25436
G1 X65.616 Y40.001 Z7.078 E64.03311
G1 X57.113 Y54.534 Z7.176 E74.07884
G1 X42.631 Y63.283 Z7.276 E74.43914
G1 X25.72 Y61.241 Z7.376 E74.94167
G1 X17.143 Y55.592 Z7.436 E45.18433
G1 X8.842 Y42.237 Z7.528 E69.1815
G1 X7.888 Y31.914 Z7.589 E45.61035
G1 X10.702 Y21.835 Z7.65 E46.03916
;TIME_ELAPSED:41.489204
;LAYER:7
;TYPE:WALL-OUTER
;MESH:Solid_vaza_primer2.STL
G1 X19.029 Y11.985 Z7.725 E56.74623
G1 X34.771 Y5.67 Z7.824 E74.62304
G1 X51.151 Y9.502 Z7.922 E74.01081
G1 X61.572 Y19.634 Z8.007 E63.94608
G1 X65.591 Y35.919 Z8.104 E73.79668
G1 X63.056 Y45.854 Z8.164 E45.11023
G1 X50.558 Y60.483 Z8.276 E84.65125
G1 X36.033 Y63.373 Z8.362 E65.15645
G1 X25.709 Y61.392 Z8.424 E46.24985
G1 X16.872 Y55.744 Z8.485 E46.14155
G1 X10.72 Y47.222 Z8.546 E46.24193
G1 X7.085 Y34.534 Z8.623 E58.06748
G1 X10.58 Y21.775 Z8.7 E58.20208
;TIME_ELAPSED:46.006042
;LAYER:8
;TYPE:WALL-OUTER
;MESH:Solid_vaza_primer2.STL
G1 X20.989 Y10.082 Z8.789 E68.87451
G1 X33.24 Y5.179 Z8.864 E58.05541
G1 X46.479 Y7.616 Z8.941 E59.22453
G1 X59.26 Y16.236 Z9.029 E67.82455
G1 X63.97 Y25.472 Z9.088 E45.61314
G1 X65.499 Y39.811 Z9.17 E63.44309
G1 X58.83 Y52.576 Z9.252 E63.36311
G1 X51.529 Y59.908 Z9.311 E45.52288
G1 X35.907 Y63.642 Z9.402 E70.66615
G1 X21.522 Y60.288 Z9.487 E64.98536
G1 X10.467 Y47.315 Z9.584 E74.98808
G1 X6.833 Y34.364 Z9.66 E59.17943
G1 X11.752 Y19.394 Z9.75 E69.32606
;TIME_ELAPSED:50.625793
;LAYER:9
;TYPE:WALL-OUTER
;MESH:Solid_vaza_primer2.STL
G1 X19.148 Y11.778 Z9.812 E46.70689
G1 X28.373 Y7.239 Z9.872 E45.23293
G1 X38.575 Y5.809 Z9.933 E45.32327
G1 X51.059 Y9.568 Z10.009 E57.36012
G1 X59.329 Y16.13 Z10.071 E46.44684
G1 X65.132 Y27.88 Z10.147 E57.65579
G1 X65.449 Y41.234 Z10.226 E58.7685
G1 X57.78 Y55.115 Z10.318 E69.77116
G1 X43.758 Y62.491 Z10.411 E69.70542
G1 X33.413 Y63.508 Z10.472 E45.73302
G1 X20.769 Y59.299 Z10.55 E58.62942
G1 X9.042 Y46.848 Z10.65 E75.25073
G1 X7.483 Y31.879 Z10.738 E66.21345
G1 X10.325 Y21.702 Z10.8 E46.48757
;TIME_ELAPSED:55.121478
;LAYER:10
;TYPE:WALL-OUTER
;MESH:Solid_vaza_primer2.STL
G1 X16.969 Y13.481 Z10.861 E46.50405
G1 X30.819 Y6.13 Z10.951 E68.98492
G1 X43.765 Y6.541 Z11.025 E56.98555
G1 X55.469 Y12.469 Z11.1 E57.72077
G1 X62.129 Y20.599 Z11.16 E46.23791
G1 X65.748 Y30.528 Z11.221 E46.4946
G1 X64.298 Y44.985 Z11.304 E63.92373
G1 X55.795 Y56.83 Z11.388 E64.15009
G1 X37.802 Y64.572 Z11.5 E86.17846
G1 X19.313 Y59.223 Z11.611 E84.67949
G1 X10.156 Y47.544 Z11.696 E65.29322
G1 X6.672 Y34.533 Z11.773 E59.25953
G1 X10.216 Y21.597 Z11.85 E59.01007
;TIME_ELAPSED:59.709294
;LAYER:11
;TYPE:WALL-OUTER
;MESH:Solid_vaza_primer2.STL
G1 X14.945 Y15.18 Z11.896 E35.07024
G1 X26.007 Y8.037 Z11.973 E57.93262
G1 X35.999 Y5.492 Z12.032 E45.36407
G1 X46.513 Y6.771 Z12.094 E46.59814
G1 X58.82 Y15.049 Z12.18 E65.25438
G1 X66.194 Y32.951 Z12.292 E85.18119
G1 X63.972 Y46.429 Z12.371 E60.09788
G1 X55.782 Y56.963 Z12.448 E58.70443
G1 X43.822 Y62.927 Z12.526 E58.79829
G1 X28.941 Y63.752 Z12.612 E65.57059
G1 X11.561 Y51.713 Z12.735 E93.01765
G1 X7.265 Y37.273 Z12.822 E66.28176
G1 X9.086 Y23.978 Z12.9 E59.03846
;TIME_ELAPSED:64.249037
;LAYER:12
;TYPE:WALL-OUTER
;MESH:Solid_vaza_primer2.STL
G1 X18.881 Y11.741 Z12.988 E68.96052
G1 X30.638 Y6.034 Z13.062 E57.49767
G1 X46.634 Y6.733 Z13.152 E70.44267
G1 X55.843 Y12.045 Z13.212 E46.77284
G1 X62.29 Y20.453 Z13.272 E46.61433
G1 X65.952 Y30.529 Z13.332 E47.16699
G1 X65.225 Y41.157 Z13.392 E46.86789
G1 X58.66 Y54.929 Z13.478 E67.12296
G1 X41.297 Y63.623 Z13.587 E85.43091
G1 X27.88 Y62.996 Z13.663 E59.09346
G1 X18.638 Y57.819 Z13.723 E46.60553
G1 X10.049 Y47.517 Z13.798 E59.01036
G1 X6.487 Y34.554 Z13.874 E59.14554
G1 X10.049 Y21.515 Z13.95 E59.46802
;TIME_ELAPSED:68.920291
;LAYER:13
;TYPE:WALL-OUTER
;MESH:Solid_vaza_primer2.STL
G1 X23.145 Y8.537 Z14.053 E81.11613
G1 X37.232 Y5.627 Z14.133 E63.28525
G1 X51.302 Y9.178 Z14.215 E63.84298
G1 X59.336 Y15.966 Z14.273 E46.27334
G1 X66.03 Y30.505 Z14.363 E70.41953
G1 X63.609 Y46.298 Z14.452 E70.29404
G1 X55.9 Y57.101 Z14.526 E58.389
G1 X43.86 Y63.088 Z14.601 E59.15837
G1 X33.404 Y63.795 Z14.66 E46.10694
G1 X18.389 Y57.924 Z14.75 E70.92984
G1 X11.385 Y49.951 Z14.81 E46.69035
G1 X6.272 Y34.723 Z14.899 E70.67228
G1 X11.118 Y17.37 Z15 E79.2668
;TIME_ELAPSED:73.640833
;LAYER:14
;TYPE:WALL-OUTER
;MESH:Solid_vaza_primer2.STL
G1 X30.76 Y5.734 Z15.126 E100.44171
G1 X43.875 Y6.004 Z15.198 E57.71254
G1 X57.825 Y14.026 Z15.286 E70.79816
G1 X65.423 Y27.186 Z15.37 E66.85536
G1 X63.896 Y46.46 Z15.476 E85.06295
G1 X57.739 Y55.202 Z15.535 E47.04271
G1 X48.986 Y61.277 Z15.593 E46.87563
G1 X38.725 Y64.05 Z15.652 E46.76342
G1 X25.562 Y61.779 Z15.725 E58.76707
G1 X14.496 Y54.251 Z15.799 E58.8831
G1 X8.955 Y45.108 Z15.858 E47.0357
G1 X6.791 Y34.523 Z15.917 E47.53264
G1 X8.832 Y23.983 Z15.976 E47.23284
G1 X16.303 Y12.815 Z16.05 E59.11487
;TIME_ELAPSED:78.425083
;LAYER:15
;TYPE:WALL-OUTER
;MESH:Solid_vaza_primer2.STL
G1 X34.497 Y5.258 Z16.161 E86.67598
G1 X51.149 Y9.543 Z16.257 E75.64832
G1 X59.499 Y15.8 Z16.316 E45.906
G1 X66.157 Y30.481 Z16.406 E70.92191
G1 X62.684 Y49.736 Z16.516 E86.08067
G1 X51.55 Y60.169 Z16.602 E67.12963
G1 X32.336 Y64.556 Z16.712 E86.70874
G1 X18.487 Y57.931 Z16.798 E67.5424
G1 X11.293 Y50.023 Z16.858 E47.03428
G1 X7.017 Y37.243 Z16.934 E59.29024
G1 X8.785 Y23.969 Z17.009 E58.91562
G1 X18.416 Y10.961 Z17.1 E71.20839
;TIME_ELAPSED:83.113760
;LAYER:16
;TYPE:WALL-OUTER
;MESH:Solid_vaza_primer2.STL
G1 X30.56 Y5.35 Z17.174 E58.85563
G1 X43.911 Y6.258 Z17.249 E58.87433
G1 X53.605 Y10.318 Z17.307 E46.23885
G1 X63.322 Y23.065 Z17.397 E70.51758
G1 X66.06 Y33.12 Z17.455 E45.84841
G1 X64.252 Y46.645 Z17.531 E60.03347
G1 X52.92 Y60.118 Z17.629 E77.45439
G1 X38.673 Y64.065 Z17.711 E65.0416
G1 X21.619 Y61.074 Z17.807 E76.17544
G1 X11.138 Y50.066 Z17.892 E66.87163
G1 X6.381 Y37.303 Z17.968 E59.92516
G1 X9.377 Y20.997 Z18.06 E72.94022
G1 X20.599 Y9.346 Z18.15 E71.1696
;TIME_ELAPSED:87.840817
;LAYER:17
;TYPE:WALL-OUTER
;MESH:Solid_vaza_primer2.STL
G1 X28.081 Y6.277 Z18.197 E35.57923
G1 X41.486 Y5.404 Z18.276 E59.10125
G1 X55.673 Y11.934 Z18.368 E68.71117
G1 X64.035 Y22.617 Z18.447 E59.68677
G1 X66.257 Y39.769 Z18.549 E76.09212
G1 X57.993 Y55.728 Z18.654 E79.06801
G1 X44.062 Y63.287 Z18.747 E69.73171
G1 X27.872 Y62.951 Z18.842 E71.24447
G1 X18.354 Y58.199 Z18.905 E46.8041
G1 X9.843 Y47.624 Z18.984 E59.72214
G1 X6.777 Y37.293 Z19.047 E47.4114
G1 X7.874 Y26.474 Z19.111 E47.84307
G1 X14.495 Y12.875 Z19.2 E66.54429
;TIME_ELAPSED:92.326442
;LAYER:18
;TYPE:WALL-OUTER
;MESH:Solid_vaza_primer2.STL
G1 X30.707 Y5.56 Z19.301 E78.25032
G1 X41.301 Y4.477 Z19.362 E46.85198
G1 X53.918 Y10.09 Z19.44 E60.75462
G1 X62.724 Y20.357 Z19.517 E59.50929
G1 X66.839 Y34.694 Z19.601 E65.62335
G1 X62.704 Y48.74 Z19.685 E64.41857
G1 X53.769 Y58.806 Z19.761 E59.21609
G1 X41.525 Y64.223 Z19.837 E58.90489
G1 X23.875 Y62.287 Z19.938 E78.11817
G1 X12.766 Y52.289 Z20.023 E65.75407
G1 X7.268 Y39.899 Z20.1 E59.63652
G1 X7.249 Y29.123 Z20.161 E47.40985
G1 X12.795 Y14.488 Z20.25 E68.85594
;TIME_ELAPSED:96.958422
;LAYER:19
;TYPE:WALL-OUTER
;MESH:Solid_vaza_primer2.STL
G1 X28.244 Y6.42 Z20.347 E76.67934
G1 X41.384 Y4.884 Z20.42 E58.20394
G1 X56.858 Y12.742 Z20.516 E76.35409
G1 X66.369 Y29.184 Z20.621 E83.56844
G1 X64.821 Y43.83 Z20.703 E64.79499
G1 X59.617 Y53.133 Z20.762 E46.8977
G1 X49.111 Y61.508 Z20.836 E59.11103
G1 X32.053 Y64.711 Z20.932 E76.35938
G1 X18.415 Y58.134 Z21.016 E66.61416
G1 X9.904 Y47.594 Z21.091 E59.60216
G1 X6.909 Y37.263 Z21.15 E47.32338
G1 X7.862 Y26.578 Z21.21 E47.196
G1 X16.293 Y12.658 Z21.3 E71.59925
;TIME_ELAPSED:101.710356
;LAYER:20
;TYPE:WALL-OUTER
;MESH:Solid_vaza_primer2.STL
G1 X33.312 Y5.255 Z21.402 E81.65325
G1 X47.826 Y6.988 Z21.483 E64.3089
G1 X62.166 Y18.973 Z21.586 E82.22316
G1 X66.578 Y37.491 Z21.691 E83.75163
G1 X59.824 Y53.446 Z21.787 E76.22542
G1 X49.34 Y62.009 Z21.862 E59.55513
G1 X36.029 Y64.435 Z21.936 E59.52731
G1 X22.929 Y60.936 Z22.011 E59.65479
G1 X11.274 Y51.563 Z22.094 E65.80144
G1 X6.255 Y34.555 Z22.191 E78.01789
G1 X9.861 Y21.432 Z22.267 E59.87559
G1 X18.796 Y9.232 Z22.35 E66.53015
;TIME_ELAPSED:106.478553
;LAYER:21
;TYPE:WALL-OUTER
;MESH:Solid_vaza_primer2.STL
G1 X30.627 Y5.603 Z22.419 E54.44494
G1 X44.111 Y5.57 Z22.494 E59.32395
G1 X53.715 Y10.339 Z22.554 E47.17605
G1 X61.732 Y17.467 Z22.614 E47.19666
G1 X67.133 Y34.407 Z22.713 E78.22507
G1 X62.513 Y48.657 Z22.796 E65.90648
G1 X50.698 Y61.847 Z22.895 E77.9072
G1 X33.363 Y64.035 Z22.992 E76.87161
G1 X18.354 Y57.961 Z23.083 E71.23548
G1 X11.008 Y50.148 Z23.142 E47.18147
G1 X6.044 Y34.541 Z23.234 E72.05358
G1 X11.17 Y19.041 Z23.325 E71.82568
G1 X20.605 Y9.356 Z23.4 E59.48672
;TIME_ELAPSED:111.199856
;LAYER:22
;TYPE:WALL-OUTER
;MESH:Solid_vaza_primer2.STL
G1 X44.041 Y5.623 Z23.53 E104.40805
G1 X55.852 Y12.061 Z23.604 E59.18154
G1 X63.668 Y22.762 Z23.676 E58.30067
G1 X66.285 Y39.888 Z23.771 E76.22159
G1 X59.49 Y53.09 Z23.852 E65.325
G1 X51.896 Y60.585 Z23.911 E46.94234
G1 X38.61 Y63.974 Z23.986 E60.32431
G1 X25.413 Y62.142 Z24.059 E58.61785
G1 X14.516 Y54.299 Z24.132 E59.06852
G1 X8.995 Y45.15 Z24.191 E47.01275
G1 X6.991 Y31.876 Z24.264 E59.06162
G1 X12.791 Y16.811 Z24.353 E71.0219
G1 X26.263 Y5.28 Z24.45 E78.01743
;TIME_ELAPSED:116.003861
;LAYER:23
;TYPE:WALL-OUTER
;MESH:Solid_vaza_primer2.STL
G1 X41.318 Y5.587 Z24.535 E66.2493
G1 X53.676 Y10.606 Z24.611 E58.68285
G1 X61.15 Y18.098 Z24.67 E46.55873
G1 X65.4 Y27.815 Z24.73 E46.66088
G1 X64.835 Y45.154 Z24.829 E76.32466
G1 X53.698 Y58.7 Z24.928 E77.15282
G1 X41.317 Y63.687 Z25.003 E58.72384
G1 X27.94 Y62.996 Z25.079 E58.93153
G1 X16.12 Y56.494 Z25.155 E59.35155
G1 X6.921 Y41.198 Z25.256 E78.52823
G1 X9.04 Y23.961 Z25.355 E76.4063
G1 X14.497 Y14.774 Z25.415 E47.01158
G1 X26.35 Y5.526 Z25.5 E66.14284
;TIME_ELAPSED:120.655866
;LAYER:24
;TYPE:WALL-OUTER
;MESH:Solid_vaza_primer2.STL
G1 X35.995 Y5.289 Z25.556 E42.4467
G1 X48.91 Y8.188 Z25.633 E58.23438
G1 X57.55 Y13.98 Z25.694 E45.76338
G1 X65.581 Y27.908 Z25.787 E70.73416
G1 X65.574 Y41.274 Z25.865 E58.80473
G1 X58.817 Y54.31 Z25.95 E64.59952
G1 X46.461 Y62.168 Z26.036 E64.42321
G1 X36.056 Y63.884 Z26.097 E46.39594
G1 X23.05 Y60.702 Z26.175 E58.90851
G1 X11.522 Y51.463 Z26.261 E64.99676
G1 X7.141 Y37.281 Z26.347 E65.30401
G1 X8.983 Y23.94 Z26.426 E59.25156
G1 X14.541 Y14.81 Z26.488 E47.02572
G1 X22.987 Y8.259 Z26.55 E47.02618
;TIME_ELAPSED:125.177441
;LAYER:25
;TYPE:WALL-OUTER
;MESH:Solid_vaza_primer2.STL
G1 X39.841 Y5.582 Z26.648 E75.07992
G1 X53.503 Y10.68 Z26.731 E64.15532
G1 X60.544 Y18.406 Z26.791 E45.98906
G1 X65.431 Y27.811 Z26.851 E46.63063
G1 X65.464 Y41.243 Z26.928 E59.09523
G1 X59.336 Y55.116 Z27.015 E66.72463
G1 X40.294 Y64.31 Z27.136 E93.03065
G1 X21.616 Y60.699 Z27.244 E83.69679
G1 X11.273 Y49.921 Z27.33 E65.72069
G1 X6.273 Y35.708 Z27.416 E66.2876
G1 X11.513 Y19.191 Z27.515 E76.23696
G1 X21.386 Y8.084 Z27.6 E65.38089
;TIME_ELAPSED:129.794881
;LAYER:26
;TYPE:WALL-OUTER
;MESH:Solid_vaza_primer2.STL
G1 X38.526 Y4.591 Z27.696 E76.95854
G1 X48.842 Y8.155 Z27.756 E48.01819
G1 X57.457 Y14.212 Z27.814 E46.33257
G1 X63.331 Y22.904 Z27.872 E46.15453
G1 X65.576 Y35.925 Z27.945 E58.132
G1 X63.393 Y46.152 Z28.003 E46.008
G1 X57.874 Y55.483 Z28.062 E47.69561
G1 X48.866 Y60.899 Z28.12 E46.24301
G1 X35.979 Y63.943 Z28.193 E58.25743
G1 X19.221 Y59.352 Z28.289 E76.44466
G1 X9.321 Y44.963 Z28.385 E76.84184
G1 X7.145 Y27.995 Z28.479 E75.2632
G1 X14.719 Y15.097 Z28.562 E65.8061
G1 X28.196 Y6.443 Z28.65 E70.46469
;TIME_ELAPSED:134.571528
;LAYER:27
;TYPE:WALL-OUTER
;MESH:Solid_vaza_primer2.STL
G1 X35.968 Y5.547 Z28.696 E34.41998
G1 X52.086 Y9.847 Z28.793 E73.39249
G1 X62.14 Y20.608 Z28.879 E64.79217
G1 X66.105 Y34.687 Z28.965 E64.35115
G1 X62.167 Y48.491 Z29.049 E63.15471
G1 X52.352 Y59.608 Z29.136 E65.24467
G1 X35.931 Y63.778 Z29.235 E74.53848
G1 X25.676 Y61.451 Z29.296 E46.2646
G1 X16.696 Y55.903 Z29.358 E46.44017
G1 X10.546 Y47.368 Z29.419 E46.28317
G1 X6.595 Y30.147 Z29.523 E77.73358
G1 X16.834 Y13.177 Z29.639 E87.19799
G1 X25.643 Y7.507 Z29.7 E46.09011
;TIME_ELAPSED:139.071560
;LAYER:28
;TYPE:WALL-OUTER
;MESH:Solid_vaza_primer2.STL
G1 X43.742 Y6.935 Z29.802 E79.66757
G1 X55.56 Y12.341 Z29.875 E57.17578
G1 X63.999 Y25.575 Z29.964 E69.05441
G1 X65.503 Y38.532 Z30.038 E57.38799
G1 X60.635 Y50.651 Z30.111 E57.45904
G1 X51.286 Y60.089 Z30.186 E58.44637
G1 X32.467 Y63.811 Z30.294 E84.3993
G1 X18.912 Y57.392 Z30.379 E65.98499
G1 X9.42 Y46.434 Z30.461 E63.78252
G1 X7.626 Y31.995 Z30.543 E64.01384
G1 X12.006 Y19.547 Z30.617 E58.05716
G1 X21.091 Y10.115 Z30.691 E57.61587
G1 X30.718 Y6.175 Z30.75 E45.76457
;TIME_ELAPSED:143.735312
;LAYER:29
;TYPE:WALL-OUTER
;MESH:Solid_vaza_primer2.STL
G1 X41.121 Y6.396 Z30.811 E45.77911
G1 X55.496 Y12.638 Z30.902 E68.94895
G1 X61.383 Y21.073 Z30.963 E45.25495
G1 X65.231 Y33.461 Z31.038 E57.07074
G1 X61.714 Y48.337 Z31.128 E67.25234
G1 X55.154 Y56.189 Z31.188 E45.0151
G1 X43.63 Y61.987 Z31.263 E56.75611
G1 X33.499 Y63.569 Z31.323 E45.11225
G1 X23.468 Y60.006 Z31.385 E46.83345
G1 X12.157 Y50.96 Z31.47 E63.72081
G1 X8.056 Y37.153 Z31.554 E63.36785
G1 X9.022 Y26.855 Z31.615 E45.50574
G1 X17.171 Y12.04 Z31.714 E74.38932
G1 X30.805 Y6.354 Z31.8 E64.9912
;TIME_ELAPSED:148.235336
;LAYER:30
;TYPE:WALL-OUTER
;MESH:Solid_vaza_primer2.STL
G1 X43.582 Y7.223 Z31.876 E56.34327
G1 X56.361 Y13.632 Z31.961 E62.89675
G1 X65.718 Y31.737 Z32.081 E89.66337
G1 X62.703 Y45.768 Z32.166 E63.13956
G1 X52.96 Y57.772 Z32.258 E68.01896
G1 X43.784 Y62.282 Z32.318 E44.98318
G1 X33.479 Y62.992 Z32.379 E45.44512
G1 X21.273 Y58.508 Z32.457 E57.21021
G1 X13.576 Y51.729 Z32.517 E45.12486
G1 X8.174 Y39.772 Z32.595 E57.72532
G1 X9.552 Y24.227 Z32.687 E68.6596
G1 X17.126 Y13.659 Z32.764 E57.20264
G1 X29.341 Y5.924 Z32.85 E63.6095
;TIME_ELAPSED:152.678792
;LAYER:31
;TYPE:WALL-OUTER
;MESH:Solid_vaza_primer2.STL
G1 X46.132 Y8.01 Z32.948 E74.44114
G1 X55.242 Y12.361 Z33.007 E44.41682
G1 X62.273 Y23.487 Z33.083 E57.90461
G1 X65.482 Y33.395 Z33.143 E45.82027
G1 X62.295 Y47.17 Z33.225 E62.205
G1 X50.722 Y58.986 Z33.321 E72.76637
G1 X41.187 Y62.385 Z33.38 E44.53566
G1 X26.068 Y60.944 Z33.468 E66.8186
G1 X12.643 Y50.735 Z33.566 E74.20222
G1 X8.458 Y37.104 Z33.648 E62.7334
G1 X9.403 Y26.914 Z33.708 E45.02405
G1 X13.951 Y17.785 Z33.767 E44.87197
G1 X23.711 Y9.442 Z33.841 E56.49012
G1 X33.405 Y6.482 Z33.9 E44.59338
;TIME_ELAPSED:157.217259
;LAYER:32
;TYPE:WALL-OUTER
;MESH:Solid_vaza_primer2.STL
G1 X41.049 Y7.337 Z33.947 E33.84013
G1 X50.562 Y10.459 Z34.008 E44.04947
G1 X58.063 Y17.108 Z34.07 E44.10003
G1 X63.141 Y25.698 Z34.131 E43.90205
G1 X63.839 Y40.939 Z34.224 E67.12431
G1 X57.444 Y53.586 Z34.311 E62.35043
G1 X41.078 Y62.258 Z34.424 E81.48728
G1 X25.809 Y60.658 Z34.518 E67.54503
G1 X17.63 Y54.987 Z34.579 E43.78774
G1 X10.541 Y44.447 Z34.657 E55.88432
G1 X8.72 Y34.592 Z34.718 E44.09186
G1 X11.601 Y22.219 Z34.796 E55.89225
G1 X17.542 Y14.215 Z34.857 E43.8547
G1 X31.072 Y7.165 Z34.95 E67.12259
;TIME_ELAPSED:161.518150
;LAYER:33
;TYPE:WALL-OUTER
;MESH:Solid_vaza_primer2.STL
G1 X41.035 Y6.957 Z35.011 E43.84259
G1 X50.57 Y10.344 Z35.074 E44.51806
G1 X58.228 Y16.87 Z35.135 E44.26635
G1 X63.349 Y28.321 Z35.213 E55.18806
G1 X63.755 Y40.811 Z35.289 E54.9798
G1 X57.899 Y54.197 Z35.379 E64.28177
G1 X40.975 Y61.938 Z35.494 E81.87777
G1 X26.169 Y60.629 Z35.585 E65.3943
G1 X13.262 Y50.271 Z35.687 E72.80996
G1 X8.498 Y34.552 Z35.788 E72.26343
G1 X13.005 Y18.649 Z35.89 E72.72213
G1 X27.079 Y7.58 Z36 E78.77591
;TIME_ELAPSED:165.796979
;LAYER:34
;TYPE:WALL-OUTER
;MESH:Solid_vaza_primer2.STL
G1 X50.311 Y10.602 Z36.141 E103.07214
G1 X60.382 Y21.651 Z36.231 E65.77415
G1 X63.591 Y30.779 Z36.289 E42.56876
G1 X62.568 Y43.09 Z36.363 E54.34989
G1 X56.399 Y54.205 Z36.44 E55.92831
G1 X44.383 Y61.043 Z36.523 E60.82607
G1 X28.646 Y60.763 Z36.617 E69.24712
G1 X17.756 Y54.757 Z36.692 E54.71495
G1 X9.159 Y40.44 Z36.792 E73.4723
G1 X12.153 Y22.445 Z36.902 E80.25877
G1 X17.969 Y14.669 Z36.96 E42.7217
G1 X31.207 Y7.812 Z37.05 E65.5911
;TIME_ELAPSED:170.175644
;LAYER:35
;TYPE:WALL-OUTER
;MESH:Solid_vaza_primer2.STL
G1 X40.77 Y9.267 Z37.112 E42.55748
G1 X50.291 Y11.001 Z37.173 E42.57751
G1 X58.892 Y19.687 Z37.251 E53.78015
G1 X62.894 Y28.411 Z37.312 E42.22784
G1 X62.809 Y40.654 Z37.39 E53.86547
G1 X57.643 Y51.682 Z37.468 E53.57833
G1 X43.691 Y61.822 Z37.578 E75.88213
G1 X25.154 Y59.506 Z37.697 E82.18925
G1 X15.022 Y50.565 Z37.783 E59.45128
G1 X9.504 Y39.498 Z37.862 E54.4069
G1 X11.363 Y21.859 Z37.975 E78.03415
G1 X26.249 Y8.996 Z38.1 E86.55566
;TIME_ELAPSED:174.308647
;LAYER:36
;TYPE:WALL-OUTER
;MESH:Solid_vaza_primer2.STL
G1 X35.098 Y8.316 Z38.158 E39.04679
G1 X50.096 Y11.327 Z38.258 E67.30173
G1 X59.998 Y21.88 Z38.353 E63.66738
G1 X62.87 Y30.837 Z38.414 E41.38336
G1 X60.909 Y45.178 Z38.509 E63.68173
G1 X53.208 Y55.816 Z38.595 E57.77933
G1 X37.098 Y61.726 Z38.707 E75.49634
G1 X22.247 Y56.939 Z38.809 E68.64883
G1 X11.095 Y41.821 Z38.932 E82.65163
G1 X11.118 Y27.292 Z39.027 E63.92178
G1 X22.368 Y12.202 Z39.15 E82.8095
;TIME_ELAPSED:178.334844
;LAYER:37
;TYPE:WALL-OUTER
;MESH:Solid_vaza_primer2.STL
G1 X31.159 Y8.643 Z39.213 E41.72622
G1 X43.108 Y9.48 Z39.291 E52.69956
G1 X54.435 Y15.756 Z39.377 E56.97251
G1 X63.072 Y31.77 Z39.497 E80.04919
G1 X60.815 Y44.973 Z39.585 E58.93048
G1 X55.538 Y52.874 Z39.648 E41.80139
G1 X45.351 Y59.148 Z39.726 E52.63687
G1 X26.883 Y58.655 Z39.848 E81.28068
G1 X17.398 Y51.699 Z39.926 E51.74928
G1 X12.312 Y43.803 Z39.988 E41.32207
G1 X9.977 Y30.625 Z40.076 E58.88097
G1 X18.896 Y14.041 Z40.2 E82.8454
;TIME_ELAPSED:182.329240
;LAYER:38
;TYPE:WALL-OUTER
;MESH:Solid_vaza_primer2.STL
G1 X31.194 Y9.069 Z40.289 E58.36091
G1 X45.39 Y10.3 Z40.385 E62.6911
G1 X53.578 Y14.304 Z40.446 E40.10044
G1 X60.091 Y24.426 Z40.527 E52.95518
G1 X62.908 Y33.465 Z40.591 E41.65449
G1 X59.573 Y46.878 Z40.684 E60.80858
G1 X49.587 Y56.96 Z40.78 E62.43201
G1 X38.47 Y59.719 Z40.857 E50.3941
G1 X26.856 Y58.396 Z40.935 E51.42739
G1 X19.176 Y53.334 Z40.997 E40.46825
G1 X10.865 Y40.752 Z41.099 E66.34205
G1 X11.91 Y27.602 Z41.187 E58.0371
G1 X16.023 Y19.257 Z41.25 E40.93185
;TIME_ELAPSED:186.255431
;LAYER:39
;TYPE:WALL-OUTER
;MESH:Solid_vaza_primer2.STL
G1 X23.562 Y14.342 Z41.31 E39.59485
G1 X38.448 Y9.839 Z41.415 E68.42333
G1 X49.285 Y12.675 Z41.49 E49.28404
G1 X59.811 Y23.325 Z41.59 E65.87936
G1 X61.535 Y37.954 Z41.689 E64.80713
G1 X57.755 Y48.773 Z41.766 E50.42086
G1 X49.608 Y56.642 Z41.842 E49.83306
G1 X36.084 Y59.744 Z41.935 E61.04528
G1 X23.12 Y55.798 Z42.026 E59.62004
G1 X13.049 Y43.508 Z42.132 E69.90643
G1 X11.864 Y29.927 Z42.224 E59.97799
G1 X16.412 Y19.484 Z42.3 E50.11305
;TIME_ELAPSED:190.181154
;LAYER:40
;TYPE:WALL-OUTER
;MESH:Solid_vaza_primer2.STL
G1 X25.36 Y12.745 Z42.378 E49.28361
G1 X33.941 Y10.479 Z42.44 E39.04718
G1 X44.914 Y11.332 Z42.516 E48.42251
G1 X54.212 Y17.252 Z42.593 E48.49541
G1 X61.097 Y31.279 Z42.702 E68.74658
G1 X60.121 Y42.173 Z42.778 E48.12128
G1 X50.873 Y54.842 Z42.887 E69.0092
G1 X40.697 Y58.806 Z42.963 E48.0473
G1 X23.176 Y55.376 Z43.087 E78.54872
G1 X14.39 Y45.326 Z43.18 E58.73043
G1 X12.047 Y36.887 Z43.241 E38.53271
G1 X14.841 Y21.422 Z43.35 E69.14141
;TIME_ELAPSED:193.965858
;LAYER:41
;TYPE:WALL-OUTER
;MESH:Solid_vaza_primer2.STL
G1 X23.563 Y13.997 Z43.431 E50.39501
G1 X38.269 Y10.13 Z43.538 E66.90012
G1 X52.362 Y15.952 Z43.645 E67.08621
G1 X60.253 Y29.2 Z43.754 E67.84213
G1 X60.376 Y39.98 Z43.83 E47.43088
G1 X53.814 Y51.36 Z43.922 E57.79488
G1 X39.801 Y59.431 Z44.036 E71.14662
G1 X25.494 Y56.043 Z44.139 E64.68603
G1 X17.249 Y49.034 Z44.216 E47.61065
G1 X12.378 Y34.443 Z44.324 E67.67735
G1 X14.814 Y23.901 Z44.4 E47.60284
;TIME_ELAPSED:197.706571
;LAYER:42
;TYPE:WALL-OUTER
;MESH:Solid_vaza_primer2.STL
G1 X27.61 Y12.611 Z44.516 E75.07759
G1 X42.867 Y11.181 Z44.62 E67.41891
G1 X50.257 Y14.925 Z44.676 E36.44761
G1 X60.176 Y29.313 Z44.794 E76.88622
G1 X59.263 Y43.246 Z44.889 E61.43112
G1 X48.555 Y54.944 Z44.997 E69.77281
G1 X31.73 Y57.788 Z45.113 E75.07337
G1 X20.333 Y51.879 Z45.2 E56.48099
G1 X15.359 Y45.04 Z45.257 E37.20527
G1 X12.127 Y31.179 Z45.354 E62.61874
G1 X18.867 Y18.666 Z45.45 E62.5305
;TIME_ELAPSED:201.589428
;LAYER:43
;TYPE:WALL-OUTER
;MESH:Solid_vaza_primer2.STL
G1 X29.801 Y12.351 Z45.539 E55.5522
G1 X40.381 Y11.614 Z45.613 E46.66064
G1 X50.28 Y15.193 Z45.687 E46.31086
G1 X59.648 Y29.214 Z45.805 E74.1889
G1 X59.446 Y41.912 Z45.894 E55.87329
G1 X53.281 Y50.648 Z45.97 E47.04189
G1 X40.193 Y57.151 Z46.072 E64.29823
G1 X29.85 Y56.888 Z46.145 E45.51987
G1 X20.692 Y51.755 Z46.218 E46.18888
G1 X14.189 Y40.838 Z46.308 E55.9062
G1 X14.126 Y28.268 Z46.396 E55.30376
G1 X22.442 Y15.987 Z46.5 E65.25359
;TIME_ELAPSED:205.340144
;LAYER:44
;TYPE:WALL-OUTER
;MESH:Solid_vaza_primer2.STL
G1 X34.165 Y11.872 Z46.595 E54.66208
G1 X47.341 Y14.092 Z46.696 E58.78654
G1 X58.826 Y27.555 Z46.831 E77.85696
G1 X58.667 Y41.783 Z46.939 E62.6018
G1 X54.504 Y48.991 Z47.003 E36.62169
G1 X43.368 Y56.896 Z47.107 E60.08344
G1 X29.902 Y56.593 Z47.209 E59.26036
G1 X17.419 Y48.834 Z47.321 E64.66515
G1 X13.786 Y34.541 Z47.433 E64.88346
G1 X17.197 Y19.609 Z47.55 E67.38754
;TIME_ELAPSED:208.801345
;LAYER:45
;TYPE:WALL-OUTER
;MESH:Solid_vaza_primer2.STL
G1 X30.424 Y13.28 Z47.66 E64.51261
G1 X44.223 Y13.021 Z47.763 E60.72108
G1 X52.558 Y18.788 Z47.839 E44.59285
G1 X59.118 Y33.581 Z47.96 E71.19597
G1 X55.368 Y47.103 Z48.065 E61.73707
G1 X44.344 Y56.058 Z48.172 E62.48716
G1 X29.437 Y57.109 Z48.284 E65.74799
G1 X16.483 Y44.455 Z48.419 E79.67202
G1 X15.103 Y28.297 Z48.541 E71.34793
G1 X18.569 Y21.205 Z48.6 E34.72906
;TIME_ELAPSED:212.319939
;LAYER:46
;TYPE:WALL-OUTER
;MESH:Solid_vaza_primer2.STL
G1 X32.34 Y12.135 Z48.724 E72.54784
G1 X44.012 Y13.447 Z48.813 E51.67584
G1 X54.487 Y22.562 Z48.918 E61.09128
G1 X59.129 Y34.408 Z49.014 E55.97663
G1 X55.044 Y46.975 Z49.113 E58.13778
G1 X47.637 Y53.318 Z49.187 E42.90421
G1 X32.137 Y56.364 Z49.306 E69.49849
G1 X21.733 Y50.465 Z49.396 E52.61948
G1 X15.07 Y40.518 Z49.486 E52.67407
G1 X16.12 Y26.605 Z49.592 E61.38608
G1 X20.148 Y20.004 Z49.65 E34.02192
;TIME_ELAPSED:215.813603
;LAYER:47
;TYPE:WALL-OUTER
;MESH:Solid_vaza_primer2.STL
G1 X30.483 Y13.872 Z49.747 E52.87149
G1 X46.527 Y15.435 Z49.876 E70.92201
G1 X56.384 Y26.026 Z49.993 E63.65507
G1 X58.308 Y39.46 Z50.102 E59.70788
G1 X50.576 Y50.95 Z50.214 E60.93212
G1 X43.97 Y54.52 Z50.274 E33.03662
G1 X30.292 Y55.097 Z50.384 E60.23182
G1 X18.496 Y48.009 Z50.495 E60.54672
G1 X15.149 Y34.592 Z50.606 E60.839
G1 X18.27 Y23.359 Z50.7 E51.2933
;TIME_ELAPSED:219.089296
;LAYER:48
;TYPE:WALL-OUTER
;MESH:Solid_vaza_primer2.STL
G1 X33.82 Y12.963 Z50.845 E82.29539
G1 X47.708 Y15.697 Z50.954 E62.27479
G1 X56.795 Y28.111 Z51.073 E67.68586
G1 X55.23 Y44.659 Z51.202 E73.12998
G1 X44.864 Y54.776 Z51.314 E63.72751
G1 X26.695 Y54.253 Z51.454 E79.97
G1 X17.714 Y43.962 Z51.56 E60.09374
G1 X16.434 Y28.721 Z51.678 E67.29084
G1 X20.889 Y20.536 Z51.75 E40.99957
;TIME_ELAPSED:222.501384
;LAYER:49
;TYPE:WALL-OUTER
;MESH:Solid_vaza_primer2.STL
G1 X25.629 Y17.485 Z51.798 E24.80105
G1 X38.229 Y13.592 Z51.909 E58.02134
G1 X50.98 Y20.054 Z52.03 E62.89286
G1 X56.687 Y31.636 Z52.139 E56.80715
G1 X55.472 Y42.808 Z52.234 E49.44279
G1 X50.007 Y50.15 Z52.311 E40.26855
G1 X36.171 Y56.053 Z52.439 E66.18239
G1 X22.586 Y49.681 Z52.565 E66.0175
G1 X16.503 Y38.313 Z52.674 E56.72561
G1 X19.094 Y23.684 Z52.8 E65.36431
;TIME_ELAPSED:225.621112
;LAYER:50
;TYPE:WALL-OUTER
;MESH:Solid_vaza_primer2.STL
G1 X27.479 Y16.66 Z52.895 E48.12454
G1 X41.404 Y14.758 Z53.016 E61.83417
G1 X52.886 Y21.418 Z53.131 E58.39997
G1 X56.713 Y35.592 Z53.258 E64.59394
G1 X54.507 Y44.205 Z53.335 E39.1175
G1 X45.121 Y52.747 Z53.444 E55.83634
G1 X30.671 Y53.843 Z53.569 E63.75775
G1 X21.619 Y48.034 Z53.662 E47.32108
G1 X16.514 Y36.286 Z53.773 E56.35635
G1 X17.705 Y27.476 Z53.85 E39.11364
;TIME_ELAPSED:228.671279
;LAYER:51
;TYPE:WALL-OUTER
;MESH:Solid_vaza_primer2.STL
G1 F2339.7 X24.97 Y19.255 Z53.948 E48.26929
G1 X38.088 Y14.439 Z54.074 E61.4816
G1 X52.926 Y23.443 Z54.23 E76.36176
G1 X56.64 Y35.483 Z54.343 E55.43513
G1 X54.199 Y44.145 Z54.424 E39.59435
G1 X46.542 Y51.674 Z54.52 E47.24594
G1 X36.241 Y54.104 Z54.615 E46.56503
G1 X24.495 Y50.123 Z54.726 E54.56607
G1 X18.152 Y41.541 Z54.822 E46.95188
G1 X16.924 Y32.942 Z54.9 E38.21666
;TIME_ELAPSED:231.683821
;LAYER:52
;TYPE:WALL-OUTER
;MESH:Solid_vaza_primer2.STL
G1 F2400 X22.809 Y22.008 Z55.006 E54.63124
G1 X31.13 Y16.747 Z55.09 E43.31312
G1 X44.318 Y17.847 Z55.203 E58.22421
G1 X53.642 Y25.279 Z55.304 E52.45964
G1 X56.263 Y35.43 Z55.394 E46.12568
G1 X53.957 Y43.735 Z55.467 E37.92154
G1 X41.25 Y53.301 Z55.603 E69.9776
G1 X32.892 Y53.492 Z55.674 E36.78195
G1 X18.092 Y43.943 Z55.825 E77.49194
G1 X17.937 Y29.245 Z55.95 E64.66978
;TIME_ELAPSED:234.775756
;LAYER:53
;TYPE:WALL-OUTER
;MESH:Solid_vaza_primer2.STL
G1 F2371.4 X30.842 Y15.833 Z56.115 E81.88839
G1 X44.717 Y17.025 Z56.238 E61.2703
G1 X51.142 Y22.619 Z56.314 E37.48086
G1 X55.878 Y35.406 Z56.434 E59.99335
G1 X51.185 Y46.316 Z56.54 E52.25295
G1 X42.923 Y52.436 Z56.631 E45.23647
G1 X34.594 Y53.516 Z56.705 E36.95164
G1 X23.588 Y48.295 Z56.813 E53.59496
G1 X19.358 Y43.024 Z56.873 E29.73487
G1 X16.942 Y28.849 Z57 E63.26472
;TIME_ELAPSED:237.788824
;LAYER:54
;TYPE:WALL-OUTER
;MESH:Solid_vaza_primer2.STL
G1 F2400 X31.559 Y15.364 Z57.172 E87.49714
G1 X39.537 Y16.33 Z57.242 E35.35691
G1 X51.638 Y22.228 Z57.358 E59.22748
G1 X55.44 Y35.19 Z57.475 E59.4311
G1 X48.646 Y48.675 Z57.606 E66.43403
G1 X36.14 Y53.236 Z57.721 E58.56724
G1 X26.73 Y50.227 Z57.806 E43.46595
G1 X18.778 Y39.605 Z57.921 E58.3783
G1 X20.79 Y24.831 Z58.05 E65.60064
;TIME_ELAPSED:240.840098
;LAYER:55
;TYPE:WALL-OUTER
;MESH:Solid_vaza_primer2.STL
G1 F2223.8 X31.146 Y16.843 Z58.174 E57.54274
G1 X45.875 Y18.912 Z58.314 E65.43934
G1 X52.967 Y25.68 Z58.407 E43.13102
G1 X55.118 Y35.302 Z58.5 E43.37879
G1 X48.616 Y48.486 Z58.638 E64.67608
G1 X34.386 Y52.709 Z58.779 E65.3065
G1 X26.932 Y50.157 Z58.853 E34.66412
G1 X18.695 Y37.758 Z58.994 E65.49247
G1 X20.192 Y26.592 Z59.1 E49.56653
;TIME_ELAPSED:243.855514
;LAYER:56
;TYPE:WALL-OUTER
;MESH:Solid_vaza_primer2.STL
G1 F2200.8 X27.573 Y20.175 Z59.193 E43.031
G1 X37.824 Y17.593 Z59.294 E46.51
G1 X46.987 Y19.816 Z59.384 E41.4839
G1 X53.612 Y28.985 Z59.492 E49.76938
G1 X53.809 Y38.459 Z59.583 E41.6918
G1 X50.348 Y45.664 Z59.659 E35.16748
G1 X41.079 Y51.489 Z59.763 E48.16514
G1 X26.809 Y49.628 Z59.901 E63.3154
G1 X18.769 Y40.273 Z60.018 E54.27124
G1 X20.509 Y26.579 Z60.15 E60.73392
;TIME_ELAPSED:246.867095
;LAYER:57
;TYPE:WALL-OUTER
;MESH:Solid_vaza_primer2.STL
G1 F2159.6 X26.805 Y19.563 Z60.242 E41.47502
G1 X40.975 Y17.622 Z60.381 E62.92603
G1 X52.014 Y26.348 Z60.518 E61.90979
G1 X54.163 Y35.199 Z60.606 E40.07318
G1 X47.985 Y47.8 Z60.743 E61.74548
G1 X34.614 Y51.685 Z60.878 E61.26137
G1 X24.599 Y47.392 Z60.984 E47.94069
G1 X19.571 Y39.388 Z61.076 E41.58709
G1 X20.84 Y26.684 Z61.2 E56.17205
;TIME_ELAPSED:249.879150
;LAYER:58
;TYPE:WALL-OUTER
;MESH:Solid_vaza_primer2.STL
G1 F2040.1 X28.85 Y19.43 Z61.311 E47.54574
G1 X40.864 Y17.587 Z61.436 E53.47673
G1 X52.052 Y26.206 Z61.582 E62.13736
G1 X54.127 Y35.248 Z61.677 E40.81646
G1 X47.866 Y47.833 Z61.822 E61.84442
G1 X36.089 Y51.813 Z61.95 E54.69456
G1 X28.805 Y49.903 Z62.027 E33.13109
G1 X21.102 Y42.157 Z62.14 E48.0633
G1 X19.622 Y31.56 Z62.25 E47.07648
;TIME_ELAPSED:252.889055
;LAYER:59
;TYPE:WALL-OUTER
;MESH:Solid_vaza_primer2.STL
G1 F2163.5 X28.717 Y19.304 Z62.398 E67.14831
G1 X37.78 Y17.992 Z62.487 E40.29021
G1 X48.461 Y23.208 Z62.602 E52.29739
G1 X53.422 Y32.252 Z62.703 E45.38435
G1 X51.089 Y42.582 Z62.805 E46.59363
G1 X46.604 Y48.324 Z62.876 E32.05628
G1 X34.618 Y51.497 Z62.996 E54.55141
G1 X22.945 Y46.397 Z63.12 E56.04561
G1 X19.315 Y28.216 Z63.3 E81.56987
;TIME_ELAPSED:255.901184
;LAYER:60
;TYPE:WALL-OUTER
;MESH:Solid_vaza_primer2.STL
G1 F1962 X25.482 Y22.424 Z63.391 E37.22389
G1 X34.694 Y18.093 Z63.5 E44.78647
G1 X49.708 Y23.169 Z63.669 E69.73097
G1 X53.368 Y38.452 Z63.837 E69.14272
G1 X46.447 Y48.289 Z63.966 E52.91914
G1 X34.827 Y51.229 Z64.094 E52.73611
G1 X23.055 Y44.444 Z64.24 E59.78102
G1 X19.91 Y34.643 Z64.35 E45.28766
;TIME_ELAPSED:258.911969
;LAYER:61
;TYPE:WALL-OUTER
;MESH:Solid_vaza_primer2.STL
G1 F2029.4 X24.67 Y23.592 Z64.475 E52.94005
G1 X34.683 Y17.66 Z64.595 E51.20519
G1 X47.346 Y21.85 Z64.733 E58.68457
G1 X52.849 Y32.274 Z64.855 E51.86144
G1 X49.247 Y45.037 Z64.992 E58.34728
G1 X43.675 Y49.304 Z65.065 E30.87803
G1 X31.829 Y50.164 Z65.188 E52.25644
G1 X24.435 Y45.565 Z65.278 E38.31107
G1 X20.194 Y34.541 Z65.4 E51.96805
;TIME_ELAPSED:261.922044
;LAYER:62
;TYPE:WALL-OUTER
;MESH:Solid_vaza_primer2.STL
G1 F1956.7 X22.182 Y29.181 Z65.461 E25.15247
G1 X29.427 Y20.214 Z65.585 E50.72081
G1 X36.368 Y17.717 Z65.664 E32.45469
G1 X47.139 Y21.997 Z65.789 E50.99407
G1 X52.475 Y35.24 Z65.942 E62.81792
G1 X47.057 Y46.974 Z66.081 E56.86442
G1 X39.229 Y50.4 Z66.172 E37.59535
G1 X24.553 Y45.467 Z66.338 E68.12083
G1 X20.432 Y35.923 Z66.45 E45.73854
;TIME_ELAPSED:264.932100
;LAYER:63
;TYPE:WALL-OUTER
;MESH:Solid_vaza_primer2.STL
G1 F1935.2 X24.318 Y25.479 Z66.571 E49.02882
G1 X33.424 Y18.951 Z66.693 E49.29578
G1 X44.579 Y21.06 Z66.816 E49.94877
G1 X50.634 Y28.58 Z66.92 E42.47836
G1 X52.712 Y35.167 Z66.995 E30.38914
G1 X48.89 Y44.374 Z67.104 E43.86026
G1 X36.31 Y50.272 Z67.254 E61.13015
G1 X24.644 Y45.118 Z67.393 E56.11365
G1 X20.729 Y36.046 Z67.5 E43.47273
;TIME_ELAPSED:267.941652
;LAYER:64
;TYPE:WALL-OUTER
;MESH:Solid_vaza_primer2.STL
G1 F1799.7 X23.029 Y27.663 Z67.601 E38.24653
G1 X31.037 Y20.262 Z67.729 E47.97659
G1 X38.92 Y19.517 Z67.821 E34.83815
G1 X49.672 Y26.011 Z67.968 E55.2657
G1 X52.455 Y33.821 Z68.064 E36.47883
G1 X50.376 Y42.075 Z68.164 E37.45025
G1 X37.842 Y50.199 Z68.338 E65.71781
G1 X26.873 Y46.883 Z68.472 E50.4185
G1 X22.598 Y41.708 Z68.55 E29.53318
;TIME_ELAPSED:270.949676
;LAYER:65
;TYPE:WALL-OUTER
;MESH:Solid_vaza_primer2.STL
G1 F1878.9 X22.496 Y30.467 Z68.676 E49.45992
G1 X30.971 Y19.924 Z68.827 E59.51587
G1 X45.244 Y22.349 Z68.989 E63.69792
G1 X50.765 Y28.291 Z69.079 E35.68667
G1 X51.302 Y39.539 Z69.205 E49.54504
G1 X40.506 Y49.42 Z69.369 E64.39141
G1 X29.487 Y48.254 Z69.493 E48.7518
G1 X22.733 Y41.416 Z69.6 E42.287
;TIME_ELAPSED:273.959646
;LAYER:66
;TYPE:WALL-OUTER
;MESH:Solid_vaza_primer2.STL
G1 F1855 X21.815 Y31.686 Z69.711 E43.00001
G1 X26.046 Y25.207 Z69.798 E34.0461
G1 X34.868 Y20.155 Z69.913 E44.72879
G1 X44.31 Y21.47 Z70.021 E41.9437
G1 X50.852 Y28.501 Z70.13 E42.25458
G1 X51.683 Y35.159 Z70.206 E29.52104
G1 X48.294 Y43.791 Z70.311 E40.80113
G1 X37.618 Y49.721 Z70.449 E53.73173
G1 X28.35 Y47.446 Z70.557 E41.98772
G1 X22.878 Y41.344 Z70.65 E36.06137
;TIME_ELAPSED:276.967632
;LAYER:67
;TYPE:WALL-OUTER
;MESH:Solid_vaza_primer2.STL
G1 F1806.1 X21.656 Y31.537 Z70.765 E43.4825
G1 X31.159 Y21.032 Z70.93 E62.32544
G1 X40.187 Y20.187 Z71.035 E39.89496
G1 X50.728 Y28.68 Z71.192 E59.55896
G1 X51.631 Y36.53 Z71.284 E34.76618
G1 X47.476 Y44.998 Z71.394 E41.50087
G1 X34.958 Y50.688 Z71.554 E60.49945
G1 X24.565 Y43.626 Z71.7 E55.28469
;TIME_ELAPSED:279.976658
;LAYER:68
;TYPE:WALL-OUTER
;MESH:Solid_vaza_primer2.STL
G1 F1728.1 X22.319 Y34.254 Z71.817 E42.40273
G1 X25.616 Y26.379 Z71.921 E37.56273
G1 X30.832 Y20.645 Z72.015 E34.10514
G1 X41.451 Y20.652 Z72.144 E46.72175
G1 X50.312 Y28.528 Z72.288 E52.16134
G1 X49.536 Y41.83 Z72.45 E58.62598
G1 X37.836 Y49.494 Z72.62 E61.53889
G1 X27.61 Y46.369 Z72.75 E47.0466
;TIME_ELAPSED:282.985076
;LAYER:69
;TYPE:WALL-OUTER
;MESH:Solid_vaza_primer2.STL
G1 F1898 X21.829 Y34.554 Z72.896 E57.87233
G1 X24.133 Y27 Z72.983 E34.74739
G1 X32.277 Y20.628 Z73.097 E45.49605
G1 X44.974 Y22.99 Z73.24 E56.82228
G1 X50.159 Y28.501 Z73.324 E33.29186
G1 X50.006 Y40.608 Z73.458 E53.27226
G1 X46.17 Y45.393 Z73.526 E26.98287
G1 X36.189 Y49.283 Z73.644 E47.13144
G1 X24.008 Y42.234 Z73.8 E61.92044
;TIME_ELAPSED:285.994456
;LAYER:70
;TYPE:WALL-OUTER
;MESH:Solid_vaza_primer2.STL
G1 F1795.5 X23.245 Y29.467 Z73.95 E56.2725
G1 X32.524 Y20.563 Z74.1 E56.58167
G1 X42.846 Y21.845 Z74.222 E45.7637
G1 X47.764 Y25.315 Z74.292 E26.48211
G1 X50.788 Y35.257 Z74.414 E45.72154
G1 X48.03 Y43.594 Z74.516 E38.63616
G1 X36.065 Y49.164 Z74.671 E58.06843
G1 X30.09 Y47.455 Z74.743 E27.34299
G1 X23.606 Y41.046 Z74.85 E40.11248
;TIME_ELAPSED:289.002958
;LAYER:71
;TYPE:WALL-OUTER
;MESH:Solid_vaza_primer2.STL
G1 F1757.3 X24.03 Y28.444 Z75.001 E55.47785
G1 X32.5 Y20.652 Z75.138 E50.63726
G1 X44.048 Y21.55 Z75.277 E50.96247
G1 X50.415 Y31.389 Z75.417 E51.56323
G1 X49.723 Y40.332 Z75.524 E39.46515
G1 X46.064 Y45.24 Z75.597 E26.93489
G1 X36.186 Y49.034 Z75.724 E46.55691
G1 X23.78 Y41.02 Z75.9 E64.98227
;TIME_ELAPSED:292.011515
;LAYER:72
;TYPE:WALL-OUTER
;MESH:Solid_vaza_primer2.STL
G1 F1777.8 X23.673 Y30.723 Z76.022 E45.30728
G1 X28.515 Y23.821 Z76.121 E37.09495
G1 X42.509 Y21.156 Z76.289 E62.67743
G1 X50.662 Y31.479 Z76.445 E57.87643
G1 X49.857 Y40.143 Z76.548 E38.28413
G1 X41.321 Y47.811 Z76.683 E50.48505
G1 X31.502 Y47.583 Z76.799 E43.21335
G1 X22.845 Y38.2 Z76.95 E56.17029
;TIME_ELAPSED:295.020343
;LAYER:73
;TYPE:WALL-OUTER
;MESH:Solid_vaza_primer2.STL
G1 F1763.4 X25.675 Y26.378 Z77.095 E53.48417
G1 X32.666 Y22.235 Z77.192 E35.75469
G1 X41.436 Y21.493 Z77.296 E38.72417
G1 X47.852 Y27.165 Z77.398 E37.67859
G1 X50.589 Y33.674 Z77.482 E31.06723
G1 X45.48 Y45.077 Z77.631 E54.97659
G1 X36.344 Y48.481 Z77.747 E42.89618
G1 X27.191 Y44.778 Z77.865 E43.44237
G1 X22.528 Y34.438 Z78 E49.90619
;TIME_ELAPSED:298.028433
;LAYER:74
;TYPE:WALL-OUTER
;MESH:Solid_vaza_primer2.STL
G1 F1724.9 X24.796 Y27.496 Z78.089 E32.13235
G1 X33.909 Y20.978 Z78.225 E49.29592
G1 X42.489 Y21.94 Z78.33 E37.98704
G1 X48.327 Y26.617 Z78.421 E32.91251
G1 X50.446 Y35.123 Z78.528 E38.56875
G1 X47.922 Y42.038 Z78.618 E32.38818
G1 X38.925 Y48.121 Z78.75 E47.78398
G1 X26.25 Y43.703 Z78.913 E59.05842
G1 X22.697 Y33.066 Z79.05 E49.34277
;TIME_ELAPSED:301.036467
;LAYER:75
;TYPE:WALL-OUTER
;MESH:Solid_vaza_primer2.STL
G1 F1729.4 X30.846 Y22.565 Z79.211 E58.48243
G1 X42.673 Y21.906 Z79.355 E52.11745
G1 X47.258 Y25.691 Z79.427 E26.15895
G1 X50.337 Y36.557 Z79.565 E49.69084
G1 X47.432 Y43.111 Z79.652 E31.54215
G1 X38.825 Y48.254 Z79.773 E44.11484
G1 X30.478 Y46.595 Z79.877 E37.44373
G1 X23.315 Y38.119 Z80.011 E48.82634
G1 X23.229 Y30.83 Z80.1 E32.07258
;TIME_ELAPSED:304.044048
;LAYER:76
;TYPE:WALL-OUTER
;MESH:Solid_vaza_primer2.STL
G1 F1764 X32.68 Y21.272 Z80.26 E59.14053
G1 X40.002 Y21.62 Z80.347 E32.25177
G1 X47.346 Y25.753 Z80.448 E37.07769
G1 X50.314 Y36.395 Z80.579 E48.60967
G1 X44.501 Y45.422 Z80.707 E47.23967
G1 X31.522 Y47.142 Z80.863 E57.60442
G1 X23.192 Y36.916 Z81.02 E58.03083
G1 X25.654 Y26.263 Z81.15 E48.10663
;TIME_ELAPSED:307.053366
;LAYER:77
;TYPE:WALL-OUTER
;MESH:Solid_vaza_primer2.STL
G1 F1579.7 X29.588 Y23.445 Z81.214 E21.29175
G1 X37.444 Y21.152 Z81.323 E36.00782
G1 X47.749 Y27.063 Z81.481 E52.27041
G1 X49.758 Y37.561 Z81.623 E47.02822
G1 X44.438 Y45.766 Z81.753 E43.02552
G1 X38.913 Y47.447 Z81.83 E25.40966
G1 X29.434 Y45.882 Z81.958 E42.27117
G1 X24.001 Y39.379 Z82.07 E37.28405
G1 X23.9 Y29.622 Z82.2 E42.93203
;TIME_ELAPSED:310.060210
;LAYER:78
;TYPE:WALL-OUTER
;MESH:Solid_vaza_primer2.STL
G1 F1664.4 X35.355 Y21.389 Z82.378 E62.06742
G1 X42.937 Y23.667 Z82.478 E34.83282
G1 X48.616 Y29.13 Z82.577 E34.67108
G1 X48.853 Y39.675 Z82.71 E46.40813
G1 X38.636 Y47.916 Z82.876 E57.75401
G1 X29.464 Y45.998 Z82.994 E41.22832
G1 X23.245 Y35.619 Z83.147 E53.23632
G1 X25.021 Y27.644 Z83.25 E35.94836
;TIME_ELAPSED:313.068057
;LAYER:79
;TYPE:WALL-OUTER
;MESH:Solid_vaza_primer2.STL
G1 F1617.8 X35.249 Y21.115 Z83.408 E53.38912
G1 X43.258 Y22.761 Z83.514 E35.97506
G1 X49.418 Y32.865 Z83.667 E52.06671
G1 X44.066 Y44.922 Z83.839 E58.04085
G1 X36.347 Y47.835 Z83.946 E36.30054
G1 X29.577 Y45.993 Z84.037 E30.86999
G1 X23.257 Y35.615 Z84.194 E53.46251
G1 X25.098 Y27.691 Z84.3 E35.7932
;TIME_ELAPSED:316.084413
;LAYER:80
;TYPE:WALL-OUTER
;MESH:Solid_vaza_primer2.STL
G1 F1584 X33.036 Y22.493 Z84.426 E41.7482
G1 X44.93 Y24.884 Z84.587 E53.3792
G1 X48.951 Y37.121 Z84.757 E56.67361
G1 X45.175 Y44.669 Z84.869 E37.13424
G1 X37.702 Y47.78 Z84.977 E35.61577
G1 X26.884 Y43.248 Z85.132 E51.606
G1 X23.349 Y33.13 Z85.274 E47.15688
G1 X25.106 Y27.689 Z85.35 E25.15703
;TIME_ELAPSED:319.091651
;LAYER:81
;TYPE:WALL-OUTER
;MESH:Solid_vaza_primer2.STL
G1 F1682.5 X34.819 Y22.168 Z85.489 E49.15703
G1 X45.362 Y24.494 Z85.624 E47.50306
G1 X48.54 Y31.792 Z85.724 E35.02248
G1 X47.419 Y41.85 Z85.85 E44.52761
G1 X40.031 Y47.175 Z85.964 E40.06956
G1 X27.547 Y44.017 Z86.124 E56.65777
G1 X23.593 Y35.869 Z86.237 E39.8481
G1 X28.712 Y23.884 Z86.4 E57.34069
;TIME_ELAPSED:322.099734
;LAYER:82
;TYPE:WALL-OUTER
;MESH:Solid_vaza_primer2.STL
G1 F1567.1 X36.212 Y21.655 Z86.505 E34.42576
G1 X45.969 Y25.399 Z86.645 E45.98187
G1 X49.273 Y35.183 Z86.783 E45.43687
G1 X47.697 Y41.851 Z86.875 E30.14684
G1 X39.942 Y47.324 Z87.002 E41.76279
G1 X30.574 Y45.866 Z87.129 E41.71443
G1 X23.484 Y34.724 Z87.306 E58.10732
G1 X27.688 Y24.858 Z87.45 E47.18601
;TIME_ELAPSED:325.106777
;LAYER:83
;TYPE:WALL-OUTER
;MESH:Solid_vaza_primer2.STL
G1 F1610.9 X43.049 Y23.888 Z87.651 E67.7211
G1 X46.999 Y27.206 Z87.718 E22.69738
G1 X49.272 Y37.498 Z87.855 E46.37469
G1 X43.943 Y45.033 Z87.976 E40.60648
G1 X37.688 Y47.443 Z88.063 E29.49329
G1 X28.785 Y44.763 Z88.184 E40.90836
G1 X23.74 Y32.389 Z88.358 E58.79519
G1 X29.722 Y23.323 Z88.5 E47.79016
;TIME_ELAPSED:328.114119
;LAYER:84
;TYPE:WALL-OUTER
;MESH:Solid_vaza_primer2.STL
G1 F1514.6 X37.569 Y23.048 Z88.609 E34.5474
G1 X46.924 Y26.459 Z88.747 E43.81204
G1 X48.373 Y39.609 Z88.93 E58.20916
G1 X44.367 Y45.111 Z89.025 E29.9454
G1 X32.89 Y46.732 Z89.185 E50.99906
G1 X25.129 Y39.997 Z89.328 E45.21303
G1 X23.661 Y34.693 Z89.404 E24.21453
G1 X27.762 Y25.012 Z89.55 E46.25992
;TIME_ELAPSED:331.121060
;LAYER:85
;TYPE:WALL-OUTER
;MESH:Solid_vaza_primer2.STL
G1 F1512.9 X35.496 Y22.183 Z89.664 E36.23409
G1 X42.7 Y23.95 Z89.767 E32.63661
G1 X48.295 Y31.933 Z89.903 E42.89249
G1 X48.83 Y37.43 Z89.979 E24.30062
G1 X44.243 Y45.118 Z90.104 E39.39003
G1 X32.726 Y46.94 Z90.265 E51.30407
G1 X26.303 Y42.228 Z90.376 E35.05002
G1 X23.69 Y33.271 Z90.505 E41.05284
G1 X26.075 Y26.89 Z90.6 E29.97297
;TIME_ELAPSED:334.127617
;LAYER:86
;TYPE:WALL-OUTER
;MESH:Solid_vaza_primer2.STL
G1 F1563 X33.16 Y22.708 Z90.711 E36.19873
G1 X41.901 Y22.903 Z90.828 E38.46904
G1 X49.452 Y32.89 Z90.996 E55.08799
G1 X46.328 Y42.708 Z91.135 E45.33232
G1 X42.248 Y45.931 Z91.205 E22.87699
G1 X31.912 Y46.499 Z91.344 E45.54595
G1 X24.034 Y36.751 Z91.512 E55.14569
G1 X26.279 Y26.726 Z91.65 E45.20145
;TIME_ELAPSED:337.134857
;LAYER:87
;TYPE:WALL-OUTER
;MESH:Solid_vaza_primer2.STL
G1 F1534.3 X36.377 Y22.255 Z91.801 E48.59053
G1 X45.107 Y26.274 Z91.933 E42.2862
G1 X48.877 Y31.685 Z92.023 E29.01667
G1 X46.632 Y42.833 Z92.179 E50.03496
G1 X40.008 Y46.763 Z92.284 E33.88852
G1 X29.016 Y44.501 Z92.438 E49.37729
G1 X23.802 Y34.403 Z92.593 E50.00345
G1 X26.176 Y26.969 Z92.7 E34.33631
;TIME_ELAPSED:340.141548
;LAYER:88
;TYPE:WALL-OUTER
;MESH:Solid_vaza_primer2.STL
G1 F1477.8 X33.263 Y23.169 Z92.814 E35.38209
G1 X45.077 Y25.096 Z92.984 E52.66788
G1 X48.566 Y37.04 Z93.161 E54.74923
G1 X41.871 Y46.126 Z93.322 E49.65871
G1 X33.028 Y46.52 Z93.447 E38.94726
G1 X25.328 Y40.148 Z93.589 E43.97576
G1 X25.154 Y28.849 Z93.75 E49.72089
;TIME_ELAPSED:343.148367
;LAYER:89
;TYPE:WALL-OUTER
;MESH:Solid_vaza_primer2.STL
G1 F1572.3 X35.107 Y22.621 Z93.907 E51.65898
G1 X41.756 Y23.836 Z93.997 E29.73929
G1 X47.399 Y29.72 Z94.106 E35.87057
G1 X48.104 Y39.277 Z94.234 E42.16403
G1 X38.517 Y46.939 Z94.398 E53.99814
G1 X29.993 Y45.215 Z94.514 E38.26407
G1 X24.071 Y35.652 Z94.664 E49.49067
G1 X27.114 Y25.957 Z94.8 E44.70883
;TIME_ELAPSED:346.155458
;LAYER:90
;TYPE:WALL-OUTER
;MESH:Solid_vaza_primer2.STL
G1 F1583.4 X36.244 Y21.849 Z94.933 E44.05002
G1 X45.51 Y26.102 Z95.068 E44.85872
G1 X48.644 Y31.397 Z95.15 E27.07237
G1 X45.184 Y43.01 Z95.31 E53.31551
G1 X38.622 Y47.23 Z95.414 E34.32711
G1 X31.941 Y46.288 Z95.503 E29.68637
G1 X25.335 Y40.001 Z95.624 E40.12485
G1 X24.115 Y32.3 Z95.728 E34.30612
G1 X28.817 Y24.358 Z95.85 E40.60885
;TIME_ELAPSED:349.162322
;LAYER:91
;TYPE:WALL-OUTER
;MESH:Solid_vaza_primer2.STL
G1 F1615.9 X41.592 Y23.702 Z96.016 E56.2824
G1 X49.046 Y31.733 Z96.159 E48.21007
G1 X47.121 Y40.531 Z96.276 E39.62582
G1 X41.949 Y45.911 Z96.373 E32.83554
G1 X32.986 Y46.734 Z96.49 E39.60195
G1 X25.217 Y40.207 Z96.621 E44.6449
G1 X25.303 Y28.932 Z96.768 E49.61002
G1 X32.978 Y22.281 Z96.9 E44.68447
;TIME_ELAPSED:352.169797
;LAYER:92
;TYPE:WALL-OUTER
;MESH:Solid_vaza_primer2.STL
G1 F1479.7 X39.739 Y22.69 Z96.996 E29.80239
G1 X47.182 Y28.961 Z97.134 E42.82292
G1 X48.415 Y38.544 Z97.271 E42.51223
G1 X42.931 Y45.569 Z97.398 E39.21261
G1 X35.184 Y47.03 Z97.51 E34.68723
G1 X28.259 Y43.742 Z97.619 E33.72969
G1 X24.217 Y33.441 Z97.776 E48.68818
G1 X30.937 Y23.151 Z97.95 E54.07499
;TIME_ELAPSED:355.176284
;LAYER:93
;TYPE:WALL-OUTER
;MESH:Solid_vaza_primer2.STL
G1 F1573.4 X40.699 Y22.781 Z98.08 E42.98256
G1 X47.121 Y27.706 Z98.188 E35.60861
G1 X47.641 Y40.412 Z98.358 E55.95184
G1 X42.048 Y46.015 Z98.464 E34.83295
G1 X33.165 Y46.623 Z98.583 E39.17569
G1 X24.637 Y37.718 Z98.747 E54.25008
G1 X25.33 Y29.084 Z98.863 E38.11086
G1 X33.028 Y22.272 Z99 E45.22748
;TIME_ELAPSED:358.183224
;LAYER:94
;TYPE:WALL-OUTER
;MESH:Solid_vaza_primer2.STL
G1 F1469.5 X37.47 Y22.336 Z99.063 E19.54657
G1 X44.568 Y25.136 Z99.173 E33.57303
G1 X48.191 Y34.121 Z99.311 E42.62646
G1 X47.123 Y41.636 Z99.419 E33.39783
G1 X35.402 Y46.969 Z99.603 E56.6591
G1 X25.431 Y39.897 Z99.778 E53.78641
G1 X25.271 Y28.796 Z99.937 E48.84893
G1 X30.801 Y23.126 Z100.05 E34.84853
;TIME_ELAPSED:361.189988
;LAYER:95
;TYPE:WALL-OUTER
;MESH:Solid_vaza_primer2.STL
G1 F1530.5 X42.058 Y23.51 Z100.136 E49.55542
G1 X46.549 Y27.648 Z100.183 E26.86734
G1 X49.014 Y36.146 Z100.251 E38.9292
G1 X43.641 Y44.273 Z100.325 E42.86358
G1 X30.251 Y44.982 Z100.428 E58.99357
G1 X24.287 Y36.706 Z100.506 E44.88084
G1 X24.729 Y30.023 Z100.557 E29.46695
G1 X29.625 Y23.929 Z100.617 E34.39251
G1 X42.24 Y23.066 E44.50353
G1 X47.229 Y27.316 E20.18349
G1 X49.293 Y36.225 E24.13996
G1 X43.967 Y44.983 E20.29331
G1 X29.928 Y45.44 E18.53919
G1 X24.056 Y36.706
;TIME_ELAPSED:366.577143
G10
M82 ;absolute extrusion mode
M107
M104 S0
M140 S0
;Retract the filament
G92 E1
G1 E-1 F300
G28 X0 Y0
M84
M82 ;absolute extrusion mode
;End of Gcode
;SETTING_3 {"global_quality": "[general]\\nversion = 4\\nname = Normal #2\\ndefi
;SETTING_3 nition = custom\\n\\n[metadata]\\ntype = quality_changes\\nquality_ty
;SETTING_3 pe = fast\\nsetting_version = 20\\n\\n[values]\\nadhesion_type = none
;SETTING_3 \\nlayer_height = 1.05\\nlayer_height_0 = 0.3\\nmagic_spiralize = Tru
;SETTING_3 e\\nprint_sequence = one_at_a_time\\nrelative_extrusion = True\\nretr
;SETTING_3 action_combing = off\\n\\n", "extruder_quality": ["[general]\\nversio
;SETTING_3 n = 4\\nname = Normal #2\\ndefinition = custom\\n\\n[metadata]\\ntype
;SETTING_3  = quality_changes\\nquality_type = fast\\nsetting_version = 20\\npos
;SETTING_3 ition = 0\\n\\n[values]\\ninfill_sparse_density = 0\\nline_width = 4.
;SETTING_3 19\\nmeshfix_maximum_deviation = 2\\nmeshfix_maximum_resolution = 10\
;SETTING_3 \nmeshfix_maximum_travel_resolution = 1.5\\ntop_bottom_thickness = 0\
;SETTING_3 \nwall_thickness = 4.19\\nwall_transition_length = 1\\nz_seam_positio
;SETTING_3 n = backleft\\n\\n"]}
